(G-CODE GENERATED BY FLATCAM v8.994 - www.flatcam.org - Version Date: 2020/11/7)

(Name: 2 - Bottom.gbr_iso_combined_cnc)
(Type: G-code from Geometry)
(Units: MM)

(Created on Wednesday, 24 November 2021 at 19:25)

(This preprocessor is used with a motion controller loaded with GRBL firmware.)
(It is configured to be compatible with almost any version of GRBL firmware.)

(TOOL DIAMETER: 0.1322 mm)
(Feedrate_XY: 90.0 mm/min)
(Feedrate_Z: 60.0 mm/min)
(Feedrate rapids 1500.0 mm/min)

(Z_Cut: -0.0601 mm)
(Z_Move: 2.0 mm)
(Z Start: None mm)
(Z End: 15.0 mm)
(X,Y End: 0.0000, 0.0000 mm)
(Steps per circle: 64)
(Steps per circle: 64)
(Preprocessor Geometry: GRBL_11_no_M6)

(X range:    0.5166 ...   41.9481  mm)
(Y range:    0.8341 ...   13.7709  mm)

(Spindle Speed: 10000.0 RPM)
G21
G90
G17
G94


G01 F90.00

M5             
G00 Z15.0000
G00 X0.0000 Y0.0000                
T2
(MSG, Change to Tool Dia = 0.1322)
M0
G00 Z15.0000
        
M03 S10000.0
G01 F90.00
G00 X1.0712 Y5.1739
G01 F60.00
G01 Z-0.0601
G01 F90.00
G01 X1.0712 Y3.8101 F90.00
G01 X1.0718 Y3.7893 F90.00
G01 X1.0740 Y3.7466 F90.00
G01 X1.0760 Y3.7259 F90.00
G01 X1.0774 Y3.7156 F90.00
G01 X1.0822 Y3.6836 F90.00
G01 X1.0857 Y3.6631 F90.00
G01 X1.0903 Y3.6428 F90.00
G01 X1.1008 Y3.6013 F90.00
G01 X1.1037 Y3.5914 F90.00
G01 X1.1102 Y3.5717 F90.00
G01 X1.1211 Y3.5411 F90.00
G01 X1.1286 Y3.5218 F90.00
G01 X1.1370 Y3.5028 F90.00
G01 X1.1554 Y3.4641 F90.00
G01 X1.1602 Y3.4549 F90.00
G01 X1.1704 Y3.4369 F90.00
G01 X1.1871 Y3.4091 F90.00
G01 X1.1982 Y3.3915 F90.00
G01 X1.2102 Y3.3745 F90.00
G01 X1.2295 Y3.3485 F90.00
G01 X1.2423 Y3.3321 F90.00
G01 X1.2558 Y3.3164 F90.00
G01 X1.2776 Y3.2924 F90.00
G01 X1.2919 Y3.2773 F90.00
G01 X3.5145 Y1.0548 F90.00
G01 X3.5295 Y1.0404 F90.00
G01 X3.5535 Y1.0187 F90.00
G01 X3.5693 Y1.0051 F90.00
G01 X3.5856 Y0.9923 F90.00
G01 X3.6117 Y0.9730 F90.00
G01 X3.6287 Y0.9611 F90.00
G01 X3.6462 Y0.9500 F90.00
G01 X3.6740 Y0.9333 F90.00
G01 X3.6921 Y0.9231 F90.00
G01 X3.7106 Y0.9137 F90.00
G01 X3.7494 Y0.8955 F90.00
G01 X3.7685 Y0.8876 F90.00
G01 X3.8088 Y0.8731 F90.00
G01 X3.8285 Y0.8665 F90.00
G01 X3.8485 Y0.8610 F90.00
G01 X3.8800 Y0.8531 F90.00
G01 X3.9002 Y0.8486 F90.00
G01 X3.9207 Y0.8450 F90.00
G01 X3.9528 Y0.8403 F90.00
G01 X3.9734 Y0.8377 F90.00
G01 X3.9941 Y0.8362 F90.00
G01 X4.0265 Y0.8346 F90.00
G01 X4.0472 Y0.8341 F90.00
G01 X40.2422 Y0.8341 F90.00
G01 X40.2630 Y0.8346 F90.00
G01 X40.2954 Y0.8362 F90.00
G01 X40.3161 Y0.8377 F90.00
G01 X40.3367 Y0.8403 F90.00
G01 X40.3790 Y0.8467 F90.00
G01 X40.3994 Y0.8507 F90.00
G01 X40.4095 Y0.8531 F90.00
G01 X40.4510 Y0.8636 F90.00
G01 X40.4708 Y0.8697 F90.00
G01 X40.5112 Y0.8840 F90.00
G01 X40.5305 Y0.8914 F90.00
G01 X40.5495 Y0.8999 F90.00
G01 X40.5788 Y0.9137 F90.00
G01 X40.5882 Y0.9183 F90.00
G01 X40.6065 Y0.9281 F90.00
G01 X40.6432 Y0.9500 F90.00
G01 X40.6608 Y0.9611 F90.00
G01 X40.6778 Y0.9730 F90.00
G01 X40.7038 Y0.9923 F90.00
G01 X40.7121 Y0.9986 F90.00
G01 X40.7281 Y1.0118 F90.00
G01 X40.7599 Y1.0404 F90.00
G01 X40.7750 Y1.0548 F90.00
G01 X41.7347 Y2.0147 F90.00
G01 X41.7635 Y2.0463 F90.00
G01 X41.7771 Y2.0620 F90.00
G01 X41.7899 Y2.0784 F90.00
G01 X41.8153 Y2.1129 F90.00
G01 X41.8268 Y2.1301 F90.00
G01 X41.8489 Y2.1668 F90.00
G01 X41.8592 Y2.1848 F90.00
G01 X41.8685 Y2.2034 F90.00
G01 X41.8824 Y2.2327 F90.00
G01 X41.8908 Y2.2517 F90.00
G01 X41.8982 Y2.2711 F90.00
G01 X41.9092 Y2.3016 F90.00
G01 X41.9157 Y2.3213 F90.00
G01 X41.9212 Y2.3413 F90.00
G01 X41.9291 Y2.3728 F90.00
G01 X41.9336 Y2.3930 F90.00
G01 X41.9372 Y2.4135 F90.00
G01 X41.9434 Y2.4558 F90.00
G01 X41.9445 Y2.4662 F90.00
G01 X41.9460 Y2.4869 F90.00
G01 X41.9476 Y2.5192 F90.00
G01 X41.9481 Y2.5400 F90.00
G01 X41.9481 Y5.3975 F90.00
G01 X41.9476 Y5.4183 F90.00
G01 X41.9460 Y5.4506 F90.00
G01 X41.9445 Y5.4713 F90.00
G01 X41.9420 Y5.4920 F90.00
G01 X41.9372 Y5.5240 F90.00
G01 X41.9336 Y5.5445 F90.00
G01 X41.9315 Y5.5546 F90.00
G01 X41.9186 Y5.6062 F90.00
G01 X41.9157 Y5.6162 F90.00
G01 X41.9092 Y5.6359 F90.00
G01 X41.8982 Y5.6664 F90.00
G01 X41.8908 Y5.6858 F90.00
G01 X41.8824 Y5.7048 F90.00
G01 X41.8685 Y5.7341 F90.00
G01 X41.8592 Y5.7527 F90.00
G01 X41.8542 Y5.7617 F90.00
G01 X41.8268 Y5.8074 F90.00
G01 X41.8153 Y5.8246 F90.00
G01 X41.8092 Y5.8330 F90.00
G01 X41.7899 Y5.8591 F90.00
G01 X41.7771 Y5.8755 F90.00
G01 X41.7635 Y5.8912 F90.00
G01 X41.7418 Y5.9152 F90.00
G01 X41.7275 Y5.9302 F90.00
G01 X41.0925 Y6.5652 F90.00
G01 X41.0774 Y6.5796 F90.00
G01 X41.0456 Y6.6082 F90.00
G01 X41.0296 Y6.6214 F90.00
G01 X41.0213 Y6.6277 F90.00
G01 X40.9953 Y6.6470 F90.00
G01 X40.9783 Y6.6589 F90.00
G01 X40.9607 Y6.6700 F90.00
G01 X40.9329 Y6.6867 F90.00
G01 X40.9240 Y6.6919 F90.00
G01 X40.9057 Y6.7017 F90.00
G01 X40.8576 Y6.7245 F90.00
G01 X40.8384 Y6.7324 F90.00
G01 X40.8287 Y6.7360 F90.00
G01 X40.7981 Y6.7469 F90.00
G01 X40.7784 Y6.7535 F90.00
G01 X40.7584 Y6.7590 F90.00
G01 X40.7270 Y6.7669 F90.00
G01 X40.7169 Y6.7693 F90.00
G01 X40.6965 Y6.7733 F90.00
G01 X40.6439 Y6.7811 F90.00
G01 X40.6232 Y6.7832 F90.00
G01 X40.5805 Y6.7854 F90.00
G01 X40.5597 Y6.7859 F90.00
G01 X40.3037 Y6.7859 F90.00
G01 X40.2485 Y6.8469 F90.00
G01 X40.2414 Y6.8545 F90.00
G01 X40.2268 Y6.8692 F90.00
G01 X40.1568 Y6.9326 F90.00
G01 X40.1489 Y6.9393 F90.00
G01 X40.1325 Y6.9520 F90.00
G01 X40.0650 Y7.0020 F90.00
G01 X40.0477 Y7.0135 F90.00
G01 X40.0389 Y7.0190 F90.00
G01 X39.9758 Y7.0568 F90.00
G01 X39.9577 Y7.0670 F90.00
G01 X39.9391 Y7.0764 F90.00
G01 X39.8726 Y7.1078 F90.00
G01 X39.8536 Y7.1162 F90.00
G01 X39.8440 Y7.1201 F90.00
G01 X39.7551 Y7.1519 F90.00
G01 X39.7353 Y7.1579 F90.00
G01 X39.7252 Y7.1606 F90.00
G01 X39.6437 Y7.1808 F90.00
G01 X39.6336 Y7.1830 F90.00
G01 X39.6131 Y7.1865 F90.00
G01 X39.5403 Y7.1973 F90.00
G01 X39.5197 Y7.1999 F90.00
G01 X39.4990 Y7.2014 F90.00
G01 X39.4151 Y7.2054 F90.00
G01 X37.9047 Y7.2055 F90.00
G01 X37.8840 Y7.2050 F90.00
G01 X37.8105 Y7.2014 F90.00
G01 X37.7897 Y7.1999 F90.00
G01 X37.7691 Y7.1973 F90.00
G01 X37.6861 Y7.1849 F90.00
G01 X37.6759 Y7.1830 F90.00
G01 X37.6556 Y7.1784 F90.00
G01 X37.5842 Y7.1606 F90.00
G01 X37.5642 Y7.1550 F90.00
G01 X37.5445 Y7.1485 F90.00
G01 X37.4752 Y7.1237 F90.00
G01 X37.4558 Y7.1162 F90.00
G01 X37.4368 Y7.1078 F90.00
G01 X37.3610 Y7.0718 F90.00
G01 X37.3518 Y7.0670 F90.00
G01 X37.3337 Y7.0568 F90.00
G01 X37.2706 Y7.0190 F90.00
G01 X37.2530 Y7.0078 F90.00
G01 X37.2360 Y6.9959 F90.00
G01 X37.1769 Y6.9520 F90.00
G01 X37.1606 Y6.9393 F90.00
G01 X37.1448 Y6.9257 F90.00
G01 X37.0903 Y6.8763 F90.00
G01 X37.0753 Y6.8620 F90.00
G01 X37.0609 Y6.8469 F90.00
G01 X37.0058 Y6.7859 F90.00
G01 X36.0080 Y6.7859 F90.00
G01 X35.9859 Y6.7934 F90.00
G01 X35.9665 Y6.7988 F90.00
G01 X35.9469 Y6.8034 F90.00
G01 X35.9270 Y6.8069 F90.00
G01 X35.8414 Y6.8182 F90.00
G01 X35.8193 Y6.8199 F90.00
G01 X35.7972 Y6.8205 F90.00
G01 X34.5161 Y6.8204 F90.00
G01 X34.4940 Y6.8193 F90.00
G01 X34.4830 Y6.8183 F90.00
G01 X34.4073 Y6.8085 F90.00
G01 X34.3874 Y6.8054 F90.00
G01 X34.3677 Y6.8013 F90.00
G01 X34.3482 Y6.7963 F90.00
G01 X34.3289 Y6.7904 F90.00
G01 X34.3189 Y6.7870 F90.00
G01 X33.8865 Y6.7862 F90.00
G01 X33.3915 Y7.2812 F90.00
G01 X33.4153 Y7.3310 F90.00
G01 X33.4237 Y7.3500 F90.00
G01 X33.4312 Y7.3694 F90.00
G01 X33.4459 Y7.4105 F90.00
G01 X33.4524 Y7.4302 F90.00
G01 X33.4579 Y7.4502 F90.00
G01 X33.4685 Y7.4925 F90.00
G01 X33.4731 Y7.5128 F90.00
G01 X33.4766 Y7.5332 F90.00
G01 X33.4830 Y7.5764 F90.00
G01 X33.4856 Y7.5970 F90.00
G01 X33.4871 Y7.6177 F90.00
G01 X33.4893 Y7.6612 F90.00
G01 X33.4898 Y7.6820 F90.00
G01 X33.4898 Y8.1930 F90.00
G01 X33.4893 Y8.2138 F90.00
G01 X33.4865 Y8.2677 F90.00
G01 X33.4856 Y8.2780 F90.00
G01 X33.4830 Y8.2986 F90.00
G01 X33.4750 Y8.3520 F90.00
G01 X33.4709 Y8.3724 F90.00
G01 X33.4579 Y8.4248 F90.00
G01 X33.4524 Y8.4448 F90.00
G01 X33.4493 Y8.4547 F90.00
G01 X33.4312 Y8.5056 F90.00
G01 X33.4237 Y8.5250 F90.00
G01 X33.4153 Y8.5440 F90.00
G01 X33.3967 Y8.5834 F90.00
G01 X33.3921 Y8.5927 F90.00
G01 X33.3823 Y8.6110 F90.00
G01 X33.3547 Y8.6574 F90.00
G01 X33.3436 Y8.6750 F90.00
G01 X33.3316 Y8.6920 F90.00
G01 X33.3056 Y8.7270 F90.00
G01 X33.2928 Y8.7434 F90.00
G01 X33.2793 Y8.7591 F90.00
G01 X33.2500 Y8.7914 F90.00
G01 X33.2357 Y8.8064 F90.00
G01 X33.2206 Y8.8208 F90.00
G01 X33.1883 Y8.8501 F90.00
G01 X33.1805 Y8.8569 F90.00
G01 X33.1645 Y8.8701 F90.00
G01 X33.1212 Y8.9024 F90.00
G01 X33.1042 Y8.9143 F90.00
G01 X33.0867 Y8.9254 F90.00
G01 X33.0492 Y8.9479 F90.00
G01 X33.0312 Y8.9581 F90.00
G01 X33.0126 Y8.9674 F90.00
G01 X32.9732 Y8.9861 F90.00
G01 X32.9542 Y8.9945 F90.00
G01 X32.9348 Y9.0020 F90.00
G01 X32.8938 Y9.0167 F90.00
G01 X32.8741 Y9.0232 F90.00
G01 X32.8540 Y9.0287 F90.00
G01 X32.8016 Y9.0417 F90.00
G01 X32.7813 Y9.0458 F90.00
G01 X32.7279 Y9.0538 F90.00
G01 X32.7073 Y9.0564 F90.00
G01 X32.6865 Y9.0579 F90.00
G01 X32.6430 Y9.0600 F90.00
G01 X32.6222 Y9.0605 F90.00
G01 X32.6015 Y9.0600 F90.00
G01 X32.5579 Y9.0579 F90.00
G01 X32.5372 Y9.0564 F90.00
G01 X32.5166 Y9.0538 F90.00
G01 X32.4734 Y9.0474 F90.00
G01 X32.4530 Y9.0439 F90.00
G01 X32.4327 Y9.0393 F90.00
G01 X32.3904 Y9.0287 F90.00
G01 X32.3704 Y9.0232 F90.00
G01 X32.3507 Y9.0167 F90.00
G01 X32.3096 Y9.0020 F90.00
G01 X32.2999 Y8.9984 F90.00
G01 X32.2807 Y8.9904 F90.00
G01 X32.2318 Y8.9674 F90.00
G01 X32.2133 Y8.9581 F90.00
G01 X32.1952 Y8.9479 F90.00
G01 X32.1578 Y8.9254 F90.00
G01 X32.1489 Y8.9200 F90.00
G01 X32.1317 Y8.9085 F90.00
G01 X32.0882 Y8.8764 F90.00
G01 X32.0800 Y8.8701 F90.00
G01 X32.0639 Y8.8569 F90.00
G01 X32.0162 Y8.8137 F90.00
G01 X32.0015 Y8.7990 F90.00
G01 X31.9872 Y8.7834 F90.00
G01 X31.9729 Y8.7990 F90.00
G01 X31.9582 Y8.8137 F90.00
G01 X31.9183 Y8.8501 F90.00
G01 X31.9105 Y8.8569 F90.00
G01 X31.8945 Y8.8701 F90.00
G01 X31.8512 Y8.9024 F90.00
G01 X31.8342 Y8.9143 F90.00
G01 X31.8167 Y8.9254 F90.00
G01 X31.7792 Y8.9479 F90.00
G01 X31.7612 Y8.9581 F90.00
G01 X31.7520 Y8.9629 F90.00
G01 X31.7032 Y8.9861 F90.00
G01 X31.6842 Y8.9945 F90.00
G01 X31.6648 Y9.0020 F90.00
G01 X31.6238 Y9.0167 F90.00
G01 X31.6041 Y9.0232 F90.00
G01 X31.5840 Y9.0287 F90.00
G01 X31.5417 Y9.0393 F90.00
G01 X31.5215 Y9.0439 F90.00
G01 X31.5010 Y9.0474 F90.00
G01 X31.4579 Y9.0538 F90.00
G01 X31.4373 Y9.0564 F90.00
G01 X31.4165 Y9.0579 F90.00
G01 X31.3730 Y9.0600 F90.00
G01 X31.3522 Y9.0605 F90.00
G01 X31.3315 Y9.0600 F90.00
G01 X31.2879 Y9.0579 F90.00
G01 X31.2672 Y9.0564 F90.00
G01 X31.2466 Y9.0538 F90.00
G01 X31.2034 Y9.0474 F90.00
G01 X31.1830 Y9.0439 F90.00
G01 X31.1627 Y9.0393 F90.00
G01 X31.1104 Y9.0261 F90.00
G01 X31.1004 Y9.0232 F90.00
G01 X31.0807 Y9.0167 F90.00
G01 X31.0396 Y9.0020 F90.00
G01 X31.0202 Y8.9945 F90.00
G01 X31.0012 Y8.9861 F90.00
G01 X30.9525 Y8.9629 F90.00
G01 X30.9433 Y8.9581 F90.00
G01 X30.9252 Y8.9479 F90.00
G01 X30.8789 Y8.9200 F90.00
G01 X30.8617 Y8.9085 F90.00
G01 X30.8356 Y8.8893 F90.00
G01 X30.8356 Y9.2129 F90.00
G01 X31.9818 Y10.3591 F90.00
G01 X37.0058 Y10.3591 F90.00
G01 X37.0609 Y10.2981 F90.00
G01 X37.0753 Y10.2830 F90.00
G01 X37.0903 Y10.2687 F90.00
G01 X37.1448 Y10.2193 F90.00
G01 X37.1606 Y10.2057 F90.00
G01 X37.1769 Y10.1930 F90.00
G01 X37.2360 Y10.1491 F90.00
G01 X37.2530 Y10.1372 F90.00
G01 X37.2706 Y10.1260 F90.00
G01 X37.3337 Y10.0882 F90.00
G01 X37.3518 Y10.0780 F90.00
G01 X37.3703 Y10.0686 F90.00
G01 X37.4463 Y10.0328 F90.00
G01 X37.4558 Y10.0288 F90.00
G01 X37.4752 Y10.0213 F90.00
G01 X37.5445 Y9.9965 F90.00
G01 X37.5642 Y9.9900 F90.00
G01 X37.5842 Y9.9844 F90.00
G01 X37.6556 Y9.9666 F90.00
G01 X37.6657 Y9.9642 F90.00
G01 X37.6861 Y9.9601 F90.00
G01 X37.7691 Y9.9477 F90.00
G01 X37.7897 Y9.9451 F90.00
G01 X37.8105 Y9.9436 F90.00
G01 X37.8840 Y9.9400 F90.00
G01 X37.9047 Y9.9395 F90.00
G01 X39.4151 Y9.9396 F90.00
G01 X39.4990 Y9.9436 F90.00
G01 X39.5197 Y9.9451 F90.00
G01 X39.5403 Y9.9477 F90.00
G01 X39.6131 Y9.9585 F90.00
G01 X39.6336 Y9.9620 F90.00
G01 X39.6538 Y9.9666 F90.00
G01 X39.7252 Y9.9844 F90.00
G01 X39.7452 Y9.9900 F90.00
G01 X39.7650 Y9.9965 F90.00
G01 X39.8343 Y10.0213 F90.00
G01 X39.8536 Y10.0288 F90.00
G01 X39.8726 Y10.0372 F90.00
G01 X39.9391 Y10.0686 F90.00
G01 X39.9577 Y10.0780 F90.00
G01 X39.9758 Y10.0882 F90.00
G01 X40.0389 Y10.1260 F90.00
G01 X40.0564 Y10.1372 F90.00
G01 X40.0734 Y10.1491 F90.00
G01 X40.1325 Y10.1930 F90.00
G01 X40.1489 Y10.2057 F90.00
G01 X40.1646 Y10.2193 F90.00
G01 X40.2191 Y10.2687 F90.00
G01 X40.2342 Y10.2830 F90.00
G01 X40.2485 Y10.2981 F90.00
G01 X40.2979 Y10.3526 F90.00
G01 X40.3115 Y10.3683 F90.00
G01 X40.3243 Y10.3847 F90.00
G01 X40.3681 Y10.4438 F90.00
G01 X40.3801 Y10.4608 F90.00
G01 X40.3912 Y10.4783 F90.00
G01 X40.4290 Y10.5415 F90.00
G01 X40.4413 Y10.5635 F90.00
G01 X40.4413 Y9.5846 F90.00
G01 X40.2462 Y9.3894 F90.00
G01 X40.2268 Y9.4092 F90.00
G01 X40.1646 Y9.4657 F90.00
G01 X40.1489 Y9.4793 F90.00
G01 X40.1325 Y9.4920 F90.00
G01 X40.0734 Y9.5359 F90.00
G01 X40.0564 Y9.5478 F90.00
G01 X40.0389 Y9.5590 F90.00
G01 X39.9758 Y9.5968 F90.00
G01 X39.9577 Y9.6070 F90.00
G01 X39.9391 Y9.6164 F90.00
G01 X39.8726 Y9.6478 F90.00
G01 X39.8536 Y9.6562 F90.00
G01 X39.8343 Y9.6637 F90.00
G01 X39.7650 Y9.6885 F90.00
G01 X39.7452 Y9.6950 F90.00
G01 X39.7252 Y9.7006 F90.00
G01 X39.6437 Y9.7208 F90.00
G01 X39.6234 Y9.7249 F90.00
G01 X39.6131 Y9.7265 F90.00
G01 X39.5403 Y9.7373 F90.00
G01 X39.5197 Y9.7399 F90.00
G01 X39.4990 Y9.7414 F90.00
G01 X39.4255 Y9.7450 F90.00
G01 X39.4047 Y9.7455 F90.00
G01 X37.8943 Y9.7454 F90.00
G01 X37.8105 Y9.7414 F90.00
G01 X37.7897 Y9.7399 F90.00
G01 X37.7691 Y9.7373 F90.00
G01 X37.6963 Y9.7265 F90.00
G01 X37.6861 Y9.7249 F90.00
G01 X37.6657 Y9.7208 F90.00
G01 X37.5842 Y9.7006 F90.00
G01 X37.5642 Y9.6950 F90.00
G01 X37.5543 Y9.6919 F90.00
G01 X37.4655 Y9.6601 F90.00
G01 X37.4558 Y9.6562 F90.00
G01 X37.4368 Y9.6478 F90.00
G01 X37.3610 Y9.6118 F90.00
G01 X37.3518 Y9.6070 F90.00
G01 X37.3337 Y9.5968 F90.00
G01 X37.2706 Y9.5590 F90.00
G01 X37.2530 Y9.5478 F90.00
G01 X37.2360 Y9.5359 F90.00
G01 X37.1769 Y9.4920 F90.00
G01 X37.1606 Y9.4793 F90.00
G01 X37.1526 Y9.4726 F90.00
G01 X37.0827 Y9.4092 F90.00
G01 X37.0680 Y9.3945 F90.00
G01 X37.0609 Y9.3869 F90.00
G01 X37.0058 Y9.3259 F90.00
G01 X36.4247 Y9.3259 F90.00
G01 X36.4047 Y9.3743 F90.00
G01 X36.3966 Y9.3927 F90.00
G01 X36.3827 Y9.4195 F90.00
G01 X36.3670 Y9.4453 F90.00
G01 X36.3495 Y9.4699 F90.00
G01 X36.3098 Y9.5217 F90.00
G01 X36.2972 Y9.5374 F90.00
G01 X36.2768 Y9.5597 F90.00
G01 X36.2550 Y9.5806 F90.00
G01 X36.2317 Y9.5998 F90.00
G01 X36.1719 Y9.6456 F90.00
G01 X36.1469 Y9.6625 F90.00
G01 X36.1207 Y9.6776 F90.00
G01 X36.0936 Y9.6908 F90.00
G01 X36.0147 Y9.7235 F90.00
G01 X35.9861 Y9.7334 F90.00
G01 X35.9569 Y9.7412 F90.00
G01 X35.9272 Y9.7469 F90.00
G01 X35.8525 Y9.7569 F90.00
G01 X35.8305 Y9.7592 F90.00
G01 X35.8085 Y9.7603 F90.00
G01 X34.5163 Y9.7604 F90.00
G01 X34.5053 Y9.7600 F90.00
G01 X34.4832 Y9.7583 F90.00
G01 X34.4075 Y9.7485 F90.00
G01 X34.3876 Y9.7454 F90.00
G01 X34.3679 Y9.7413 F90.00
G01 X34.3484 Y9.7363 F90.00
G01 X34.3291 Y9.7304 F90.00
G01 X34.3102 Y9.7236 F90.00
G01 X34.2313 Y9.6910 F90.00
G01 X34.2130 Y9.6824 F90.00
G01 X34.1952 Y9.6729 F90.00
G01 X34.1779 Y9.6627 F90.00
G01 X34.1529 Y9.6457 F90.00
G01 X34.0851 Y9.5937 F90.00
G01 X34.0698 Y9.5807 F90.00
G01 X34.0550 Y9.5670 F90.00
G01 X34.0410 Y9.5526 F90.00
G01 X34.0276 Y9.5376 F90.00
G01 X34.0150 Y9.5219 F90.00
G01 X33.9753 Y9.4701 F90.00
G01 X33.9634 Y9.4539 F90.00
G01 X33.9523 Y9.4370 F90.00
G01 X33.9420 Y9.4197 F90.00
G01 X33.9326 Y9.4019 F90.00
G01 X33.9200 Y9.3745 F90.00
G01 X33.8950 Y9.3142 F90.00
G01 X33.8878 Y9.2954 F90.00
G01 X33.8786 Y9.2667 F90.00
G01 X33.8736 Y9.2472 F90.00
G01 X33.8679 Y9.2175 F90.00
G01 X33.8579 Y9.1429 F90.00
G01 X33.8556 Y9.1208 F90.00
G01 X33.8544 Y9.0987 F90.00
G01 X33.8543 Y8.4576 F90.00
G01 X33.8549 Y8.4355 F90.00
G01 X33.8566 Y8.4134 F90.00
G01 X33.8678 Y8.3277 F90.00
G01 X33.8735 Y8.2981 F90.00
G01 X33.8785 Y8.2786 F90.00
G01 X33.8844 Y8.2593 F90.00
G01 X33.8950 Y8.2310 F90.00
G01 X33.9239 Y8.1615 F90.00
G01 X33.9371 Y8.1343 F90.00
G01 X33.9469 Y8.1168 F90.00
G01 X33.9576 Y8.0997 F90.00
G01 X33.9691 Y8.0832 F90.00
G01 X34.0149 Y8.0233 F90.00
G01 X34.0341 Y8.0000 F90.00
G01 X34.0549 Y7.9781 F90.00
G01 X34.0697 Y7.9644 F90.00
G01 X34.0930 Y7.9452 F90.00
G01 X34.1528 Y7.8994 F90.00
G01 X34.1693 Y7.8879 F90.00
G01 X34.1864 Y7.8773 F90.00
G01 X34.2129 Y7.8628 F90.00
G01 X34.2311 Y7.8542 F90.00
G01 X34.3100 Y7.8215 F90.00
G01 X34.3385 Y7.8116 F90.00
G01 X34.3677 Y7.8038 F90.00
G01 X34.3974 Y7.7981 F90.00
G01 X34.4831 Y7.7868 F90.00
G01 X34.4941 Y7.7858 F90.00
G01 X34.5162 Y7.7847 F90.00
G01 X35.7972 Y7.7844 F90.00
G01 X35.8194 Y7.7850 F90.00
G01 X35.8414 Y7.7867 F90.00
G01 X35.9271 Y7.7980 F90.00
G01 X35.9469 Y7.8015 F90.00
G01 X35.9666 Y7.8060 F90.00
G01 X35.9859 Y7.8115 F90.00
G01 X36.0054 Y7.8180 F90.00
G01 X37.0060 Y7.8189 F90.00
G01 X37.0609 Y7.7581 F90.00
G01 X37.0753 Y7.7430 F90.00
G01 X37.0903 Y7.7287 F90.00
G01 X37.1448 Y7.6793 F90.00
G01 X37.1606 Y7.6657 F90.00
G01 X37.1769 Y7.6530 F90.00
G01 X37.2360 Y7.6091 F90.00
G01 X37.2530 Y7.5972 F90.00
G01 X37.2706 Y7.5860 F90.00
G01 X37.3337 Y7.5482 F90.00
G01 X37.3518 Y7.5380 F90.00
G01 X37.3703 Y7.5286 F90.00
G01 X37.4368 Y7.4972 F90.00
G01 X37.4558 Y7.4888 F90.00
G01 X37.4752 Y7.4813 F90.00
G01 X37.5445 Y7.4565 F90.00
G01 X37.5642 Y7.4500 F90.00
G01 X37.5842 Y7.4444 F90.00
G01 X37.6556 Y7.4266 F90.00
G01 X37.6759 Y7.4220 F90.00
G01 X37.6963 Y7.4185 F90.00
G01 X37.7691 Y7.4077 F90.00
G01 X37.7897 Y7.4051 F90.00
G01 X37.8105 Y7.4036 F90.00
G01 X37.8840 Y7.4000 F90.00
G01 X37.9047 Y7.3995 F90.00
G01 X39.4151 Y7.3996 F90.00
G01 X39.5094 Y7.4042 F90.00
G01 X39.5300 Y7.4063 F90.00
G01 X39.5403 Y7.4077 F90.00
G01 X39.6131 Y7.4185 F90.00
G01 X39.6336 Y7.4220 F90.00
G01 X39.6538 Y7.4266 F90.00
G01 X39.7353 Y7.4471 F90.00
G01 X39.7452 Y7.4500 F90.00
G01 X39.7650 Y7.4565 F90.00
G01 X39.8343 Y7.4813 F90.00
G01 X39.8536 Y7.4888 F90.00
G01 X39.8726 Y7.4972 F90.00
G01 X39.9391 Y7.5286 F90.00
G01 X39.9577 Y7.5380 F90.00
G01 X39.9758 Y7.5482 F90.00
G01 X40.0389 Y7.5860 F90.00
G01 X40.0564 Y7.5972 F90.00
G01 X40.0734 Y7.6091 F90.00
G01 X40.1325 Y7.6530 F90.00
G01 X40.1489 Y7.6657 F90.00
G01 X40.1646 Y7.6793 F90.00
G01 X40.2191 Y7.7287 F90.00
G01 X40.2342 Y7.7430 F90.00
G01 X40.2485 Y7.7581 F90.00
G01 X40.3037 Y7.8191 F90.00
G01 X40.4947 Y7.8191 F90.00
G01 X40.5155 Y7.8196 F90.00
G01 X40.5582 Y7.8218 F90.00
G01 X40.5789 Y7.8239 F90.00
G01 X40.6315 Y7.8317 F90.00
G01 X40.6518 Y7.8357 F90.00
G01 X40.7034 Y7.8486 F90.00
G01 X40.7233 Y7.8547 F90.00
G01 X40.7734 Y7.8726 F90.00
G01 X40.7926 Y7.8805 F90.00
G01 X40.8406 Y7.9033 F90.00
G01 X40.8589 Y7.9131 F90.00
G01 X40.9046 Y7.9404 F90.00
G01 X40.9218 Y7.9519 F90.00
G01 X40.9563 Y7.9773 F90.00
G01 X40.9727 Y7.9901 F90.00
G01 X40.9884 Y8.0037 F90.00
G01 X41.0124 Y8.0254 F90.00
G01 X41.0274 Y8.0398 F90.00
G01 X41.7347 Y8.7472 F90.00
G01 X41.7635 Y8.7788 F90.00
G01 X41.7771 Y8.7946 F90.00
G01 X41.7899 Y8.8109 F90.00
G01 X41.8092 Y8.8370 F90.00
G01 X41.8212 Y8.8540 F90.00
G01 X41.8323 Y8.8715 F90.00
G01 X41.8489 Y8.8993 F90.00
G01 X41.8592 Y8.9174 F90.00
G01 X41.8685 Y8.9359 F90.00
G01 X41.8824 Y8.9652 F90.00
G01 X41.8908 Y8.9842 F90.00
G01 X41.8946 Y8.9938 F90.00
G01 X41.9125 Y9.0439 F90.00
G01 X41.9186 Y9.0638 F90.00
G01 X41.9315 Y9.1154 F90.00
G01 X41.9355 Y9.1357 F90.00
G01 X41.9434 Y9.1884 F90.00
G01 X41.9454 Y9.2090 F90.00
G01 X41.9480 Y9.2621 F90.00
G01 X41.9481 Y12.0650 F90.00
G01 X41.9476 Y12.0858 F90.00
G01 X41.9460 Y12.1181 F90.00
G01 X41.9445 Y12.1388 F90.00
G01 X41.9420 Y12.1595 F90.00
G01 X41.9355 Y12.2018 F90.00
G01 X41.9336 Y12.2120 F90.00
G01 X41.9291 Y12.2322 F90.00
G01 X41.9186 Y12.2737 F90.00
G01 X41.9125 Y12.2936 F90.00
G01 X41.8982 Y12.3339 F90.00
G01 X41.8908 Y12.3533 F90.00
G01 X41.8824 Y12.3723 F90.00
G01 X41.8685 Y12.4016 F90.00
G01 X41.8639 Y12.4109 F90.00
G01 X41.8542 Y12.4292 F90.00
G01 X41.8323 Y12.4660 F90.00
G01 X41.8212 Y12.4836 F90.00
G01 X41.8092 Y12.5005 F90.00
G01 X41.7899 Y12.5266 F90.00
G01 X41.7836 Y12.5348 F90.00
G01 X41.7704 Y12.5509 F90.00
G01 X41.7418 Y12.5827 F90.00
G01 X41.7275 Y12.5977 F90.00
G01 X40.7675 Y13.5575 F90.00
G01 X40.7359 Y13.5863 F90.00
G01 X40.7202 Y13.5999 F90.00
G01 X40.7038 Y13.6127 F90.00
G01 X40.6778 Y13.6320 F90.00
G01 X40.6608 Y13.6439 F90.00
G01 X40.6432 Y13.6550 F90.00
G01 X40.6154 Y13.6717 F90.00
G01 X40.5974 Y13.6819 F90.00
G01 X40.5788 Y13.6913 F90.00
G01 X40.5401 Y13.7095 F90.00
G01 X40.5209 Y13.7174 F90.00
G01 X40.4708 Y13.7353 F90.00
G01 X40.4510 Y13.7414 F90.00
G01 X40.4095 Y13.7519 F90.00
G01 X40.3892 Y13.7564 F90.00
G01 X40.3687 Y13.7600 F90.00
G01 X40.3264 Y13.7661 F90.00
G01 X40.3057 Y13.7682 F90.00
G01 X40.2630 Y13.7704 F90.00
G01 X40.2422 Y13.7709 F90.00
G01 X19.9222 Y13.7709 F90.00
G01 X19.9015 Y13.7704 F90.00
G01 X19.8587 Y13.7682 F90.00
G01 X19.8381 Y13.7661 F90.00
G01 X19.7854 Y13.7583 F90.00
G01 X19.7651 Y13.7543 F90.00
G01 X19.7235 Y13.7440 F90.00
G01 X19.7035 Y13.7385 F90.00
G01 X19.6838 Y13.7319 F90.00
G01 X19.6435 Y13.7174 F90.00
G01 X19.6244 Y13.7095 F90.00
G01 X19.5856 Y13.6913 F90.00
G01 X19.5671 Y13.6819 F90.00
G01 X19.5490 Y13.6717 F90.00
G01 X19.5212 Y13.6550 F90.00
G01 X19.5037 Y13.6439 F90.00
G01 X19.4867 Y13.6320 F90.00
G01 X19.4606 Y13.6127 F90.00
G01 X19.4443 Y13.5999 F90.00
G01 X19.4285 Y13.5863 F90.00
G01 X19.3969 Y13.5575 F90.00
G01 X15.8002 Y9.9609 F90.00
G01 X10.8712 Y9.9609 F90.00
G01 X10.8089 Y10.0295 F90.00
G01 X10.7943 Y10.0442 F90.00
G01 X10.7867 Y10.0513 F90.00
G01 X10.7321 Y10.1007 F90.00
G01 X10.7164 Y10.1143 F90.00
G01 X10.7000 Y10.1270 F90.00
G01 X10.6409 Y10.1709 F90.00
G01 X10.6239 Y10.1828 F90.00
G01 X10.6064 Y10.1940 F90.00
G01 X10.5433 Y10.2318 F90.00
G01 X10.5252 Y10.2420 F90.00
G01 X10.5066 Y10.2514 F90.00
G01 X10.4401 Y10.2828 F90.00
G01 X10.4211 Y10.2912 F90.00
G01 X10.4018 Y10.2987 F90.00
G01 X10.3325 Y10.3235 F90.00
G01 X10.3127 Y10.3300 F90.00
G01 X10.2927 Y10.3356 F90.00
G01 X10.2213 Y10.3534 F90.00
G01 X10.2011 Y10.3580 F90.00
G01 X10.1806 Y10.3615 F90.00
G01 X10.1078 Y10.3723 F90.00
G01 X10.0872 Y10.3749 F90.00
G01 X10.0665 Y10.3764 F90.00
G01 X9.9930 Y10.3800 F90.00
G01 X9.9826 Y10.3804 F90.00
G01 X9.9618 Y10.3804 F90.00
G01 X9.8676 Y10.3758 F90.00
G01 X9.8573 Y10.3749 F90.00
G01 X9.8366 Y10.3723 F90.00
G01 X9.7638 Y10.3615 F90.00
G01 X9.7434 Y10.3580 F90.00
G01 X9.7231 Y10.3534 F90.00
G01 X9.6517 Y10.3356 F90.00
G01 X9.6317 Y10.3300 F90.00
G01 X9.6120 Y10.3235 F90.00
G01 X9.5427 Y10.2987 F90.00
G01 X9.5233 Y10.2912 F90.00
G01 X9.5043 Y10.2828 F90.00
G01 X9.4378 Y10.2514 F90.00
G01 X9.4193 Y10.2420 F90.00
G01 X9.4012 Y10.2318 F90.00
G01 X9.3381 Y10.1940 F90.00
G01 X9.3205 Y10.1828 F90.00
G01 X9.3036 Y10.1709 F90.00
G01 X9.2444 Y10.1270 F90.00
G01 X9.2362 Y10.1208 F90.00
G01 X9.2201 Y10.1076 F90.00
G01 X9.1578 Y10.0513 F90.00
G01 X9.1428 Y10.0370 F90.00
G01 X9.1285 Y10.0219 F90.00
G01 X9.0721 Y9.9596 F90.00
G01 X9.0655 Y9.9517 F90.00
G01 X9.0527 Y9.9353 F90.00
G01 X9.0088 Y9.8762 F90.00
G01 X8.9969 Y9.8592 F90.00
G01 X8.9858 Y9.8417 F90.00
G01 X8.9479 Y9.7785 F90.00
G01 X8.9377 Y9.7605 F90.00
G01 X8.9284 Y9.7419 F90.00
G01 X8.8969 Y9.6754 F90.00
G01 X8.8885 Y9.6564 F90.00
G01 X8.8810 Y9.6370 F90.00
G01 X8.8562 Y9.5677 F90.00
G01 X8.8497 Y9.5480 F90.00
G01 X8.8442 Y9.5280 F90.00
G01 X8.8263 Y9.4566 F90.00
G01 X8.8217 Y9.4363 F90.00
G01 X8.8182 Y9.4159 F90.00
G01 X8.8074 Y9.3431 F90.00
G01 X8.8048 Y9.3225 F90.00
G01 X8.8033 Y9.3018 F90.00
G01 X8.7997 Y9.2283 F90.00
G01 X8.7992 Y9.2075 F90.00
G01 X8.7997 Y9.1867 F90.00
G01 X8.8033 Y9.1132 F90.00
G01 X8.8048 Y9.0925 F90.00
G01 X8.8074 Y9.0719 F90.00
G01 X8.8182 Y8.9991 F90.00
G01 X8.8217 Y8.9787 F90.00
G01 X8.8263 Y8.9584 F90.00
G01 X8.8442 Y8.8870 F90.00
G01 X8.8497 Y8.8670 F90.00
G01 X8.8562 Y8.8473 F90.00
G01 X8.8810 Y8.7780 F90.00
G01 X8.8885 Y8.7586 F90.00
G01 X8.8969 Y8.7396 F90.00
G01 X8.9284 Y8.6731 F90.00
G01 X8.9377 Y8.6545 F90.00
G01 X8.9479 Y8.6365 F90.00
G01 X8.9858 Y8.5733 F90.00
G01 X8.9912 Y8.5645 F90.00
G01 X9.0028 Y8.5472 F90.00
G01 X9.0527 Y8.4797 F90.00
G01 X9.0655 Y8.4633 F90.00
G01 X9.0790 Y8.4476 F90.00
G01 X9.1285 Y8.3931 F90.00
G01 X9.1355 Y8.3855 F90.00
G01 X9.1502 Y8.3708 F90.00
G01 X9.2123 Y8.3143 F90.00
G01 X9.2201 Y8.3074 F90.00
G01 X9.2362 Y8.2942 F90.00
G01 X9.3120 Y8.2380 F90.00
G01 X9.3292 Y8.2265 F90.00
G01 X9.3381 Y8.2210 F90.00
G01 X9.4012 Y8.1832 F90.00
G01 X9.4193 Y8.1730 F90.00
G01 X9.4378 Y8.1636 F90.00
G01 X9.5043 Y8.1322 F90.00
G01 X9.5138 Y8.1278 F90.00
G01 X9.5330 Y8.1199 F90.00
G01 X9.6120 Y8.0915 F90.00
G01 X9.6317 Y8.0850 F90.00
G01 X9.6417 Y8.0821 F90.00
G01 X9.7332 Y8.0592 F90.00
G01 X9.7434 Y8.0570 F90.00
G01 X9.7638 Y8.0535 F90.00
G01 X9.8469 Y8.0413 F90.00
G01 X9.8573 Y8.0401 F90.00
G01 X9.8780 Y8.0386 F90.00
G01 X9.9515 Y8.0350 F90.00
G01 X9.9722 Y8.0345 F90.00
G01 X9.9930 Y8.0350 F90.00
G01 X10.0665 Y8.0386 F90.00
G01 X10.0872 Y8.0401 F90.00
G01 X10.1078 Y8.0427 F90.00
G01 X10.1806 Y8.0535 F90.00
G01 X10.2011 Y8.0570 F90.00
G01 X10.2213 Y8.0616 F90.00
G01 X10.2927 Y8.0794 F90.00
G01 X10.3127 Y8.0850 F90.00
G01 X10.3325 Y8.0915 F90.00
G01 X10.4018 Y8.1163 F90.00
G01 X10.4211 Y8.1238 F90.00
G01 X10.4401 Y8.1322 F90.00
G01 X10.5066 Y8.1636 F90.00
G01 X10.5252 Y8.1730 F90.00
G01 X10.5433 Y8.1832 F90.00
G01 X10.6064 Y8.2210 F90.00
G01 X10.6239 Y8.2322 F90.00
G01 X10.6409 Y8.2441 F90.00
G01 X10.7000 Y8.2880 F90.00
G01 X10.7164 Y8.3007 F90.00
G01 X10.7321 Y8.3143 F90.00
G01 X10.7867 Y8.3637 F90.00
G01 X10.7943 Y8.3708 F90.00
G01 X10.8089 Y8.3855 F90.00
G01 X10.8712 Y8.4541 F90.00
G01 X16.1122 Y8.4541 F90.00
G01 X16.1330 Y8.4546 F90.00
G01 X16.1654 Y8.4562 F90.00
G01 X16.1861 Y8.4577 F90.00
G01 X16.2067 Y8.4603 F90.00
G01 X16.2387 Y8.4650 F90.00
G01 X16.2592 Y8.4686 F90.00
G01 X16.2795 Y8.4731 F90.00
G01 X16.3210 Y8.4836 F90.00
G01 X16.3408 Y8.4897 F90.00
G01 X16.3812 Y8.5040 F90.00
G01 X16.4005 Y8.5114 F90.00
G01 X16.4195 Y8.5199 F90.00
G01 X16.4488 Y8.5337 F90.00
G01 X16.4674 Y8.5431 F90.00
G01 X16.4854 Y8.5533 F90.00
G01 X16.5132 Y8.5700 F90.00
G01 X16.5308 Y8.5811 F90.00
G01 X16.5478 Y8.5930 F90.00
G01 X16.5738 Y8.6123 F90.00
G01 X16.5902 Y8.6251 F90.00
G01 X16.6059 Y8.6387 F90.00
G01 X16.6375 Y8.6675 F90.00
G01 X20.2343 Y12.2641 F90.00
G01 X37.6818 Y12.2641 F90.00
G01 X37.6556 Y12.2584 F90.00
G01 X37.5842 Y12.2406 F90.00
G01 X37.5642 Y12.2350 F90.00
G01 X37.5445 Y12.2285 F90.00
G01 X37.4752 Y12.2037 F90.00
G01 X37.4558 Y12.1962 F90.00
G01 X37.4368 Y12.1878 F90.00
G01 X37.3610 Y12.1518 F90.00
G01 X37.3518 Y12.1470 F90.00
G01 X37.3337 Y12.1368 F90.00
G01 X37.2706 Y12.0990 F90.00
G01 X37.2530 Y12.0878 F90.00
G01 X37.2360 Y12.0759 F90.00
G01 X37.1769 Y12.0320 F90.00
G01 X37.1606 Y12.0193 F90.00
G01 X37.1448 Y12.0057 F90.00
G01 X37.0903 Y11.9563 F90.00
G01 X37.0753 Y11.9420 F90.00
G01 X37.0609 Y11.9269 F90.00
G01 X37.0058 Y11.8659 F90.00
G01 X31.6697 Y11.8659 F90.00
G01 X31.6490 Y11.8654 F90.00
G01 X31.6062 Y11.8632 F90.00
G01 X31.5856 Y11.8611 F90.00
G01 X31.5753 Y11.8597 F90.00
G01 X31.5432 Y11.8550 F90.00
G01 X31.5227 Y11.8514 F90.00
G01 X31.5025 Y11.8469 F90.00
G01 X31.4610 Y11.8364 F90.00
G01 X31.4411 Y11.8303 F90.00
G01 X31.4313 Y11.8269 F90.00
G01 X31.4008 Y11.8160 F90.00
G01 X31.3814 Y11.8086 F90.00
G01 X31.3624 Y11.8001 F90.00
G01 X31.3331 Y11.7863 F90.00
G01 X31.3238 Y11.7817 F90.00
G01 X31.3055 Y11.7719 F90.00
G01 X31.2687 Y11.7500 F90.00
G01 X31.2512 Y11.7389 F90.00
G01 X31.2342 Y11.7270 F90.00
G01 X31.2081 Y11.7077 F90.00
G01 X31.1918 Y11.6949 F90.00
G01 X31.1838 Y11.6882 F90.00
G01 X31.1444 Y11.6525 F90.00
G01 X29.5495 Y10.0577 F90.00
G01 X29.5352 Y10.0427 F90.00
G01 X29.5065 Y10.0109 F90.00
G01 X29.4933 Y9.9948 F90.00
G01 X29.4677 Y9.9605 F90.00
G01 X29.4558 Y9.9436 F90.00
G01 X29.4447 Y9.9260 F90.00
G01 X29.4280 Y9.8982 F90.00
G01 X29.4178 Y9.8802 F90.00
G01 X29.4084 Y9.8616 F90.00
G01 X29.3946 Y9.8323 F90.00
G01 X29.3862 Y9.8133 F90.00
G01 X29.3787 Y9.7939 F90.00
G01 X29.3644 Y9.7536 F90.00
G01 X29.3584 Y9.7337 F90.00
G01 X29.3557 Y9.7237 F90.00
G01 X29.3478 Y9.6922 F90.00
G01 X29.3433 Y9.6720 F90.00
G01 X29.3397 Y9.6515 F90.00
G01 X29.3350 Y9.6195 F90.00
G01 X29.3324 Y9.5988 F90.00
G01 X29.3309 Y9.5781 F90.00
G01 X29.3293 Y9.5458 F90.00
G01 X29.3288 Y9.5250 F90.00
G01 X29.3288 Y8.6225 F90.00
G01 X29.3221 Y8.6110 F90.00
G01 X29.3123 Y8.5927 F90.00
G01 X29.2891 Y8.5440 F90.00
G01 X29.2807 Y8.5250 F90.00
G01 X29.2733 Y8.5056 F90.00
G01 X29.2586 Y8.4645 F90.00
G01 X29.2552 Y8.4547 F90.00
G01 X29.2491 Y8.4349 F90.00
G01 X29.2335 Y8.3724 F90.00
G01 X29.2314 Y8.3622 F90.00
G01 X29.2278 Y8.3418 F90.00
G01 X29.2214 Y8.2986 F90.00
G01 X29.2189 Y8.2780 F90.00
G01 X29.2173 Y8.2573 F90.00
G01 X29.2152 Y8.2138 F90.00
G01 X29.2147 Y8.1930 F90.00
G01 X29.2148 Y7.6716 F90.00
G01 X29.2173 Y7.6177 F90.00
G01 X29.2189 Y7.5970 F90.00
G01 X29.2214 Y7.5764 F90.00
G01 X29.2278 Y7.5332 F90.00
G01 X29.2314 Y7.5128 F90.00
G01 X29.2359 Y7.4925 F90.00
G01 X29.2465 Y7.4502 F90.00
G01 X29.2520 Y7.4302 F90.00
G01 X29.2552 Y7.4203 F90.00
G01 X29.2769 Y7.3596 F90.00
G01 X29.2848 Y7.3405 F90.00
G01 X29.2891 Y7.3310 F90.00
G01 X29.3078 Y7.2916 F90.00
G01 X29.3171 Y7.2730 F90.00
G01 X29.3274 Y7.2550 F90.00
G01 X29.3498 Y7.2176 F90.00
G01 X29.3552 Y7.2087 F90.00
G01 X29.3668 Y7.1915 F90.00
G01 X29.3988 Y7.1480 F90.00
G01 X29.4116 Y7.1316 F90.00
G01 X29.4252 Y7.1159 F90.00
G01 X29.4615 Y7.0760 F90.00
G01 X29.4762 Y7.0613 F90.00
G01 X29.4838 Y7.0542 F90.00
G01 X29.5161 Y7.0249 F90.00
G01 X29.5319 Y7.0114 F90.00
G01 X29.5482 Y6.9986 F90.00
G01 X29.5833 Y6.9726 F90.00
G01 X29.6002 Y6.9607 F90.00
G01 X29.6089 Y6.9550 F90.00
G01 X29.6552 Y6.9271 F90.00
G01 X29.6733 Y6.9169 F90.00
G01 X29.6918 Y6.9076 F90.00
G01 X29.7312 Y6.8889 F90.00
G01 X29.7407 Y6.8846 F90.00
G01 X29.7599 Y6.8766 F90.00
G01 X29.8205 Y6.8550 F90.00
G01 X29.8404 Y6.8489 F90.00
G01 X29.8504 Y6.8463 F90.00
G01 X29.8927 Y6.8357 F90.00
G01 X29.9130 Y6.8311 F90.00
G01 X29.9334 Y6.8276 F90.00
G01 X29.9766 Y6.8212 F90.00
G01 X29.9869 Y6.8198 F90.00
G01 X30.0075 Y6.8178 F90.00
G01 X30.0615 Y6.8150 F90.00
G01 X30.0822 Y6.8145 F90.00
G01 X30.1030 Y6.8150 F90.00
G01 X30.1465 Y6.8171 F90.00
G01 X30.1569 Y6.8178 F90.00
G01 X30.1776 Y6.8198 F90.00
G01 X30.2310 Y6.8276 F90.00
G01 X30.2515 Y6.8311 F90.00
G01 X30.2717 Y6.8357 F90.00
G01 X30.3140 Y6.8463 F90.00
G01 X30.3341 Y6.8518 F90.00
G01 X30.3440 Y6.8550 F90.00
G01 X30.4046 Y6.8766 F90.00
G01 X30.4238 Y6.8846 F90.00
G01 X30.4332 Y6.8889 F90.00
G01 X30.4820 Y6.9121 F90.00
G01 X30.5003 Y6.9219 F90.00
G01 X30.5555 Y6.9550 F90.00
G01 X30.5728 Y6.9665 F90.00
G01 X30.5988 Y6.9857 F90.00
G01 X30.5988 Y4.2459 F90.00
G01 X19.5993 Y4.2459 F90.00
G01 X16.6375 Y7.2075 F90.00
G01 X16.5981 Y7.2432 F90.00
G01 X16.5821 Y7.2564 F90.00
G01 X16.5394 Y7.2881 F90.00
G01 X16.5221 Y7.2996 F90.00
G01 X16.4765 Y7.3269 F90.00
G01 X16.4582 Y7.3367 F90.00
G01 X16.4101 Y7.3595 F90.00
G01 X16.3909 Y7.3674 F90.00
G01 X16.3506 Y7.3819 F90.00
G01 X16.3309 Y7.3885 F90.00
G01 X16.3109 Y7.3940 F90.00
G01 X16.2795 Y7.4019 F90.00
G01 X16.2592 Y7.4064 F90.00
G01 X16.2387 Y7.4100 F90.00
G01 X16.2067 Y7.4147 F90.00
G01 X16.1861 Y7.4173 F90.00
G01 X16.1654 Y7.4188 F90.00
G01 X16.1330 Y7.4204 F90.00
G01 X16.1122 Y7.4209 F90.00
G01 X10.8712 Y7.4209 F90.00
G01 X10.8160 Y7.4819 F90.00
G01 X10.8089 Y7.4895 F90.00
G01 X10.7943 Y7.5042 F90.00
G01 X10.7243 Y7.5676 F90.00
G01 X10.7083 Y7.5808 F90.00
G01 X10.7000 Y7.5870 F90.00
G01 X10.6409 Y7.6309 F90.00
G01 X10.6239 Y7.6428 F90.00
G01 X10.6064 Y7.6540 F90.00
G01 X10.5433 Y7.6918 F90.00
G01 X10.5343 Y7.6970 F90.00
G01 X10.5160 Y7.7068 F90.00
G01 X10.4401 Y7.7428 F90.00
G01 X10.4307 Y7.7472 F90.00
G01 X10.4115 Y7.7551 F90.00
G01 X10.3226 Y7.7869 F90.00
G01 X10.3028 Y7.7929 F90.00
G01 X10.2927 Y7.7956 F90.00
G01 X10.2112 Y7.8158 F90.00
G01 X10.2011 Y7.8180 F90.00
G01 X10.1806 Y7.8215 F90.00
G01 X10.1078 Y7.8323 F90.00
G01 X10.0872 Y7.8349 F90.00
G01 X10.0665 Y7.8364 F90.00
G01 X9.9826 Y7.8404 F90.00
G01 X9.9722 Y7.8405 F90.00
G01 X9.9515 Y7.8400 F90.00
G01 X9.8780 Y7.8364 F90.00
G01 X9.8573 Y7.8349 F90.00
G01 X9.8469 Y7.8337 F90.00
G01 X9.7638 Y7.8215 F90.00
G01 X9.7434 Y7.8180 F90.00
G01 X9.7231 Y7.8134 F90.00
G01 X9.6517 Y7.7956 F90.00
G01 X9.6317 Y7.7900 F90.00
G01 X9.6120 Y7.7835 F90.00
G01 X9.5427 Y7.7587 F90.00
G01 X9.5233 Y7.7512 F90.00
G01 X9.5043 Y7.7428 F90.00
G01 X9.4378 Y7.7114 F90.00
G01 X9.4193 Y7.7020 F90.00
G01 X9.4012 Y7.6918 F90.00
G01 X9.3381 Y7.6540 F90.00
G01 X9.3205 Y7.6428 F90.00
G01 X9.3036 Y7.6309 F90.00
G01 X9.2444 Y7.5870 F90.00
G01 X9.2281 Y7.5743 F90.00
G01 X9.2123 Y7.5607 F90.00
G01 X9.1578 Y7.5113 F90.00
G01 X9.1428 Y7.4970 F90.00
G01 X9.1285 Y7.4819 F90.00
G01 X9.0790 Y7.4274 F90.00
G01 X9.0655 Y7.4117 F90.00
G01 X9.0527 Y7.3953 F90.00
G01 X9.0088 Y7.3362 F90.00
G01 X8.9969 Y7.3192 F90.00
G01 X8.9858 Y7.3017 F90.00
G01 X8.9479 Y7.2385 F90.00
G01 X8.9377 Y7.2205 F90.00
G01 X8.9284 Y7.2019 F90.00
G01 X8.8969 Y7.1354 F90.00
G01 X8.8885 Y7.1164 F90.00
G01 X8.8810 Y7.0970 F90.00
G01 X8.8562 Y7.0277 F90.00
G01 X8.8497 Y7.0080 F90.00
G01 X8.8468 Y6.9980 F90.00
G01 X8.8263 Y6.9166 F90.00
G01 X8.8217 Y6.8963 F90.00
G01 X8.8182 Y6.8759 F90.00
G01 X8.8074 Y6.8031 F90.00
G01 X8.8048 Y6.7825 F90.00
G01 X8.8033 Y6.7618 F90.00
G01 X8.7997 Y6.6883 F90.00
G01 X8.7992 Y6.6675 F90.00
G01 X8.7997 Y6.6467 F90.00
G01 X8.8033 Y6.5732 F90.00
G01 X8.8048 Y6.5525 F90.00
G01 X8.8074 Y6.5319 F90.00
G01 X8.8198 Y6.4489 F90.00
G01 X8.8239 Y6.4285 F90.00
G01 X8.8263 Y6.4184 F90.00
G01 X8.8442 Y6.3470 F90.00
G01 X8.8497 Y6.3270 F90.00
G01 X8.8562 Y6.3073 F90.00
G01 X8.8810 Y6.2380 F90.00
G01 X8.8846 Y6.2282 F90.00
G01 X8.8926 Y6.2091 F90.00
G01 X8.9284 Y6.1331 F90.00
G01 X8.9377 Y6.1145 F90.00
G01 X8.9479 Y6.0965 F90.00
G01 X8.9858 Y6.0333 F90.00
G01 X8.9969 Y6.0158 F90.00
G01 X9.0088 Y5.9988 F90.00
G01 X9.0527 Y5.9397 F90.00
G01 X9.0655 Y5.9233 F90.00
G01 X9.0790 Y5.9076 F90.00
G01 X9.1285 Y5.8531 F90.00
G01 X9.1428 Y5.8380 F90.00
G01 X9.1578 Y5.8237 F90.00
G01 X9.2188 Y5.7686 F90.00
G01 X9.2188 Y5.5230 F90.00
G01 X8.2592 Y4.5634 F90.00
G01 X6.1852 Y4.5634 F90.00
G01 X5.2256 Y5.5230 F90.00
G01 X5.2256 Y5.7686 F90.00
G01 X5.2866 Y5.8237 F90.00
G01 X5.3017 Y5.8380 F90.00
G01 X5.3089 Y5.8455 F90.00
G01 X5.3723 Y5.9154 F90.00
G01 X5.3855 Y5.9314 F90.00
G01 X5.3918 Y5.9397 F90.00
G01 X5.4356 Y5.9988 F90.00
G01 X5.4476 Y6.0158 F90.00
G01 X5.4587 Y6.0333 F90.00
G01 X5.4965 Y6.0965 F90.00
G01 X5.5067 Y6.1145 F90.00
G01 X5.5115 Y6.1238 F90.00
G01 X5.5475 Y6.1996 F90.00
G01 X5.5560 Y6.2186 F90.00
G01 X5.5634 Y6.2380 F90.00
G01 X5.5882 Y6.3073 F90.00
G01 X5.5947 Y6.3270 F90.00
G01 X5.6003 Y6.3470 F90.00
G01 X5.6182 Y6.4184 F90.00
G01 X5.6227 Y6.4387 F90.00
G01 X5.6263 Y6.4591 F90.00
G01 X5.6371 Y6.5319 F90.00
G01 X5.6396 Y6.5525 F90.00
G01 X5.6411 Y6.5732 F90.00
G01 X5.6447 Y6.6467 F90.00
G01 X5.6453 Y6.6675 F90.00
G01 X5.6447 Y6.6883 F90.00
G01 X5.6411 Y6.7618 F90.00
G01 X5.6396 Y6.7825 F90.00
G01 X5.6371 Y6.8031 F90.00
G01 X5.6263 Y6.8759 F90.00
G01 X5.6227 Y6.8963 F90.00
G01 X5.6182 Y6.9166 F90.00
G01 X5.5976 Y6.9980 F90.00
G01 X5.5947 Y7.0080 F90.00
G01 X5.5882 Y7.0277 F90.00
G01 X5.5634 Y7.0970 F90.00
G01 X5.5560 Y7.1164 F90.00
G01 X5.5475 Y7.1354 F90.00
G01 X5.5161 Y7.2019 F90.00
G01 X5.5067 Y7.2205 F90.00
G01 X5.4965 Y7.2385 F90.00
G01 X5.4587 Y7.3017 F90.00
G01 X5.4476 Y7.3192 F90.00
G01 X5.4356 Y7.3362 F90.00
G01 X5.3918 Y7.3953 F90.00
G01 X5.3790 Y7.4117 F90.00
G01 X5.3654 Y7.4274 F90.00
G01 X5.3160 Y7.4819 F90.00
G01 X5.3017 Y7.4970 F90.00
G01 X5.2866 Y7.5113 F90.00
G01 X5.2321 Y7.5607 F90.00
G01 X5.2164 Y7.5743 F90.00
G01 X5.2083 Y7.5808 F90.00
G01 X5.1409 Y7.6309 F90.00
G01 X5.1239 Y7.6428 F90.00
G01 X5.1064 Y7.6540 F90.00
G01 X5.0432 Y7.6918 F90.00
G01 X5.0252 Y7.7020 F90.00
G01 X5.0066 Y7.7114 F90.00
G01 X4.9401 Y7.7428 F90.00
G01 X4.9211 Y7.7512 F90.00
G01 X4.9017 Y7.7587 F90.00
G01 X4.8324 Y7.7835 F90.00
G01 X4.8127 Y7.7900 F90.00
G01 X4.7927 Y7.7956 F90.00
G01 X4.7213 Y7.8134 F90.00
G01 X4.7011 Y7.8180 F90.00
G01 X4.6806 Y7.8215 F90.00
G01 X4.6078 Y7.8323 F90.00
G01 X4.5872 Y7.8349 F90.00
G01 X4.5665 Y7.8364 F90.00
G01 X4.4930 Y7.8400 F90.00
G01 X4.4722 Y7.8405 F90.00
G01 X4.4515 Y7.8400 F90.00
G01 X4.3779 Y7.8364 F90.00
G01 X4.3572 Y7.8349 F90.00
G01 X4.3366 Y7.8323 F90.00
G01 X4.2638 Y7.8215 F90.00
G01 X4.2434 Y7.8180 F90.00
G01 X4.2231 Y7.8134 F90.00
G01 X4.1517 Y7.7956 F90.00
G01 X4.1317 Y7.7900 F90.00
G01 X4.1120 Y7.7835 F90.00
G01 X4.0427 Y7.7587 F90.00
G01 X4.0233 Y7.7512 F90.00
G01 X4.0043 Y7.7428 F90.00
G01 X3.9378 Y7.7114 F90.00
G01 X3.9193 Y7.7020 F90.00
G01 X3.9012 Y7.6918 F90.00
G01 X3.8381 Y7.6540 F90.00
G01 X3.8205 Y7.6428 F90.00
G01 X3.8035 Y7.6309 F90.00
G01 X3.7444 Y7.5870 F90.00
G01 X3.7280 Y7.5743 F90.00
G01 X3.7123 Y7.5607 F90.00
G01 X3.6578 Y7.5113 F90.00
G01 X3.6428 Y7.4970 F90.00
G01 X3.6284 Y7.4819 F90.00
G01 X3.5790 Y7.4274 F90.00
G01 X3.5654 Y7.4117 F90.00
G01 X3.5527 Y7.3953 F90.00
G01 X3.5088 Y7.3362 F90.00
G01 X3.4969 Y7.3192 F90.00
G01 X3.4858 Y7.3017 F90.00
G01 X3.4479 Y7.2385 F90.00
G01 X3.4377 Y7.2205 F90.00
G01 X3.4284 Y7.2019 F90.00
G01 X3.3969 Y7.1354 F90.00
G01 X3.3885 Y7.1164 F90.00
G01 X3.3810 Y7.0970 F90.00
G01 X3.3562 Y7.0277 F90.00
G01 X3.3497 Y7.0080 F90.00
G01 X3.3442 Y6.9880 F90.00
G01 X3.3263 Y6.9166 F90.00
G01 X3.3217 Y6.8963 F90.00
G01 X3.3182 Y6.8759 F90.00
G01 X3.3060 Y6.7928 F90.00
G01 X3.3048 Y6.7825 F90.00
G01 X3.3033 Y6.7618 F90.00
G01 X3.2997 Y6.6883 F90.00
G01 X3.2992 Y6.6675 F90.00
G01 X3.2997 Y6.6467 F90.00
G01 X3.3033 Y6.5732 F90.00
G01 X3.3048 Y6.5525 F90.00
G01 X3.3074 Y6.5319 F90.00
G01 X3.3182 Y6.4591 F90.00
G01 X3.3217 Y6.4387 F90.00
G01 X3.3263 Y6.4184 F90.00
G01 X3.3442 Y6.3470 F90.00
G01 X3.3497 Y6.3270 F90.00
G01 X3.3562 Y6.3073 F90.00
G01 X3.3810 Y6.2380 F90.00
G01 X3.3885 Y6.2186 F90.00
G01 X3.3969 Y6.1996 F90.00
G01 X3.4284 Y6.1331 F90.00
G01 X3.4377 Y6.1145 F90.00
G01 X3.4479 Y6.0965 F90.00
G01 X3.4858 Y6.0333 F90.00
G01 X3.4969 Y6.0158 F90.00
G01 X3.5088 Y5.9988 F90.00
G01 X3.5527 Y5.9397 F90.00
G01 X3.5654 Y5.9233 F90.00
G01 X3.5790 Y5.9076 F90.00
G01 X3.6284 Y5.8531 F90.00
G01 X3.6428 Y5.8380 F90.00
G01 X3.6502 Y5.8308 F90.00
G01 X3.7188 Y5.7686 F90.00
G01 X3.7188 Y5.2109 F90.00
G01 X3.7193 Y5.1902 F90.00
G01 X3.7209 Y5.1578 F90.00
G01 X3.7216 Y5.1474 F90.00
G01 X3.7236 Y5.1268 F90.00
G01 X3.7314 Y5.0742 F90.00
G01 X3.7354 Y5.0538 F90.00
G01 X3.7378 Y5.0437 F90.00
G01 X3.7457 Y5.0122 F90.00
G01 X3.7513 Y4.9922 F90.00
G01 X3.7578 Y4.9725 F90.00
G01 X3.7687 Y4.9420 F90.00
G01 X3.7762 Y4.9226 F90.00
G01 X3.7803 Y4.9131 F90.00
G01 X3.8030 Y4.8650 F90.00
G01 X3.8128 Y4.8467 F90.00
G01 X3.8180 Y4.8377 F90.00
G01 X3.8347 Y4.8099 F90.00
G01 X3.8458 Y4.7924 F90.00
G01 X3.8577 Y4.7754 F90.00
G01 X3.8771 Y4.7494 F90.00
G01 X3.8898 Y4.7330 F90.00
G01 X3.9034 Y4.7173 F90.00
G01 X3.9252 Y4.6932 F90.00
G01 X3.9395 Y4.6782 F90.00
G01 X5.3404 Y3.2773 F90.00
G01 X5.3555 Y3.2629 F90.00
G01 X5.3795 Y3.2412 F90.00
G01 X5.3952 Y3.2276 F90.00
G01 X5.4116 Y3.2148 F90.00
G01 X5.4460 Y3.1894 F90.00
G01 X5.4633 Y3.1779 F90.00
G01 X5.4999 Y3.1558 F90.00
G01 X5.5180 Y3.1456 F90.00
G01 X5.5365 Y3.1362 F90.00
G01 X5.5753 Y3.1180 F90.00
G01 X5.5945 Y3.1101 F90.00
G01 X5.6042 Y3.1065 F90.00
G01 X5.6446 Y3.0922 F90.00
G01 X5.6644 Y3.0861 F90.00
G01 X5.7059 Y3.0756 F90.00
G01 X5.7262 Y3.0711 F90.00
G01 X5.7466 Y3.0675 F90.00
G01 X5.7890 Y3.0614 F90.00
G01 X5.7993 Y3.0602 F90.00
G01 X5.8200 Y3.0587 F90.00
G01 X5.8524 Y3.0571 F90.00
G01 X5.8732 Y3.0566 F90.00
G01 X8.5817 Y3.0567 F90.00
G01 X8.6348 Y3.0593 F90.00
G01 X8.6451 Y3.0602 F90.00
G01 X8.6657 Y3.0628 F90.00
G01 X8.6978 Y3.0675 F90.00
G01 X8.7183 Y3.0711 F90.00
G01 X8.7385 Y3.0756 F90.00
G01 X8.7800 Y3.0861 F90.00
G01 X8.7900 Y3.0890 F90.00
G01 X8.8097 Y3.0956 F90.00
G01 X8.8402 Y3.1065 F90.00
G01 X8.8596 Y3.1139 F90.00
G01 X8.8786 Y3.1224 F90.00
G01 X8.9079 Y3.1362 F90.00
G01 X8.9264 Y3.1456 F90.00
G01 X8.9355 Y3.1506 F90.00
G01 X8.9723 Y3.1725 F90.00
G01 X8.9899 Y3.1836 F90.00
G01 X9.0068 Y3.1955 F90.00
G01 X9.0329 Y3.2148 F90.00
G01 X9.0492 Y3.2276 F90.00
G01 X9.0572 Y3.2343 F90.00
G01 X9.0890 Y3.2629 F90.00
G01 X9.1040 Y3.2773 F90.00
G01 X10.5050 Y4.6782 F90.00
G01 X10.5193 Y4.6932 F90.00
G01 X10.5411 Y4.7173 F90.00
G01 X10.5546 Y4.7330 F90.00
G01 X10.5674 Y4.7494 F90.00
G01 X10.5928 Y4.7838 F90.00
G01 X10.5987 Y4.7924 F90.00
G01 X10.6098 Y4.8099 F90.00
G01 X10.6264 Y4.8377 F90.00
G01 X10.6367 Y4.8558 F90.00
G01 X10.6460 Y4.8743 F90.00
G01 X10.6599 Y4.9036 F90.00
G01 X10.6683 Y4.9226 F90.00
G01 X10.6721 Y4.9323 F90.00
G01 X10.6901 Y4.9823 F90.00
G01 X10.6961 Y5.0022 F90.00
G01 X10.6987 Y5.0122 F90.00
G01 X10.7066 Y5.0437 F90.00
G01 X10.7112 Y5.0640 F90.00
G01 X10.7147 Y5.0844 F90.00
G01 X10.7209 Y5.1268 F90.00
G01 X10.7229 Y5.1474 F90.00
G01 X10.7235 Y5.1578 F90.00
G01 X10.7251 Y5.1902 F90.00
G01 X10.7256 Y5.2109 F90.00
G01 X10.7256 Y5.7686 F90.00
G01 X10.7867 Y5.8237 F90.00
G01 X10.8017 Y5.8380 F90.00
G01 X10.8160 Y5.8531 F90.00
G01 X10.8712 Y5.9141 F90.00
G01 X15.8002 Y5.9141 F90.00
G01 X18.7619 Y2.9525 F90.00
G01 X18.7935 Y2.9237 F90.00
G01 X18.8093 Y2.9101 F90.00
G01 X18.8256 Y2.8973 F90.00
G01 X18.8601 Y2.8719 F90.00
G01 X18.8774 Y2.8604 F90.00
G01 X18.8862 Y2.8550 F90.00
G01 X18.9230 Y2.8331 F90.00
G01 X18.9413 Y2.8233 F90.00
G01 X18.9799 Y2.8049 F90.00
G01 X18.9989 Y2.7964 F90.00
G01 X19.0183 Y2.7890 F90.00
G01 X19.0586 Y2.7747 F90.00
G01 X19.0785 Y2.7686 F90.00
G01 X19.0885 Y2.7660 F90.00
G01 X19.1301 Y2.7557 F90.00
G01 X19.1504 Y2.7517 F90.00
G01 X19.1928 Y2.7453 F90.00
G01 X19.2134 Y2.7427 F90.00
G01 X19.2341 Y2.7412 F90.00
G01 X19.2665 Y2.7396 F90.00
G01 X19.2872 Y2.7391 F90.00
G01 X37.0058 Y2.7391 F90.00
G01 X37.0609 Y2.6781 F90.00
G01 X37.0753 Y2.6630 F90.00
G01 X37.0903 Y2.6487 F90.00
G01 X37.1448 Y2.5993 F90.00
G01 X37.1606 Y2.5857 F90.00
G01 X37.1769 Y2.5730 F90.00
G01 X37.2360 Y2.5291 F90.00
G01 X37.2530 Y2.5172 F90.00
G01 X37.2706 Y2.5060 F90.00
G01 X37.3337 Y2.4682 F90.00
G01 X37.3518 Y2.4580 F90.00
G01 X37.3610 Y2.4532 F90.00
G01 X37.4368 Y2.4172 F90.00
G01 X37.4558 Y2.4088 F90.00
G01 X37.4752 Y2.4013 F90.00
G01 X37.5445 Y2.3765 F90.00
G01 X37.5642 Y2.3700 F90.00
G01 X37.5842 Y2.3644 F90.00
G01 X37.6556 Y2.3466 F90.00
G01 X37.6818 Y2.3409 F90.00
G01 X4.3593 Y2.3409 F90.00
G01 X2.5781 Y4.1221 F90.00
G01 X2.5780 Y5.1738 F90.00
G01 X2.5994 Y5.1771 F90.00
G01 X2.6191 Y5.1812 F90.00
G01 X2.6483 Y5.1890 F90.00
G01 X2.6674 Y5.1953 F90.00
G01 X2.6862 Y5.2026 F90.00
G01 X2.7465 Y5.2276 F90.00
G01 X2.7649 Y5.2357 F90.00
G01 X2.7829 Y5.2447 F90.00
G01 X2.8091 Y5.2598 F90.00
G01 X2.8259 Y5.2709 F90.00
G01 X2.8422 Y5.2828 F90.00
G01 X2.8939 Y5.3226 F90.00
G01 X2.9096 Y5.3352 F90.00
G01 X2.9246 Y5.3485 F90.00
G01 X2.9390 Y5.3626 F90.00
G01 X2.9527 Y5.3773 F90.00
G01 X2.9720 Y5.4006 F90.00
G01 X3.0117 Y5.4524 F90.00
G01 X3.0236 Y5.4686 F90.00
G01 X3.0347 Y5.4855 F90.00
G01 X3.0450 Y5.5028 F90.00
G01 X3.0544 Y5.5206 F90.00
G01 X3.0630 Y5.5388 F90.00
G01 X3.0957 Y5.6177 F90.00
G01 X3.1055 Y5.6462 F90.00
G01 X3.1110 Y5.6655 F90.00
G01 X3.1155 Y5.6852 F90.00
G01 X3.1191 Y5.7050 F90.00
G01 X3.1303 Y5.7906 F90.00
G01 X3.1321 Y5.8128 F90.00
G01 X3.1327 Y5.8349 F90.00
G01 X3.1326 Y6.4760 F90.00
G01 X3.1321 Y6.4870 F90.00
G01 X3.1304 Y6.5091 F90.00
G01 X3.1206 Y6.5848 F90.00
G01 X3.1175 Y6.6047 F90.00
G01 X3.1134 Y6.6244 F90.00
G01 X3.1085 Y6.6439 F90.00
G01 X3.1026 Y6.6632 F90.00
G01 X3.0957 Y6.6821 F90.00
G01 X3.0631 Y6.7610 F90.00
G01 X3.0545 Y6.7792 F90.00
G01 X3.0400 Y6.8057 F90.00
G01 X3.0294 Y6.8228 F90.00
G01 X3.0179 Y6.8393 F90.00
G01 X2.9659 Y6.9071 F90.00
G01 X2.9529 Y6.9225 F90.00
G01 X2.9392 Y6.9372 F90.00
G01 X2.9248 Y6.9513 F90.00
G01 X2.9097 Y6.9647 F90.00
G01 X2.8940 Y6.9773 F90.00
G01 X2.8422 Y7.0170 F90.00
G01 X2.8177 Y7.0346 F90.00
G01 X2.8006 Y7.0452 F90.00
G01 X2.7831 Y7.0551 F90.00
G01 X2.7651 Y7.0641 F90.00
G01 X2.7467 Y7.0722 F90.00
G01 X2.6770 Y7.1010 F90.00
G01 X2.6580 Y7.1078 F90.00
G01 X2.6290 Y7.1163 F90.00
G01 X2.6094 Y7.1209 F90.00
G01 X2.5895 Y7.1244 F90.00
G01 X2.5039 Y7.1357 F90.00
G01 X2.4818 Y7.1374 F90.00
G01 X2.4597 Y7.1380 F90.00
G01 X1.1897 Y7.1381 F90.00
G01 X1.1676 Y7.1375 F90.00
G01 X1.1455 Y7.1358 F90.00
G01 X1.0698 Y7.1260 F90.00
G01 X1.0499 Y7.1229 F90.00
G01 X1.0302 Y7.1188 F90.00
G01 X1.0107 Y7.1138 F90.00
G01 X0.9914 Y7.1079 F90.00
G01 X0.9631 Y7.0974 F90.00
G01 X0.9028 Y7.0724 F90.00
G01 X0.8844 Y7.0643 F90.00
G01 X0.8664 Y7.0553 F90.00
G01 X0.8402 Y7.0402 F90.00
G01 X0.8152 Y7.0232 F90.00
G01 X0.7554 Y6.9774 F90.00
G01 X0.7397 Y6.9648 F90.00
G01 X0.7174 Y6.9445 F90.00
G01 X0.7033 Y6.9301 F90.00
G01 X0.6835 Y6.9073 F90.00
G01 X0.6376 Y6.8476 F90.00
G01 X0.6201 Y6.8230 F90.00
G01 X0.6094 Y6.8059 F90.00
G01 X0.5995 Y6.7884 F90.00
G01 X0.5905 Y6.7704 F90.00
G01 X0.5823 Y6.7520 F90.00
G01 X0.5574 Y6.6917 F90.00
G01 X0.5501 Y6.6729 F90.00
G01 X0.5438 Y6.6538 F90.00
G01 X0.5383 Y6.6345 F90.00
G01 X0.5338 Y6.6148 F90.00
G01 X0.5302 Y6.5950 F90.00
G01 X0.5189 Y6.5094 F90.00
G01 X0.5172 Y6.4872 F90.00
G01 X0.5168 Y6.4762 F90.00
G01 X0.5166 Y5.8351 F90.00
G01 X0.5172 Y5.8130 F90.00
G01 X0.5189 Y5.7909 F90.00
G01 X0.5287 Y5.7152 F90.00
G01 X0.5337 Y5.6854 F90.00
G01 X0.5408 Y5.6561 F90.00
G01 X0.5467 Y5.6368 F90.00
G01 X0.5535 Y5.6179 F90.00
G01 X0.5862 Y5.5390 F90.00
G01 X0.5948 Y5.5208 F90.00
G01 X0.6042 Y5.5030 F90.00
G01 X0.6145 Y5.4857 F90.00
G01 X0.6314 Y5.4607 F90.00
G01 X0.6772 Y5.4008 F90.00
G01 X0.6898 Y5.3851 F90.00
G01 X0.7032 Y5.3701 F90.00
G01 X0.7245 Y5.3487 F90.00
G01 X0.7474 Y5.3289 F90.00
G01 X0.8151 Y5.2769 F90.00
G01 X0.8316 Y5.2654 F90.00
G01 X0.8487 Y5.2548 F90.00
G01 X0.8752 Y5.2403 F90.00
G01 X0.9026 Y5.2278 F90.00
G01 X0.9629 Y5.2028 F90.00
G01 X0.9913 Y5.1922 F90.00
G01 X1.0105 Y5.1863 F90.00
G01 X1.0301 Y5.1813 F90.00
G01 X1.0498 Y5.1772 F90.00
G01 X1.0712 Y5.1739 F90.00
G00 Z2.0000
G00 X3.9568 Y5.8874
G01 F60.00
G01 Z-0.0601
G01 F90.00
G01 X3.9568 Y5.2109 F90.00
G01 X3.9593 Y5.1604 F90.00
G01 X3.9651 Y5.1193 F90.00
G01 X3.9687 Y5.1015 F90.00
G01 X3.9790 Y5.0613 F90.00
G01 X3.9927 Y5.0222 F90.00
G01 X3.9997 Y5.0054 F90.00
G01 X4.0176 Y4.9680 F90.00
G01 X4.0388 Y4.9322 F90.00
G01 X4.0462 Y4.9208 F90.00
G01 X4.0738 Y4.8839 F90.00
G01 X4.1077 Y4.8465 F90.00
G01 X5.5153 Y3.4393 F90.00
G01 X5.5462 Y3.4116 F90.00
G01 X5.5868 Y3.3814 F90.00
G01 X5.6302 Y3.3554 F90.00
G01 X5.6717 Y3.3356 F90.00
G01 X5.6844 Y3.3305 F90.00
G01 X5.7235 Y3.3168 F90.00
G01 X5.7637 Y3.3065 F90.00
G01 X5.7815 Y3.3029 F90.00
G01 X5.8136 Y3.2982 F90.00
G01 X5.8272 Y3.2966 F90.00
G01 X5.8732 Y3.2946 F90.00
G01 X8.5758 Y3.2946 F90.00
G01 X8.6173 Y3.2966 F90.00
G01 X8.6308 Y3.2982 F90.00
G01 X8.6719 Y3.3045 F90.00
G01 X8.7122 Y3.3143 F90.00
G01 X8.7295 Y3.3196 F90.00
G01 X8.7685 Y3.3338 F90.00
G01 X8.8062 Y3.3513 F90.00
G01 X8.8183 Y3.3576 F90.00
G01 X8.8577 Y3.3814 F90.00
G01 X8.8911 Y3.4060 F90.00
G01 X8.9052 Y3.4175 F90.00
G01 X8.9358 Y3.4455 F90.00
G01 X10.3367 Y4.8465 F90.00
G01 X10.3707 Y4.8839 F90.00
G01 X10.3982 Y4.9208 F90.00
G01 X10.4057 Y4.9322 F90.00
G01 X10.4268 Y4.9680 F90.00
G01 X10.4448 Y5.0054 F90.00
G01 X10.4517 Y5.0222 F90.00
G01 X10.4655 Y5.0613 F90.00
G01 X10.4758 Y5.1015 F90.00
G01 X10.4793 Y5.1193 F90.00
G01 X10.4852 Y5.1604 F90.00
G01 X10.4877 Y5.2109 F90.00
G01 X10.4877 Y5.8874 F90.00
G01 X10.4992 Y5.8952 F90.00
G01 X10.5654 Y5.9447 F90.00
G01 X10.6334 Y6.0063 F90.00
G01 X10.6951 Y6.0743 F90.00
G01 X10.7445 Y6.1406 F90.00
G01 X10.7523 Y6.1521 F90.00
G01 X15.8987 Y6.1521 F90.00
G01 X18.9260 Y3.1249 F90.00
G01 X18.9602 Y3.0941 F90.00
G01 X19.0009 Y3.0639 F90.00
G01 X19.0442 Y3.0379 F90.00
G01 X19.0817 Y3.0200 F90.00
G01 X19.0942 Y3.0146 F90.00
G01 X19.1290 Y3.0021 F90.00
G01 X19.1464 Y2.9968 F90.00
G01 X19.1867 Y2.9870 F90.00
G01 X19.2367 Y2.9795 F90.00
G01 X19.2872 Y2.9771 F90.00
G01 X37.1246 Y2.9771 F90.00
G01 X37.1325 Y2.9656 F90.00
G01 X37.1819 Y2.8993 F90.00
G01 X37.2435 Y2.8313 F90.00
G01 X37.3115 Y2.7697 F90.00
G01 X37.3852 Y2.7150 F90.00
G01 X37.4639 Y2.6678 F90.00
G01 X37.5469 Y2.6286 F90.00
G01 X37.6333 Y2.5977 F90.00
G01 X37.7134 Y2.5774 F90.00
G01 X37.7268 Y2.5746 F90.00
G01 X37.8131 Y2.5619 F90.00
G01 X37.9047 Y2.5574 F90.00
G01 X39.4093 Y2.5575 F90.00
G01 X39.4964 Y2.5619 F90.00
G01 X39.5871 Y2.5754 F90.00
G01 X39.6762 Y2.5977 F90.00
G01 X39.7626 Y2.6286 F90.00
G01 X39.8455 Y2.6678 F90.00
G01 X39.9242 Y2.7150 F90.00
G01 X39.9979 Y2.7697 F90.00
G01 X40.0593 Y2.8250 F90.00
G01 X40.0722 Y2.8379 F90.00
G01 X40.1216 Y2.8924 F90.00
G01 X40.1331 Y2.9065 F90.00
G01 X40.1822 Y2.9730 F90.00
G01 X40.2249 Y3.0438 F90.00
G01 X40.2335 Y3.0598 F90.00
G01 X40.2686 Y3.1347 F90.00
G01 X40.2995 Y3.2211 F90.00
G01 X40.3218 Y3.3101 F90.00
G01 X40.3342 Y3.3918 F90.00
G01 X40.3357 Y3.4054 F90.00
G01 X40.3398 Y3.4925 F90.00
G01 X40.3353 Y3.5842 F90.00
G01 X40.3218 Y3.6749 F90.00
G01 X40.2995 Y3.7639 F90.00
G01 X40.2686 Y3.8503 F90.00
G01 X40.2294 Y3.9333 F90.00
G01 X40.1822 Y4.0120 F90.00
G01 X40.1275 Y4.0857 F90.00
G01 X40.0659 Y4.1537 F90.00
G01 X39.9979 Y4.2153 F90.00
G01 X39.9242 Y4.2700 F90.00
G01 X39.8455 Y4.3172 F90.00
G01 X39.7626 Y4.3564 F90.00
G01 X39.6762 Y4.3873 F90.00
G01 X39.5871 Y4.4096 F90.00
G01 X39.5054 Y4.4220 F90.00
G01 X39.4918 Y4.4235 F90.00
G01 X39.4047 Y4.4276 F90.00
G01 X37.9047 Y4.4276 F90.00
G01 X37.8131 Y4.4231 F90.00
G01 X37.7268 Y4.4104 F90.00
G01 X37.7134 Y4.4076 F90.00
G01 X37.6333 Y4.3873 F90.00
G01 X37.5469 Y4.3564 F90.00
G01 X37.4639 Y4.3172 F90.00
G01 X37.3852 Y4.2700 F90.00
G01 X37.3115 Y4.2153 F90.00
G01 X37.2435 Y4.1537 F90.00
G01 X37.1819 Y4.0857 F90.00
G01 X37.1325 Y4.0194 F90.00
G01 X37.1246 Y4.0079 F90.00
G01 X31.8677 Y4.0079 F90.00
G01 X31.8677 Y7.3210 F90.00
G01 X31.8782 Y7.3360 F90.00
G01 X31.9075 Y7.3852 F90.00
G01 X31.9302 Y7.4328 F90.00
G01 X31.9356 Y7.4453 F90.00
G01 X31.9547 Y7.4992 F90.00
G01 X31.9677 Y7.5503 F90.00
G01 X31.9705 Y7.5636 F90.00
G01 X31.9783 Y7.6158 F90.00
G01 X31.9794 Y7.6294 F90.00
G01 X31.9818 Y7.6820 F90.00
G01 X31.9818 Y8.1930 F90.00
G01 X31.9788 Y8.2547 F90.00
G01 X31.9697 Y8.3158 F90.00
G01 X31.9547 Y8.3758 F90.00
G01 X31.9339 Y8.4339 F90.00
G01 X31.9115 Y8.4817 F90.00
G01 X31.9030 Y8.4977 F90.00
G01 X31.8782 Y8.5390 F90.00
G01 X31.8705 Y8.5502 F90.00
G01 X31.8389 Y8.5924 F90.00
G01 X31.7974 Y8.6382 F90.00
G01 X31.7516 Y8.6797 F90.00
G01 X31.7020 Y8.7165 F90.00
G01 X31.6490 Y8.7482 F90.00
G01 X31.6015 Y8.7710 F90.00
G01 X31.5847 Y8.7779 F90.00
G01 X31.5393 Y8.7941 F90.00
G01 X31.5262 Y8.7979 F90.00
G01 X31.4750 Y8.8105 F90.00
G01 X31.4229 Y8.8184 F90.00
G01 X31.4094 Y8.8199 F90.00
G01 X31.3522 Y8.8226 F90.00
G01 X31.2905 Y8.8195 F90.00
G01 X31.2294 Y8.8105 F90.00
G01 X31.1695 Y8.7955 F90.00
G01 X31.1113 Y8.7747 F90.00
G01 X31.0554 Y8.7482 F90.00
G01 X31.0024 Y8.7165 F90.00
G01 X30.9528 Y8.6797 F90.00
G01 X30.9070 Y8.6382 F90.00
G01 X30.8656 Y8.5924 F90.00
G01 X30.8287 Y8.5428 F90.00
G01 X30.7970 Y8.4898 F90.00
G01 X30.7706 Y8.4339 F90.00
G01 X30.7498 Y8.3758 F90.00
G01 X30.7347 Y8.3158 F90.00
G01 X30.7262 Y8.2592 F90.00
G01 X30.7250 Y8.2456 F90.00
G01 X30.7226 Y8.1930 F90.00
G01 X30.7226 Y7.6820 F90.00
G01 X30.7250 Y7.6294 F90.00
G01 X30.7262 Y7.6158 F90.00
G01 X30.7347 Y7.5592 F90.00
G01 X30.7473 Y7.5080 F90.00
G01 X30.7511 Y7.4949 F90.00
G01 X30.7689 Y7.4453 F90.00
G01 X30.7743 Y7.4328 F90.00
G01 X30.7970 Y7.3852 F90.00
G01 X30.8263 Y7.3360 F90.00
G01 X30.8368 Y7.3210 F90.00
G01 X30.8368 Y4.0079 F90.00
G01 X19.5007 Y4.0079 F90.00
G01 X16.4734 Y7.0351 F90.00
G01 X16.4392 Y7.0659 F90.00
G01 X16.3986 Y7.0961 F90.00
G01 X16.3552 Y7.1221 F90.00
G01 X16.3178 Y7.1400 F90.00
G01 X16.3010 Y7.1470 F90.00
G01 X16.2662 Y7.1594 F90.00
G01 X16.2531 Y7.1632 F90.00
G01 X16.2128 Y7.1730 F90.00
G01 X16.1718 Y7.1793 F90.00
G01 X16.1582 Y7.1809 F90.00
G01 X16.1122 Y7.1829 F90.00
G01 X10.7523 Y7.1829 F90.00
G01 X10.7445 Y7.1944 F90.00
G01 X10.6951 Y7.2607 F90.00
G01 X10.6397 Y7.3221 F90.00
G01 X10.6268 Y7.3350 F90.00
G01 X10.5723 Y7.3844 F90.00
G01 X10.5583 Y7.3959 F90.00
G01 X10.4917 Y7.4450 F90.00
G01 X10.4130 Y7.4922 F90.00
G01 X10.3301 Y7.5314 F90.00
G01 X10.2437 Y7.5623 F90.00
G01 X10.1547 Y7.5846 F90.00
G01 X10.0729 Y7.5970 F90.00
G01 X10.0548 Y7.5987 F90.00
G01 X9.9813 Y7.6024 F90.00
G01 X9.9631 Y7.6024 F90.00
G01 X9.8806 Y7.5981 F90.00
G01 X9.7898 Y7.5846 F90.00
G01 X9.7008 Y7.5623 F90.00
G01 X9.6229 Y7.5347 F90.00
G01 X9.6061 Y7.5277 F90.00
G01 X9.5314 Y7.4922 F90.00
G01 X9.4604 Y7.4498 F90.00
G01 X9.4453 Y7.4398 F90.00
G01 X9.3790 Y7.3903 F90.00
G01 X9.3176 Y7.3350 F90.00
G01 X9.3048 Y7.3221 F90.00
G01 X9.2553 Y7.2676 F90.00
G01 X9.2438 Y7.2535 F90.00
G01 X9.1947 Y7.1870 F90.00
G01 X9.1520 Y7.1162 F90.00
G01 X9.1435 Y7.1002 F90.00
G01 X9.1083 Y7.0253 F90.00
G01 X9.0774 Y6.9389 F90.00
G01 X9.0571 Y6.8588 F90.00
G01 X9.0536 Y6.8410 F90.00
G01 X9.0428 Y6.7682 F90.00
G01 X9.0413 Y6.7546 F90.00
G01 X9.0372 Y6.6675 F90.00
G01 X9.0410 Y6.5849 F90.00
G01 X9.0428 Y6.5668 F90.00
G01 X9.0551 Y6.4851 F90.00
G01 X9.0750 Y6.4048 F90.00
G01 X9.0803 Y6.3874 F90.00
G01 X9.1083 Y6.3097 F90.00
G01 X9.1435 Y6.2348 F90.00
G01 X9.1520 Y6.2188 F90.00
G01 X9.1947 Y6.1480 F90.00
G01 X9.2438 Y6.0815 F90.00
G01 X9.2553 Y6.0674 F90.00
G01 X9.3110 Y6.0063 F90.00
G01 X9.3721 Y5.9506 F90.00
G01 X9.3862 Y5.9391 F90.00
G01 X9.4453 Y5.8952 F90.00
G01 X9.4568 Y5.8874 F90.00
G01 X9.4568 Y5.4244 F90.00
G01 X8.3578 Y4.3254 F90.00
G01 X6.0867 Y4.3254 F90.00
G01 X4.9877 Y5.4244 F90.00
G01 X4.9877 Y5.8874 F90.00
G01 X4.9991 Y5.8952 F90.00
G01 X5.0583 Y5.9391 F90.00
G01 X5.0723 Y5.9506 F90.00
G01 X5.1334 Y6.0063 F90.00
G01 X5.1891 Y6.0674 F90.00
G01 X5.2006 Y6.0815 F90.00
G01 X5.2497 Y6.1480 F90.00
G01 X5.2924 Y6.2188 F90.00
G01 X5.3010 Y6.2348 F90.00
G01 X5.3361 Y6.3097 F90.00
G01 X5.3642 Y6.3874 F90.00
G01 X5.3695 Y6.4048 F90.00
G01 X5.3893 Y6.4851 F90.00
G01 X5.4017 Y6.5668 F90.00
G01 X5.4035 Y6.5849 F90.00
G01 X5.4073 Y6.6675 F90.00
G01 X5.4028 Y6.7592 F90.00
G01 X5.3893 Y6.8499 F90.00
G01 X5.3695 Y6.9302 F90.00
G01 X5.3642 Y6.9476 F90.00
G01 X5.3361 Y7.0253 F90.00
G01 X5.2969 Y7.1083 F90.00
G01 X5.2546 Y7.1793 F90.00
G01 X5.2445 Y7.1944 F90.00
G01 X5.1950 Y7.2607 F90.00
G01 X5.1397 Y7.3221 F90.00
G01 X5.1268 Y7.3350 F90.00
G01 X5.0654 Y7.3903 F90.00
G01 X4.9917 Y7.4450 F90.00
G01 X4.9209 Y7.4877 F90.00
G01 X4.9049 Y7.4962 F90.00
G01 X4.8301 Y7.5314 F90.00
G01 X4.7523 Y7.5595 F90.00
G01 X4.7349 Y7.5647 F90.00
G01 X4.6546 Y7.5846 F90.00
G01 X4.5729 Y7.5970 F90.00
G01 X4.5548 Y7.5987 F90.00
G01 X4.4813 Y7.6024 F90.00
G01 X4.4631 Y7.6024 F90.00
G01 X4.3806 Y7.5981 F90.00
G01 X4.2898 Y7.5846 F90.00
G01 X4.2008 Y7.5623 F90.00
G01 X4.1144 Y7.5314 F90.00
G01 X4.0314 Y7.4922 F90.00
G01 X3.9527 Y7.4450 F90.00
G01 X3.8790 Y7.3903 F90.00
G01 X3.8176 Y7.3350 F90.00
G01 X3.8048 Y7.3221 F90.00
G01 X3.7494 Y7.2607 F90.00
G01 X3.7000 Y7.1944 F90.00
G01 X3.6899 Y7.1793 F90.00
G01 X3.6520 Y7.1162 F90.00
G01 X3.6435 Y7.1002 F90.00
G01 X3.6083 Y7.0253 F90.00
G01 X3.5774 Y6.9389 F90.00
G01 X3.5551 Y6.8499 F90.00
G01 X3.5416 Y6.7592 F90.00
G01 X3.5371 Y6.6675 F90.00
G01 X3.5416 Y6.5758 F90.00
G01 X3.5551 Y6.4851 F90.00
G01 X3.5750 Y6.4048 F90.00
G01 X3.5803 Y6.3874 F90.00
G01 X3.6050 Y6.3181 F90.00
G01 X3.6120 Y6.3014 F90.00
G01 X3.6476 Y6.2267 F90.00
G01 X3.6899 Y6.1557 F90.00
G01 X3.7000 Y6.1406 F90.00
G01 X3.7494 Y6.0743 F90.00
G01 X3.8110 Y6.0063 F90.00
G01 X3.8790 Y5.9447 F90.00
G01 X3.9453 Y5.8952 F90.00
G01 X3.9568 Y5.8874 F90.00
G00 Z2.0000
G00 X4.0758 Y5.9547
G01 F60.00
G01 Z-0.0601
G01 F90.00
G01 X4.0758 Y5.2109 F90.00
G01 X4.0775 Y5.1737 F90.00
G01 X4.0828 Y5.1368 F90.00
G01 X4.0841 Y5.1304 F90.00
G01 X4.0928 Y5.0958 F90.00
G01 X4.1048 Y5.0622 F90.00
G01 X4.1072 Y5.0563 F90.00
G01 X4.1226 Y5.0240 F90.00
G01 X4.1435 Y4.9893 F90.00
G01 X4.1657 Y4.9594 F90.00
G01 X4.1919 Y4.9306 F90.00
G01 X5.5940 Y3.5285 F90.00
G01 X5.6216 Y3.5035 F90.00
G01 X5.6529 Y3.4804 F90.00
G01 X5.6863 Y3.4604 F90.00
G01 X5.7185 Y3.4450 F90.00
G01 X5.7245 Y3.4425 F90.00
G01 X5.7550 Y3.4316 F90.00
G01 X5.7612 Y3.4297 F90.00
G01 X5.7958 Y3.4212 F90.00
G01 X5.8359 Y3.4153 F90.00
G01 X5.8732 Y3.4135 F90.00
G01 X8.5729 Y3.4136 F90.00
G01 X8.6069 Y3.4152 F90.00
G01 X8.6134 Y3.4158 F90.00
G01 X8.6486 Y3.4212 F90.00
G01 X8.6833 Y3.4297 F90.00
G01 X8.6895 Y3.4316 F90.00
G01 X8.7230 Y3.4437 F90.00
G01 X8.7553 Y3.4589 F90.00
G01 X8.7610 Y3.4620 F90.00
G01 X8.7916 Y3.4804 F90.00
G01 X8.8202 Y3.5015 F90.00
G01 X8.8253 Y3.5056 F90.00
G01 X8.8516 Y3.5297 F90.00
G01 X10.2526 Y4.9306 F90.00
G01 X10.2787 Y4.9594 F90.00
G01 X10.3019 Y4.9907 F90.00
G01 X10.3203 Y5.0212 F90.00
G01 X10.3233 Y5.0269 F90.00
G01 X10.3385 Y5.0592 F90.00
G01 X10.3506 Y5.0928 F90.00
G01 X10.3525 Y5.0990 F90.00
G01 X10.3611 Y5.1336 F90.00
G01 X10.3669 Y5.1737 F90.00
G01 X10.3687 Y5.2109 F90.00
G01 X10.3687 Y5.9547 F90.00
G01 X10.4256 Y5.9889 F90.00
G01 X10.4874 Y6.0347 F90.00
G01 X10.4924 Y6.0388 F90.00
G01 X10.5493 Y6.0904 F90.00
G01 X10.6010 Y6.1473 F90.00
G01 X10.6051 Y6.1523 F90.00
G01 X10.6508 Y6.2141 F90.00
G01 X10.6850 Y6.2710 F90.00
G01 X15.9480 Y6.2710 F90.00
G01 X19.0080 Y3.2110 F90.00
G01 X19.0357 Y3.1860 F90.00
G01 X19.0643 Y3.1647 F90.00
G01 X19.0697 Y3.1611 F90.00
G01 X19.0975 Y3.1445 F90.00
G01 X19.1032 Y3.1414 F90.00
G01 X19.1355 Y3.1262 F90.00
G01 X19.1721 Y3.1131 F90.00
G01 X19.2099 Y3.1037 F90.00
G01 X19.2468 Y3.0981 F90.00
G01 X19.2872 Y3.0960 F90.00
G01 X37.1919 Y3.0960 F90.00
G01 X37.2262 Y3.0391 F90.00
G01 X37.2719 Y2.9773 F90.00
G01 X37.2760 Y2.9723 F90.00
G01 X37.3254 Y2.9178 F90.00
G01 X37.3300 Y2.9132 F90.00
G01 X37.3870 Y2.8616 F90.00
G01 X37.4487 Y2.8158 F90.00
G01 X37.4541 Y2.8122 F90.00
G01 X37.5200 Y2.7728 F90.00
G01 X37.5924 Y2.7385 F90.00
G01 X37.6678 Y2.7115 F90.00
G01 X37.7455 Y2.6921 F90.00
G01 X37.8247 Y2.6803 F90.00
G01 X37.9047 Y2.6764 F90.00
G01 X39.4063 Y2.6764 F90.00
G01 X39.4847 Y2.6803 F90.00
G01 X39.5639 Y2.6921 F90.00
G01 X39.6416 Y2.7115 F90.00
G01 X39.7170 Y2.7385 F90.00
G01 X39.7894 Y2.7728 F90.00
G01 X39.8581 Y2.8139 F90.00
G01 X39.9224 Y2.8616 F90.00
G01 X39.9794 Y2.9132 F90.00
G01 X39.9840 Y2.9178 F90.00
G01 X40.0335 Y2.9723 F90.00
G01 X40.0376 Y2.9773 F90.00
G01 X40.0833 Y3.0391 F90.00
G01 X40.1229 Y3.1050 F90.00
G01 X40.1259 Y3.1107 F90.00
G01 X40.1587 Y3.1802 F90.00
G01 X40.1857 Y3.2556 F90.00
G01 X40.2051 Y3.3333 F90.00
G01 X40.2170 Y3.4141 F90.00
G01 X40.2208 Y3.4925 F90.00
G01 X40.2169 Y3.5725 F90.00
G01 X40.2051 Y3.6517 F90.00
G01 X40.1857 Y3.7294 F90.00
G01 X40.1587 Y3.8048 F90.00
G01 X40.1245 Y3.8772 F90.00
G01 X40.0833 Y3.9459 F90.00
G01 X40.0356 Y4.0102 F90.00
G01 X39.9818 Y4.0696 F90.00
G01 X39.9224 Y4.1234 F90.00
G01 X39.8581 Y4.1711 F90.00
G01 X39.7894 Y4.2122 F90.00
G01 X39.7170 Y4.2465 F90.00
G01 X39.6416 Y4.2735 F90.00
G01 X39.5639 Y4.2929 F90.00
G01 X39.4879 Y4.3043 F90.00
G01 X39.4815 Y4.3049 F90.00
G01 X39.4047 Y4.3086 F90.00
G01 X37.9047 Y4.3086 F90.00
G01 X37.8247 Y4.3047 F90.00
G01 X37.7471 Y4.2932 F90.00
G01 X37.6678 Y4.2735 F90.00
G01 X37.5924 Y4.2465 F90.00
G01 X37.5200 Y4.2122 F90.00
G01 X37.4541 Y4.1728 F90.00
G01 X37.4487 Y4.1692 F90.00
G01 X37.3870 Y4.1234 F90.00
G01 X37.3300 Y4.0718 F90.00
G01 X37.3254 Y4.0672 F90.00
G01 X37.2760 Y4.0127 F90.00
G01 X37.2719 Y4.0077 F90.00
G01 X37.2262 Y3.9459 F90.00
G01 X37.1919 Y3.8890 F90.00
G01 X31.7487 Y3.8890 F90.00
G01 X31.7487 Y7.3603 F90.00
G01 X31.7768 Y7.3983 F90.00
G01 X31.8009 Y7.4385 F90.00
G01 X31.8040 Y7.4442 F90.00
G01 X31.8240 Y7.4866 F90.00
G01 X31.8398 Y7.5307 F90.00
G01 X31.8417 Y7.5369 F90.00
G01 X31.8530 Y7.5824 F90.00
G01 X31.8602 Y7.6303 F90.00
G01 X31.8628 Y7.6820 F90.00
G01 X31.8628 Y8.1930 F90.00
G01 X31.8605 Y8.2414 F90.00
G01 X31.8530 Y8.2926 F90.00
G01 X31.8417 Y8.3381 F90.00
G01 X31.8398 Y8.3443 F90.00
G01 X31.8251 Y8.3854 F90.00
G01 X31.8226 Y8.3914 F90.00
G01 X31.8025 Y8.4337 F90.00
G01 X31.7768 Y8.4767 F90.00
G01 X31.7469 Y8.5169 F90.00
G01 X31.7133 Y8.5540 F90.00
G01 X31.6761 Y8.5877 F90.00
G01 X31.6359 Y8.6175 F90.00
G01 X31.5929 Y8.6433 F90.00
G01 X31.5506 Y8.6634 F90.00
G01 X31.5446 Y8.6659 F90.00
G01 X31.5035 Y8.6806 F90.00
G01 X31.4973 Y8.6825 F90.00
G01 X31.4518 Y8.6938 F90.00
G01 X31.4007 Y8.7013 F90.00
G01 X31.3522 Y8.7036 F90.00
G01 X31.3022 Y8.7011 F90.00
G01 X31.2526 Y8.6938 F90.00
G01 X31.2040 Y8.6816 F90.00
G01 X31.1568 Y8.6647 F90.00
G01 X31.1115 Y8.6433 F90.00
G01 X31.0686 Y8.6175 F90.00
G01 X31.0283 Y8.5877 F90.00
G01 X30.9912 Y8.5540 F90.00
G01 X30.9575 Y8.5169 F90.00
G01 X30.9277 Y8.4767 F90.00
G01 X30.9019 Y8.4337 F90.00
G01 X30.8805 Y8.3884 F90.00
G01 X30.8636 Y8.3412 F90.00
G01 X30.8514 Y8.2926 F90.00
G01 X30.8441 Y8.2430 F90.00
G01 X30.8416 Y8.1930 F90.00
G01 X30.8416 Y7.6820 F90.00
G01 X30.8443 Y7.6303 F90.00
G01 X30.8514 Y7.5824 F90.00
G01 X30.8627 Y7.5369 F90.00
G01 X30.8646 Y7.5307 F90.00
G01 X30.8805 Y7.4866 F90.00
G01 X30.9005 Y7.4442 F90.00
G01 X30.9035 Y7.4385 F90.00
G01 X30.9277 Y7.3983 F90.00
G01 X30.9558 Y7.3603 F90.00
G01 X30.9558 Y3.8890 F90.00
G01 X19.4514 Y3.8890 F90.00
G01 X16.3914 Y6.9490 F90.00
G01 X16.3637 Y6.9740 F90.00
G01 X16.3325 Y6.9971 F90.00
G01 X16.2991 Y7.0171 F90.00
G01 X16.2669 Y7.0325 F90.00
G01 X16.2609 Y7.0350 F90.00
G01 X16.2304 Y7.0459 F90.00
G01 X16.2242 Y7.0478 F90.00
G01 X16.1896 Y7.0563 F90.00
G01 X16.1495 Y7.0622 F90.00
G01 X16.1122 Y7.0640 F90.00
G01 X10.6850 Y7.0640 F90.00
G01 X10.6508 Y7.1209 F90.00
G01 X10.6031 Y7.1852 F90.00
G01 X10.5493 Y7.2446 F90.00
G01 X10.4900 Y7.2984 F90.00
G01 X10.4256 Y7.3461 F90.00
G01 X10.3569 Y7.3872 F90.00
G01 X10.2845 Y7.4215 F90.00
G01 X10.2122 Y7.4474 F90.00
G01 X10.2060 Y7.4493 F90.00
G01 X10.1314 Y7.4679 F90.00
G01 X10.0554 Y7.4793 F90.00
G01 X10.0490 Y7.4799 F90.00
G01 X9.9755 Y7.4835 F90.00
G01 X9.9690 Y7.4835 F90.00
G01 X9.8922 Y7.4797 F90.00
G01 X9.8130 Y7.4679 F90.00
G01 X9.7353 Y7.4485 F90.00
G01 X9.6630 Y7.4226 F90.00
G01 X9.6570 Y7.4202 F90.00
G01 X9.5904 Y7.3887 F90.00
G01 X9.5847 Y7.3856 F90.00
G01 X9.5188 Y7.3461 F90.00
G01 X9.4545 Y7.2984 F90.00
G01 X9.3975 Y7.2468 F90.00
G01 X9.3929 Y7.2422 F90.00
G01 X9.3414 Y7.1852 F90.00
G01 X9.2937 Y7.1209 F90.00
G01 X9.2525 Y7.0522 F90.00
G01 X9.2196 Y6.9828 F90.00
G01 X9.2171 Y6.9768 F90.00
G01 X9.1913 Y6.9044 F90.00
G01 X9.1725 Y6.8299 F90.00
G01 X9.1713 Y6.8235 F90.00
G01 X9.1601 Y6.7475 F90.00
G01 X9.1562 Y6.6707 F90.00
G01 X9.1562 Y6.6643 F90.00
G01 X9.1598 Y6.5907 F90.00
G01 X9.1605 Y6.5843 F90.00
G01 X9.1718 Y6.5083 F90.00
G01 X9.1904 Y6.4337 F90.00
G01 X9.1923 Y6.4275 F90.00
G01 X9.2183 Y6.3552 F90.00
G01 X9.2510 Y6.2857 F90.00
G01 X9.2541 Y6.2800 F90.00
G01 X9.2937 Y6.2141 F90.00
G01 X9.3394 Y6.1523 F90.00
G01 X9.3435 Y6.1473 F90.00
G01 X9.3952 Y6.0904 F90.00
G01 X9.4520 Y6.0388 F90.00
G01 X9.4571 Y6.0347 F90.00
G01 X9.5188 Y5.9889 F90.00
G01 X9.5758 Y5.9547 F90.00
G01 X9.5758 Y5.3752 F90.00
G01 X8.4071 Y4.2065 F90.00
G01 X6.0374 Y4.2065 F90.00
G01 X4.8687 Y5.3752 F90.00
G01 X4.8687 Y5.9547 F90.00
G01 X4.9256 Y5.9889 F90.00
G01 X4.9874 Y6.0347 F90.00
G01 X4.9924 Y6.0388 F90.00
G01 X5.0493 Y6.0904 F90.00
G01 X5.1009 Y6.1473 F90.00
G01 X5.1051 Y6.1523 F90.00
G01 X5.1508 Y6.2141 F90.00
G01 X5.1903 Y6.2800 F90.00
G01 X5.1934 Y6.2857 F90.00
G01 X5.2249 Y6.3522 F90.00
G01 X5.2274 Y6.3582 F90.00
G01 X5.2532 Y6.4306 F90.00
G01 X5.2719 Y6.5051 F90.00
G01 X5.2732 Y6.5115 F90.00
G01 X5.2844 Y6.5875 F90.00
G01 X5.2882 Y6.6643 F90.00
G01 X5.2882 Y6.6707 F90.00
G01 X5.2844 Y6.7475 F90.00
G01 X5.2732 Y6.8235 F90.00
G01 X5.2719 Y6.8299 F90.00
G01 X5.2532 Y6.9044 F90.00
G01 X5.2262 Y6.9798 F90.00
G01 X5.1934 Y7.0493 F90.00
G01 X5.1903 Y7.0550 F90.00
G01 X5.1508 Y7.1209 F90.00
G01 X5.1031 Y7.1852 F90.00
G01 X5.0515 Y7.2422 F90.00
G01 X5.0469 Y7.2468 F90.00
G01 X4.9899 Y7.2984 F90.00
G01 X4.9283 Y7.3442 F90.00
G01 X4.9229 Y7.3478 F90.00
G01 X4.8569 Y7.3872 F90.00
G01 X4.7845 Y7.4215 F90.00
G01 X4.7091 Y7.4485 F90.00
G01 X4.6314 Y7.4679 F90.00
G01 X4.5522 Y7.4797 F90.00
G01 X4.4722 Y7.4836 F90.00
G01 X4.3922 Y7.4797 F90.00
G01 X4.3130 Y7.4679 F90.00
G01 X4.2353 Y7.4485 F90.00
G01 X4.1629 Y7.4226 F90.00
G01 X4.1569 Y7.4202 F90.00
G01 X4.0875 Y7.3872 F90.00
G01 X4.0188 Y7.3461 F90.00
G01 X3.9545 Y7.2984 F90.00
G01 X3.8975 Y7.2468 F90.00
G01 X3.8929 Y7.2422 F90.00
G01 X3.8414 Y7.1852 F90.00
G01 X3.7955 Y7.1236 F90.00
G01 X3.7919 Y7.1182 F90.00
G01 X3.7541 Y7.0550 F90.00
G01 X3.7510 Y7.0493 F90.00
G01 X3.7182 Y6.9798 F90.00
G01 X3.6913 Y6.9044 F90.00
G01 X3.6718 Y6.8267 F90.00
G01 X3.6600 Y6.7475 F90.00
G01 X3.6561 Y6.6675 F90.00
G01 X3.6600 Y6.5875 F90.00
G01 X3.6718 Y6.5083 F90.00
G01 X3.6913 Y6.4306 F90.00
G01 X3.7182 Y6.3552 F90.00
G01 X3.7525 Y6.2828 F90.00
G01 X3.7937 Y6.2141 F90.00
G01 X3.8414 Y6.1498 F90.00
G01 X3.8951 Y6.0904 F90.00
G01 X3.9545 Y6.0366 F90.00
G01 X4.0188 Y5.9889 F90.00
G01 X4.0758 Y5.9547 F90.00
G00 Z2.0000
G00 X3.7594 Y8.8110
G01 F60.00
G01 Z-0.0601
G01 F90.00
G01 X3.7937 Y8.7541 F90.00
G01 X3.8414 Y8.6898 F90.00
G01 X3.8951 Y8.6304 F90.00
G01 X3.9545 Y8.5766 F90.00
G01 X4.0188 Y8.5289 F90.00
G01 X4.0875 Y8.4878 F90.00
G01 X4.1599 Y8.4535 F90.00
G01 X4.2353 Y8.4265 F90.00
G01 X4.3130 Y8.4071 F90.00
G01 X4.3922 Y8.3953 F90.00
G01 X4.4722 Y8.3914 F90.00
G01 X4.5522 Y8.3953 F90.00
G01 X4.6314 Y8.4071 F90.00
G01 X4.7091 Y8.4265 F90.00
G01 X4.7845 Y8.4535 F90.00
G01 X4.8569 Y8.4878 F90.00
G01 X4.9256 Y8.5289 F90.00
G01 X4.9899 Y8.5766 F90.00
G01 X5.0493 Y8.6304 F90.00
G01 X5.1031 Y8.6898 F90.00
G01 X5.1508 Y8.7541 F90.00
G01 X5.1919 Y8.8228 F90.00
G01 X5.2262 Y8.8952 F90.00
G01 X5.2532 Y8.9706 F90.00
G01 X5.2726 Y9.0483 F90.00
G01 X5.2844 Y9.1275 F90.00
G01 X5.2883 Y9.2075 F90.00
G01 X5.2844 Y9.2875 F90.00
G01 X5.2726 Y9.3667 F90.00
G01 X5.2532 Y9.4444 F90.00
G01 X5.2262 Y9.5198 F90.00
G01 X5.1919 Y9.5922 F90.00
G01 X5.1525 Y9.6582 F90.00
G01 X5.1489 Y9.6636 F90.00
G01 X5.1031 Y9.7252 F90.00
G01 X5.0493 Y9.7846 F90.00
G01 X4.9924 Y9.8362 F90.00
G01 X4.9874 Y9.8403 F90.00
G01 X4.9256 Y9.8861 F90.00
G01 X4.8597 Y9.9256 F90.00
G01 X4.8540 Y9.9287 F90.00
G01 X4.7845 Y9.9615 F90.00
G01 X4.7122 Y9.9874 F90.00
G01 X4.7060 Y9.9893 F90.00
G01 X4.6314 Y10.0079 F90.00
G01 X4.5554 Y10.0193 F90.00
G01 X4.5490 Y10.0199 F90.00
G01 X4.4706 Y10.0236 F90.00
G01 X4.3955 Y10.0199 F90.00
G01 X4.3890 Y10.0193 F90.00
G01 X4.3130 Y10.0079 F90.00
G01 X4.2384 Y9.9893 F90.00
G01 X4.2322 Y9.9874 F90.00
G01 X4.1599 Y9.9615 F90.00
G01 X4.0904 Y9.9287 F90.00
G01 X4.0847 Y9.9256 F90.00
G01 X4.0188 Y9.8861 F90.00
G01 X3.9570 Y9.8403 F90.00
G01 X3.9520 Y9.8362 F90.00
G01 X3.8951 Y9.7846 F90.00
G01 X3.8435 Y9.7277 F90.00
G01 X3.8394 Y9.7227 F90.00
G01 X3.7937 Y9.6609 F90.00
G01 X3.7594 Y9.6040 F90.00
G01 X2.7028 Y9.6040 F90.00
G01 X2.6871 Y9.6244 F90.00
G01 X2.6793 Y9.6322 F90.00
G01 X2.6238 Y9.6748 F90.00
G01 X2.6144 Y9.6805 F90.00
G01 X2.5499 Y9.7075 F90.00
G01 X2.5409 Y9.7105 F90.00
G01 X2.5332 Y9.7120 F90.00
G01 X2.4633 Y9.7210 F90.00
G01 X1.1864 Y9.7211 F90.00
G01 X1.1150 Y9.7118 F90.00
G01 X1.1073 Y9.7102 F90.00
G01 X1.0998 Y9.7076 F90.00
G01 X1.0395 Y9.6826 F90.00
G01 X1.0325 Y9.6792 F90.00
G01 X1.0246 Y9.6740 F90.00
G01 X0.9728 Y9.6343 F90.00
G01 X0.9669 Y9.6291 F90.00
G01 X0.9616 Y9.6233 F90.00
G01 X0.9209 Y9.5703 F90.00
G01 X0.9165 Y9.5638 F90.00
G01 X0.9122 Y9.5554 F90.00
G01 X0.8873 Y9.4951 F90.00
G01 X0.8839 Y9.4846 F90.00
G01 X0.8828 Y9.4784 F90.00
G01 X0.8743 Y9.4137 F90.00
G01 X0.8737 Y9.4051 F90.00
G01 X0.8737 Y8.7733 F90.00
G01 X0.8743 Y8.7664 F90.00
G01 X0.8828 Y8.7018 F90.00
G01 X0.8839 Y8.6956 F90.00
G01 X0.8872 Y8.6851 F90.00
G01 X0.9122 Y8.6248 F90.00
G01 X0.9156 Y8.6177 F90.00
G01 X0.9208 Y8.6098 F90.00
G01 X0.9605 Y8.5581 F90.00
G01 X0.9657 Y8.5521 F90.00
G01 X0.9727 Y8.5458 F90.00
G01 X1.0245 Y8.5061 F90.00
G01 X1.0324 Y8.5009 F90.00
G01 X1.0394 Y8.4975 F90.00
G01 X1.0997 Y8.4725 F90.00
G01 X1.1102 Y8.4691 F90.00
G01 X1.1164 Y8.4680 F90.00
G01 X1.1811 Y8.4595 F90.00
G01 X1.1897 Y8.4590 F90.00
G01 X2.4597 Y8.4589 F90.00
G01 X2.4684 Y8.4594 F90.00
G01 X2.5331 Y8.4679 F90.00
G01 X2.5423 Y8.4698 F90.00
G01 X2.5498 Y8.4724 F90.00
G01 X2.6115 Y8.4980 F90.00
G01 X2.6185 Y8.5016 F90.00
G01 X2.6250 Y8.5060 F90.00
G01 X2.6780 Y8.5467 F90.00
G01 X2.6860 Y8.5543 F90.00
G01 X2.7287 Y8.6097 F90.00
G01 X2.7331 Y8.6162 F90.00
G01 X2.7373 Y8.6246 F90.00
G01 X2.7635 Y8.6879 F90.00
G01 X2.7653 Y8.6939 F90.00
G01 X2.7666 Y8.7000 F90.00
G01 X2.7755 Y8.7680 F90.00
G01 X2.7759 Y8.7749 F90.00
G01 X2.7759 Y8.8110 F90.00
G01 X3.7594 Y8.8110 F90.00
G00 Z2.0000
G00 X2.7562 Y9.7229
G01 F60.00
G01 Z-0.0601
G01 F90.00
G01 X2.6975 Y9.7683 F90.00
G01 X2.6904 Y9.7735 F90.00
G01 X2.6793 Y9.7806 F90.00
G01 X2.6677 Y9.7869 F90.00
G01 X2.6598 Y9.7907 F90.00
G01 X2.5954 Y9.8174 F90.00
G01 X2.5788 Y9.8234 F90.00
G01 X2.5660 Y9.8268 F90.00
G01 X2.5574 Y9.8286 F90.00
G01 X2.4840 Y9.8384 F90.00
G01 X2.4744 Y9.8395 F90.00
G01 X2.4647 Y9.8400 F90.00
G01 X1.1899 Y9.8401 F90.00
G01 X1.1802 Y9.8399 F90.00
G01 X1.1657 Y9.8385 F90.00
G01 X1.0966 Y9.8294 F90.00
G01 X1.0837 Y9.8269 F90.00
G01 X1.0751 Y9.8247 F90.00
G01 X1.0584 Y9.8192 F90.00
G01 X0.9940 Y9.7926 F90.00
G01 X0.9820 Y9.7871 F90.00
G01 X0.9704 Y9.7807 F90.00
G01 X0.9557 Y9.7710 F90.00
G01 X0.9004 Y9.7287 F90.00
G01 X0.8902 Y9.7203 F90.00
G01 X0.8807 Y9.7112 F90.00
G01 X0.8690 Y9.6980 F90.00
G01 X0.8265 Y9.6427 F90.00
G01 X0.8213 Y9.6356 F90.00
G01 X0.8142 Y9.6245 F90.00
G01 X0.8078 Y9.6129 F90.00
G01 X0.8023 Y9.6009 F90.00
G01 X0.7774 Y9.5406 F90.00
G01 X0.7714 Y9.5240 F90.00
G01 X0.7680 Y9.5113 F90.00
G01 X0.7655 Y9.4983 F90.00
G01 X0.7563 Y9.4293 F90.00
G01 X0.7550 Y9.4148 F90.00
G01 X0.7547 Y9.4051 F90.00
G01 X0.7547 Y8.7751 F90.00
G01 X0.7553 Y8.7606 F90.00
G01 X0.7654 Y8.6819 F90.00
G01 X0.7670 Y8.6732 F90.00
G01 X0.7701 Y8.6604 F90.00
G01 X0.7757 Y8.6437 F90.00
G01 X0.8023 Y8.5793 F90.00
G01 X0.8078 Y8.5673 F90.00
G01 X0.8141 Y8.5557 F90.00
G01 X0.8238 Y8.5410 F90.00
G01 X0.8661 Y8.4856 F90.00
G01 X0.8746 Y8.4754 F90.00
G01 X0.8806 Y8.4690 F90.00
G01 X0.8901 Y8.4599 F90.00
G01 X0.9003 Y8.4515 F90.00
G01 X0.9556 Y8.4091 F90.00
G01 X0.9703 Y8.3994 F90.00
G01 X0.9819 Y8.3931 F90.00
G01 X0.9939 Y8.3876 F90.00
G01 X1.0542 Y8.3626 F90.00
G01 X1.0708 Y8.3566 F90.00
G01 X1.0836 Y8.3532 F90.00
G01 X1.0966 Y8.3507 F90.00
G01 X1.1656 Y8.3416 F90.00
G01 X1.1801 Y8.3402 F90.00
G01 X1.1897 Y8.3400 F90.00
G01 X2.4597 Y8.3399 F90.00
G01 X2.4694 Y8.3401 F90.00
G01 X2.4839 Y8.3415 F90.00
G01 X2.5573 Y8.3513 F90.00
G01 X2.5702 Y8.3541 F90.00
G01 X2.5787 Y8.3565 F90.00
G01 X2.5953 Y8.3625 F90.00
G01 X2.6596 Y8.3892 F90.00
G01 X2.6715 Y8.3949 F90.00
G01 X2.6792 Y8.3993 F90.00
G01 X2.6903 Y8.4064 F90.00
G01 X2.6974 Y8.4116 F90.00
G01 X2.7561 Y8.4569 F90.00
G01 X2.7689 Y8.4688 F90.00
G01 X2.7806 Y8.4820 F90.00
G01 X2.8257 Y8.5408 F90.00
G01 X2.8308 Y8.5480 F90.00
G01 X2.8376 Y8.5593 F90.00
G01 X2.8418 Y8.5671 F90.00
G01 X2.8473 Y8.5791 F90.00
G01 X2.8754 Y8.6476 F90.00
G01 X2.8794 Y8.6602 F90.00
G01 X2.8816 Y8.6687 F90.00
G01 X2.8841 Y8.6817 F90.00
G01 X2.8855 Y8.6921 F90.00
G01 X3.6921 Y8.6921 F90.00
G01 X3.7000 Y8.6806 F90.00
G01 X3.7438 Y8.6215 F90.00
G01 X3.7553 Y8.6074 F90.00
G01 X3.8110 Y8.5463 F90.00
G01 X3.8721 Y8.4906 F90.00
G01 X3.8862 Y8.4791 F90.00
G01 X3.9527 Y8.4300 F90.00
G01 X4.0235 Y8.3873 F90.00
G01 X4.0395 Y8.3788 F90.00
G01 X4.1144 Y8.3436 F90.00
G01 X4.1922 Y8.3155 F90.00
G01 X4.2095 Y8.3103 F90.00
G01 X4.2898 Y8.2904 F90.00
G01 X4.3715 Y8.2780 F90.00
G01 X4.3896 Y8.2763 F90.00
G01 X4.4722 Y8.2724 F90.00
G01 X4.5593 Y8.2765 F90.00
G01 X4.5729 Y8.2780 F90.00
G01 X4.6457 Y8.2888 F90.00
G01 X4.6635 Y8.2924 F90.00
G01 X4.7437 Y8.3127 F90.00
G01 X4.8301 Y8.3436 F90.00
G01 X4.9130 Y8.3828 F90.00
G01 X4.9840 Y8.4252 F90.00
G01 X4.9991 Y8.4352 F90.00
G01 X5.0654 Y8.4847 F90.00
G01 X5.1334 Y8.5463 F90.00
G01 X5.1891 Y8.6074 F90.00
G01 X5.2006 Y8.6215 F90.00
G01 X5.2497 Y8.6880 F90.00
G01 X5.2969 Y8.7667 F90.00
G01 X5.3324 Y8.8414 F90.00
G01 X5.3394 Y8.8581 F90.00
G01 X5.3670 Y8.9361 F90.00
G01 X5.3893 Y9.0251 F90.00
G01 X5.4028 Y9.1158 F90.00
G01 X5.4073 Y9.2075 F90.00
G01 X5.4028 Y9.2992 F90.00
G01 X5.3893 Y9.3899 F90.00
G01 X5.3670 Y9.4789 F90.00
G01 X5.3361 Y9.5653 F90.00
G01 X5.2969 Y9.6483 F90.00
G01 X5.2497 Y9.7270 F90.00
G01 X5.1950 Y9.8007 F90.00
G01 X5.1334 Y9.8687 F90.00
G01 X5.0654 Y9.9303 F90.00
G01 X4.9917 Y9.9850 F90.00
G01 X4.9130 Y10.0322 F90.00
G01 X4.8301 Y10.0714 F90.00
G01 X4.7437 Y10.1023 F90.00
G01 X4.6546 Y10.1246 F90.00
G01 X4.5729 Y10.1370 F90.00
G01 X4.5548 Y10.1387 F90.00
G01 X4.4813 Y10.1424 F90.00
G01 X4.4631 Y10.1424 F90.00
G01 X4.3806 Y10.1381 F90.00
G01 X4.2898 Y10.1246 F90.00
G01 X4.2008 Y10.1023 F90.00
G01 X4.1229 Y10.0747 F90.00
G01 X4.1061 Y10.0677 F90.00
G01 X4.0395 Y10.0362 F90.00
G01 X4.0235 Y10.0277 F90.00
G01 X3.9527 Y9.9850 F90.00
G01 X3.8790 Y9.9303 F90.00
G01 X3.8110 Y9.8687 F90.00
G01 X3.7553 Y9.8076 F90.00
G01 X3.7438 Y9.7935 F90.00
G01 X3.7000 Y9.7344 F90.00
G01 X3.6921 Y9.7229 F90.00
G01 X2.7562 Y9.7229 F90.00
G00 Z2.0000
G00 X2.7970 Y9.8419
G01 F60.00
G01 Z-0.0601
G01 F90.00
G01 X2.7583 Y9.8712 F90.00
G01 X2.7462 Y9.8792 F90.00
G01 X2.7274 Y9.8900 F90.00
G01 X2.7145 Y9.8965 F90.00
G01 X2.7013 Y9.9023 F90.00
G01 X2.6410 Y9.9273 F90.00
G01 X2.6275 Y9.9326 F90.00
G01 X2.6137 Y9.9371 F90.00
G01 X2.5998 Y9.9410 F90.00
G01 X2.5856 Y9.9443 F90.00
G01 X2.5714 Y9.9469 F90.00
G01 X2.4916 Y9.9573 F90.00
G01 X2.4678 Y9.9589 F90.00
G01 X1.1899 Y9.9591 F90.00
G01 X1.1740 Y9.9587 F90.00
G01 X1.1502 Y9.9565 F90.00
G01 X1.0783 Y9.9470 F90.00
G01 X1.0570 Y9.9429 F90.00
G01 X1.0360 Y9.9373 F90.00
G01 X1.0155 Y9.9302 F90.00
G01 X0.9419 Y9.8996 F90.00
G01 X0.9223 Y9.8902 F90.00
G01 X0.9097 Y9.8831 F90.00
G01 X0.8974 Y9.8754 F90.00
G01 X0.8797 Y9.8628 F90.00
G01 X0.8223 Y9.8186 F90.00
G01 X0.8112 Y9.8092 F90.00
G01 X0.7955 Y9.7943 F90.00
G01 X0.7857 Y9.7837 F90.00
G01 X0.7763 Y9.7727 F90.00
G01 X0.7321 Y9.7152 F90.00
G01 X0.7195 Y9.6975 F90.00
G01 X0.7118 Y9.6852 F90.00
G01 X0.7047 Y9.6726 F90.00
G01 X0.6953 Y9.6531 F90.00
G01 X0.6647 Y9.5794 F90.00
G01 X0.6577 Y9.5589 F90.00
G01 X0.6520 Y9.5380 F90.00
G01 X0.6491 Y9.5238 F90.00
G01 X0.6469 Y9.5095 F90.00
G01 X0.6384 Y9.4448 F90.00
G01 X0.6362 Y9.4210 F90.00
G01 X0.6358 Y9.4051 F90.00
G01 X0.6357 Y8.7751 F90.00
G01 X0.6367 Y8.7512 F90.00
G01 X0.6383 Y8.7354 F90.00
G01 X0.6479 Y8.6636 F90.00
G01 X0.6520 Y8.6422 F90.00
G01 X0.6576 Y8.6213 F90.00
G01 X0.6647 Y8.6008 F90.00
G01 X0.6952 Y8.5271 F90.00
G01 X0.7047 Y8.5076 F90.00
G01 X0.7117 Y8.4950 F90.00
G01 X0.7194 Y8.4827 F90.00
G01 X0.7320 Y8.4650 F90.00
G01 X0.7717 Y8.4132 F90.00
G01 X0.7808 Y8.4020 F90.00
G01 X0.7954 Y8.3859 F90.00
G01 X0.8058 Y8.3758 F90.00
G01 X0.8222 Y8.3615 F90.00
G01 X0.8796 Y8.3173 F90.00
G01 X0.8913 Y8.3088 F90.00
G01 X0.9034 Y8.3008 F90.00
G01 X0.9158 Y8.2935 F90.00
G01 X0.9351 Y8.2835 F90.00
G01 X0.9483 Y8.2777 F90.00
G01 X1.0086 Y8.2527 F90.00
G01 X1.0290 Y8.2451 F90.00
G01 X1.0428 Y8.2408 F90.00
G01 X1.0640 Y8.2357 F90.00
G01 X1.0782 Y8.2331 F90.00
G01 X1.1580 Y8.2227 F90.00
G01 X1.1738 Y8.2214 F90.00
G01 X1.1897 Y8.2210 F90.00
G01 X2.4677 Y8.2210 F90.00
G01 X2.4915 Y8.2226 F90.00
G01 X2.5713 Y8.2330 F90.00
G01 X2.5926 Y8.2371 F90.00
G01 X2.6136 Y8.2427 F90.00
G01 X2.6341 Y8.2498 F90.00
G01 X2.7077 Y8.2804 F90.00
G01 X2.7208 Y8.2865 F90.00
G01 X2.7336 Y8.2933 F90.00
G01 X2.7461 Y8.3007 F90.00
G01 X2.7582 Y8.3087 F90.00
G01 X2.7699 Y8.3172 F90.00
G01 X2.8216 Y8.3569 F90.00
G01 X2.8329 Y8.3660 F90.00
G01 X2.8437 Y8.3756 F90.00
G01 X2.8541 Y8.3857 F90.00
G01 X2.8639 Y8.3963 F90.00
G01 X2.8733 Y8.4073 F90.00
G01 X2.9218 Y8.4706 F90.00
G01 X2.9301 Y8.4825 F90.00
G01 X2.9378 Y8.4948 F90.00
G01 X2.9449 Y8.5074 F90.00
G01 X2.9513 Y8.5203 F90.00
G01 X2.9572 Y8.5336 F90.00
G01 X2.9736 Y8.5731 F90.00
G01 X3.6316 Y8.5731 F90.00
G01 X3.6528 Y8.5446 F90.00
G01 X3.6622 Y8.5331 F90.00
G01 X3.7217 Y8.4675 F90.00
G01 X3.7377 Y8.4519 F90.00
G01 X3.7922 Y8.4025 F90.00
G01 X3.8094 Y8.3880 F90.00
G01 X3.8744 Y8.3397 F90.00
G01 X3.8866 Y8.3311 F90.00
G01 X3.8992 Y8.3231 F90.00
G01 X3.9624 Y8.2853 F90.00
G01 X3.9820 Y8.2745 F90.00
G01 X4.0620 Y8.2366 F90.00
G01 X4.0828 Y8.2283 F90.00
G01 X4.1521 Y8.2035 F90.00
G01 X4.1662 Y8.1988 F90.00
G01 X4.1806 Y8.1949 F90.00
G01 X4.2520 Y8.1770 F90.00
G01 X4.2666 Y8.1737 F90.00
G01 X4.2813 Y8.1711 F90.00
G01 X4.3541 Y8.1603 F90.00
G01 X4.3689 Y8.1585 F90.00
G01 X4.3838 Y8.1574 F90.00
G01 X4.4573 Y8.1538 F90.00
G01 X4.4797 Y8.1535 F90.00
G01 X4.5681 Y8.1579 F90.00
G01 X4.5903 Y8.1603 F90.00
G01 X4.6631 Y8.1711 F90.00
G01 X4.6779 Y8.1737 F90.00
G01 X4.6924 Y8.1770 F90.00
G01 X4.7638 Y8.1949 F90.00
G01 X4.7782 Y8.1988 F90.00
G01 X4.7924 Y8.2035 F90.00
G01 X4.8617 Y8.2283 F90.00
G01 X4.8756 Y8.2337 F90.00
G01 X4.8892 Y8.2397 F90.00
G01 X4.9558 Y8.2712 F90.00
G01 X4.9691 Y8.2779 F90.00
G01 X4.9821 Y8.2853 F90.00
G01 X5.0452 Y8.3231 F90.00
G01 X5.0578 Y8.3311 F90.00
G01 X5.0700 Y8.3397 F90.00
G01 X5.1291 Y8.3835 F90.00
G01 X5.1409 Y8.3927 F90.00
G01 X5.1522 Y8.4025 F90.00
G01 X5.2067 Y8.4519 F90.00
G01 X5.2175 Y8.4622 F90.00
G01 X5.2278 Y8.4730 F90.00
G01 X5.2773 Y8.5275 F90.00
G01 X5.2870 Y8.5388 F90.00
G01 X5.2962 Y8.5506 F90.00
G01 X5.3400 Y8.6097 F90.00
G01 X5.3486 Y8.6219 F90.00
G01 X5.3566 Y8.6345 F90.00
G01 X5.3945 Y8.6976 F90.00
G01 X5.4018 Y8.7106 F90.00
G01 X5.4085 Y8.7240 F90.00
G01 X5.4400 Y8.7905 F90.00
G01 X5.4488 Y8.8111 F90.00
G01 X5.4762 Y8.8874 F90.00
G01 X5.4809 Y8.9015 F90.00
G01 X5.4849 Y8.9159 F90.00
G01 X5.5027 Y8.9873 F90.00
G01 X5.5060 Y9.0019 F90.00
G01 X5.5086 Y9.0166 F90.00
G01 X5.5194 Y9.0894 F90.00
G01 X5.5212 Y9.1042 F90.00
G01 X5.5223 Y9.1191 F90.00
G01 X5.5259 Y9.1926 F90.00
G01 X5.5263 Y9.2075 F90.00
G01 X5.5259 Y9.2224 F90.00
G01 X5.5223 Y9.2959 F90.00
G01 X5.5212 Y9.3108 F90.00
G01 X5.5194 Y9.3256 F90.00
G01 X5.5086 Y9.3984 F90.00
G01 X5.5060 Y9.4131 F90.00
G01 X5.5027 Y9.4277 F90.00
G01 X5.4849 Y9.4991 F90.00
G01 X5.4809 Y9.5135 F90.00
G01 X5.4762 Y9.5276 F90.00
G01 X5.4514 Y9.5969 F90.00
G01 X5.4460 Y9.6109 F90.00
G01 X5.4400 Y9.6245 F90.00
G01 X5.4085 Y9.6910 F90.00
G01 X5.4018 Y9.7044 F90.00
G01 X5.3945 Y9.7174 F90.00
G01 X5.3566 Y9.7805 F90.00
G01 X5.3486 Y9.7931 F90.00
G01 X5.3400 Y9.8053 F90.00
G01 X5.2962 Y9.8644 F90.00
G01 X5.2870 Y9.8762 F90.00
G01 X5.2773 Y9.8875 F90.00
G01 X5.2278 Y9.9420 F90.00
G01 X5.2175 Y9.9528 F90.00
G01 X5.2067 Y9.9631 F90.00
G01 X5.1522 Y10.0125 F90.00
G01 X5.1409 Y10.0223 F90.00
G01 X5.1291 Y10.0315 F90.00
G01 X5.0700 Y10.0753 F90.00
G01 X5.0578 Y10.0839 F90.00
G01 X5.0452 Y10.0919 F90.00
G01 X4.9821 Y10.1297 F90.00
G01 X4.9691 Y10.1371 F90.00
G01 X4.9558 Y10.1438 F90.00
G01 X4.8892 Y10.1753 F90.00
G01 X4.8687 Y10.1841 F90.00
G01 X4.7924 Y10.2115 F90.00
G01 X4.7782 Y10.2162 F90.00
G01 X4.7638 Y10.2201 F90.00
G01 X4.6924 Y10.2380 F90.00
G01 X4.6779 Y10.2413 F90.00
G01 X4.6631 Y10.2439 F90.00
G01 X4.5903 Y10.2547 F90.00
G01 X4.5755 Y10.2565 F90.00
G01 X4.5606 Y10.2576 F90.00
G01 X4.4871 Y10.2612 F90.00
G01 X4.4722 Y10.2616 F90.00
G01 X4.4573 Y10.2612 F90.00
G01 X4.3838 Y10.2576 F90.00
G01 X4.3689 Y10.2565 F90.00
G01 X4.3541 Y10.2547 F90.00
G01 X4.2739 Y10.2427 F90.00
G01 X4.2520 Y10.2380 F90.00
G01 X4.1806 Y10.2201 F90.00
G01 X4.1662 Y10.2162 F90.00
G01 X4.1521 Y10.2115 F90.00
G01 X4.0828 Y10.1867 F90.00
G01 X4.0688 Y10.1813 F90.00
G01 X4.0552 Y10.1753 F90.00
G01 X3.9887 Y10.1438 F90.00
G01 X3.9753 Y10.1371 F90.00
G01 X3.9624 Y10.1297 F90.00
G01 X3.8929 Y10.0880 F90.00
G01 X3.8744 Y10.0753 F90.00
G01 X3.8153 Y10.0315 F90.00
G01 X3.8035 Y10.0223 F90.00
G01 X3.7922 Y10.0125 F90.00
G01 X3.7322 Y9.9580 F90.00
G01 X3.7166 Y9.9420 F90.00
G01 X3.6622 Y9.8819 F90.00
G01 X3.6528 Y9.8704 F90.00
G01 X3.6316 Y9.8419 F90.00
G01 X2.7970 Y9.8419 F90.00
G00 Z2.0000
G00 X2.8372 Y9.9609
G01 F60.00
G01 Z-0.0601
G01 F90.00
G01 X2.8178 Y9.9746 F90.00
G01 X2.8008 Y9.9852 F90.00
G01 X2.7832 Y9.9951 F90.00
G01 X2.7652 Y10.0041 F90.00
G01 X2.7468 Y10.0122 F90.00
G01 X2.6865 Y10.0372 F90.00
G01 X2.6677 Y10.0445 F90.00
G01 X2.6486 Y10.0509 F90.00
G01 X2.6194 Y10.0587 F90.00
G01 X2.5996 Y10.0628 F90.00
G01 X2.5797 Y10.0659 F90.00
G01 X2.5040 Y10.0757 F90.00
G01 X2.4820 Y10.0774 F90.00
G01 X2.4599 Y10.0780 F90.00
G01 X1.1899 Y10.0781 F90.00
G01 X1.1788 Y10.0779 F90.00
G01 X1.1567 Y10.0768 F90.00
G01 X1.1347 Y10.0745 F90.00
G01 X1.0700 Y10.0660 F90.00
G01 X1.0501 Y10.0629 F90.00
G01 X1.0206 Y10.0565 F90.00
G01 X0.9916 Y10.0479 F90.00
G01 X0.9633 Y10.0374 F90.00
G01 X0.9030 Y10.0124 F90.00
G01 X0.8846 Y10.0043 F90.00
G01 X0.8665 Y9.9953 F90.00
G01 X0.8490 Y9.9854 F90.00
G01 X0.8236 Y9.9691 F90.00
G01 X0.8073 Y9.9572 F90.00
G01 X0.7476 Y9.9112 F90.00
G01 X0.7248 Y9.8915 F90.00
G01 X0.7104 Y9.8774 F90.00
G01 X0.6967 Y9.8627 F90.00
G01 X0.6837 Y9.8473 F90.00
G01 X0.6377 Y9.7876 F90.00
G01 X0.6202 Y9.7630 F90.00
G01 X0.6095 Y9.7459 F90.00
G01 X0.5950 Y9.7194 F90.00
G01 X0.5864 Y9.7012 F90.00
G01 X0.5538 Y9.6223 F90.00
G01 X0.5439 Y9.5938 F90.00
G01 X0.5361 Y9.5647 F90.00
G01 X0.5320 Y9.5450 F90.00
G01 X0.5289 Y9.5251 F90.00
G01 X0.5204 Y9.4604 F90.00
G01 X0.5191 Y9.4494 F90.00
G01 X0.5174 Y9.4272 F90.00
G01 X0.5168 Y9.4051 F90.00
G01 X0.5167 Y8.7751 F90.00
G01 X0.5173 Y8.7530 F90.00
G01 X0.5191 Y8.7309 F90.00
G01 X0.5289 Y8.6552 F90.00
G01 X0.5320 Y8.6353 F90.00
G01 X0.5384 Y8.6058 F90.00
G01 X0.5469 Y8.5768 F90.00
G01 X0.5574 Y8.5485 F90.00
G01 X0.5824 Y8.4882 F90.00
G01 X0.5906 Y8.4698 F90.00
G01 X0.5996 Y8.4518 F90.00
G01 X0.6094 Y8.4343 F90.00
G01 X0.6257 Y8.4089 F90.00
G01 X0.6376 Y8.3926 F90.00
G01 X0.6836 Y8.3329 F90.00
G01 X0.7033 Y8.3101 F90.00
G01 X0.7174 Y8.2956 F90.00
G01 X0.7321 Y8.2819 F90.00
G01 X0.7475 Y8.2689 F90.00
G01 X0.8072 Y8.2230 F90.00
G01 X0.8318 Y8.2054 F90.00
G01 X0.8576 Y8.1897 F90.00
G01 X0.8844 Y8.1759 F90.00
G01 X0.9028 Y8.1678 F90.00
G01 X0.9724 Y8.1390 F90.00
G01 X0.9914 Y8.1322 F90.00
G01 X1.0107 Y8.1263 F90.00
G01 X1.0302 Y8.1213 F90.00
G01 X1.0599 Y8.1156 F90.00
G01 X1.1456 Y8.1043 F90.00
G01 X1.1676 Y8.1026 F90.00
G01 X1.1897 Y8.1020 F90.00
G01 X2.4708 Y8.1021 F90.00
G01 X2.4929 Y8.1032 F90.00
G01 X2.5039 Y8.1042 F90.00
G01 X2.5796 Y8.1140 F90.00
G01 X2.6094 Y8.1190 F90.00
G01 X2.6388 Y8.1262 F90.00
G01 X2.6580 Y8.1321 F90.00
G01 X2.6770 Y8.1389 F90.00
G01 X2.7466 Y8.1676 F90.00
G01 X2.7741 Y8.1801 F90.00
G01 X2.8006 Y8.1946 F90.00
G01 X2.8177 Y8.2053 F90.00
G01 X2.8343 Y8.2168 F90.00
G01 X2.8941 Y8.2626 F90.00
G01 X2.9174 Y8.2818 F90.00
G01 X2.9392 Y8.3026 F90.00
G01 X2.9529 Y8.3173 F90.00
G01 X2.9659 Y8.3327 F90.00
G01 X3.0179 Y8.4004 F90.00
G01 X3.0348 Y8.4255 F90.00
G01 X3.0451 Y8.4428 F90.00
G01 X3.0512 Y8.4541 F90.00
G01 X3.5733 Y8.4541 F90.00
G01 X3.6355 Y8.3855 F90.00
G01 X3.6502 Y8.3708 F90.00
G01 X3.6578 Y8.3637 F90.00
G01 X3.7123 Y8.3143 F90.00
G01 X3.7280 Y8.3007 F90.00
G01 X3.7444 Y8.2880 F90.00
G01 X3.8035 Y8.2441 F90.00
G01 X3.8205 Y8.2322 F90.00
G01 X3.8381 Y8.2210 F90.00
G01 X3.9012 Y8.1832 F90.00
G01 X3.9193 Y8.1730 F90.00
G01 X3.9378 Y8.1636 F90.00
G01 X4.0043 Y8.1322 F90.00
G01 X4.0233 Y8.1238 F90.00
G01 X4.0427 Y8.1163 F90.00
G01 X4.1120 Y8.0915 F90.00
G01 X4.1317 Y8.0850 F90.00
G01 X4.1517 Y8.0794 F90.00
G01 X4.2231 Y8.0616 F90.00
G01 X4.2434 Y8.0570 F90.00
G01 X4.2638 Y8.0535 F90.00
G01 X4.3366 Y8.0427 F90.00
G01 X4.3572 Y8.0401 F90.00
G01 X4.3779 Y8.0386 F90.00
G01 X4.4515 Y8.0350 F90.00
G01 X4.4722 Y8.0345 F90.00
G01 X4.4826 Y8.0346 F90.00
G01 X4.5768 Y8.0392 F90.00
G01 X4.5975 Y8.0413 F90.00
G01 X4.6078 Y8.0427 F90.00
G01 X4.6806 Y8.0535 F90.00
G01 X4.6909 Y8.0551 F90.00
G01 X4.7112 Y8.0592 F90.00
G01 X4.7927 Y8.0794 F90.00
G01 X4.8127 Y8.0850 F90.00
G01 X4.8324 Y8.0915 F90.00
G01 X4.9017 Y8.1163 F90.00
G01 X4.9211 Y8.1238 F90.00
G01 X4.9401 Y8.1322 F90.00
G01 X5.0066 Y8.1636 F90.00
G01 X5.0252 Y8.1730 F90.00
G01 X5.0432 Y8.1832 F90.00
G01 X5.1064 Y8.2210 F90.00
G01 X5.1239 Y8.2322 F90.00
G01 X5.1409 Y8.2441 F90.00
G01 X5.2000 Y8.2880 F90.00
G01 X5.2164 Y8.3007 F90.00
G01 X5.2321 Y8.3143 F90.00
G01 X5.2866 Y8.3637 F90.00
G01 X5.3017 Y8.3780 F90.00
G01 X5.3160 Y8.3931 F90.00
G01 X5.3654 Y8.4476 F90.00
G01 X5.3790 Y8.4633 F90.00
G01 X5.3918 Y8.4797 F90.00
G01 X5.4356 Y8.5388 F90.00
G01 X5.4476 Y8.5558 F90.00
G01 X5.4587 Y8.5733 F90.00
G01 X5.4965 Y8.6365 F90.00
G01 X5.5067 Y8.6545 F90.00
G01 X5.5161 Y8.6731 F90.00
G01 X5.5519 Y8.7491 F90.00
G01 X5.5560 Y8.7586 F90.00
G01 X5.5634 Y8.7780 F90.00
G01 X5.5882 Y8.8473 F90.00
G01 X5.5947 Y8.8670 F90.00
G01 X5.6003 Y8.8870 F90.00
G01 X5.6182 Y8.9584 F90.00
G01 X5.6227 Y8.9787 F90.00
G01 X5.6263 Y8.9991 F90.00
G01 X5.6371 Y9.0719 F90.00
G01 X5.6396 Y9.0925 F90.00
G01 X5.6411 Y9.1132 F90.00
G01 X5.6447 Y9.1867 F90.00
G01 X5.6453 Y9.2075 F90.00
G01 X5.6447 Y9.2283 F90.00
G01 X5.6411 Y9.3018 F90.00
G01 X5.6396 Y9.3225 F90.00
G01 X5.6371 Y9.3431 F90.00
G01 X5.6263 Y9.4159 F90.00
G01 X5.6227 Y9.4363 F90.00
G01 X5.6182 Y9.4566 F90.00
G01 X5.6003 Y9.5280 F90.00
G01 X5.5947 Y9.5480 F90.00
G01 X5.5882 Y9.5677 F90.00
G01 X5.5634 Y9.6370 F90.00
G01 X5.5560 Y9.6564 F90.00
G01 X5.5475 Y9.6754 F90.00
G01 X5.5161 Y9.7419 F90.00
G01 X5.5067 Y9.7605 F90.00
G01 X5.4965 Y9.7785 F90.00
G01 X5.4587 Y9.8417 F90.00
G01 X5.4476 Y9.8592 F90.00
G01 X5.4356 Y9.8762 F90.00
G01 X5.3918 Y9.9353 F90.00
G01 X5.3790 Y9.9517 F90.00
G01 X5.3654 Y9.9674 F90.00
G01 X5.3160 Y10.0219 F90.00
G01 X5.3017 Y10.0370 F90.00
G01 X5.2866 Y10.0513 F90.00
G01 X5.2321 Y10.1007 F90.00
G01 X5.2164 Y10.1143 F90.00
G01 X5.2000 Y10.1270 F90.00
G01 X5.1409 Y10.1709 F90.00
G01 X5.1239 Y10.1828 F90.00
G01 X5.1064 Y10.1940 F90.00
G01 X5.0432 Y10.2318 F90.00
G01 X5.0252 Y10.2420 F90.00
G01 X5.0066 Y10.2514 F90.00
G01 X4.9307 Y10.2872 F90.00
G01 X4.9115 Y10.2951 F90.00
G01 X4.9017 Y10.2987 F90.00
G01 X4.8324 Y10.3235 F90.00
G01 X4.8127 Y10.3300 F90.00
G01 X4.7927 Y10.3356 F90.00
G01 X4.7213 Y10.3534 F90.00
G01 X4.7011 Y10.3580 F90.00
G01 X4.6806 Y10.3615 F90.00
G01 X4.5975 Y10.3737 F90.00
G01 X4.5872 Y10.3749 F90.00
G01 X4.5665 Y10.3764 F90.00
G01 X4.4930 Y10.3800 F90.00
G01 X4.4826 Y10.3804 F90.00
G01 X4.4618 Y10.3804 F90.00
G01 X4.3779 Y10.3764 F90.00
G01 X4.3572 Y10.3749 F90.00
G01 X4.3366 Y10.3723 F90.00
G01 X4.2638 Y10.3615 F90.00
G01 X4.2434 Y10.3580 F90.00
G01 X4.2332 Y10.3558 F90.00
G01 X4.1517 Y10.3356 F90.00
G01 X4.1317 Y10.3300 F90.00
G01 X4.1120 Y10.3235 F90.00
G01 X4.0427 Y10.2987 F90.00
G01 X4.0233 Y10.2912 F90.00
G01 X4.0043 Y10.2828 F90.00
G01 X3.9378 Y10.2514 F90.00
G01 X3.9285 Y10.2468 F90.00
G01 X3.9102 Y10.2370 F90.00
G01 X3.8381 Y10.1940 F90.00
G01 X3.8205 Y10.1828 F90.00
G01 X3.8035 Y10.1709 F90.00
G01 X3.7444 Y10.1270 F90.00
G01 X3.7280 Y10.1143 F90.00
G01 X3.7123 Y10.1007 F90.00
G01 X3.6578 Y10.0513 F90.00
G01 X3.6428 Y10.0370 F90.00
G01 X3.6284 Y10.0219 F90.00
G01 X3.5733 Y9.9609 F90.00
G01 X2.8372 Y9.9609 F90.00
G00 Z2.0000
G00 X10.6850 Y8.8110
G01 F60.00
G01 Z-0.0601
G01 F90.00
G01 X16.1122 Y8.8110 F90.00
G01 X16.1511 Y8.8129 F90.00
G01 X16.1896 Y8.8187 F90.00
G01 X16.2273 Y8.8281 F90.00
G01 X16.2639 Y8.8412 F90.00
G01 X16.2991 Y8.8579 F90.00
G01 X16.3325 Y8.8779 F90.00
G01 X16.3637 Y8.9010 F90.00
G01 X16.3926 Y8.9272 F90.00
G01 X20.0864 Y12.6210 F90.00
G01 X40.0780 Y12.6210 F90.00
G01 X40.7983 Y11.9008 F90.00
G01 X40.7983 Y9.4367 F90.00
G01 X40.3305 Y8.9690 F90.00
G01 X40.1175 Y8.9690 F90.00
G01 X40.0833 Y9.0259 F90.00
G01 X40.0376 Y9.0877 F90.00
G01 X40.0335 Y9.0927 F90.00
G01 X39.9818 Y9.1496 F90.00
G01 X39.9249 Y9.2012 F90.00
G01 X39.9199 Y9.2053 F90.00
G01 X39.8581 Y9.2511 F90.00
G01 X39.7922 Y9.2906 F90.00
G01 X39.7865 Y9.2937 F90.00
G01 X39.7170 Y9.3265 F90.00
G01 X39.6447 Y9.3524 F90.00
G01 X39.6385 Y9.3543 F90.00
G01 X39.5639 Y9.3729 F90.00
G01 X39.4879 Y9.3843 F90.00
G01 X39.4815 Y9.3849 F90.00
G01 X39.4063 Y9.3886 F90.00
G01 X37.9047 Y9.3886 F90.00
G01 X37.8247 Y9.3847 F90.00
G01 X37.7455 Y9.3729 F90.00
G01 X37.6678 Y9.3535 F90.00
G01 X37.5924 Y9.3265 F90.00
G01 X37.5200 Y9.2922 F90.00
G01 X37.4541 Y9.2528 F90.00
G01 X37.4487 Y9.2492 F90.00
G01 X37.3870 Y9.2034 F90.00
G01 X37.3300 Y9.1518 F90.00
G01 X37.3254 Y9.1472 F90.00
G01 X37.2760 Y9.0927 F90.00
G01 X37.2719 Y9.0877 F90.00
G01 X37.2262 Y9.0259 F90.00
G01 X37.1919 Y8.9690 F90.00
G01 X36.1134 Y8.9690 F90.00
G01 X36.1133 Y9.0909 F90.00
G01 X36.1041 Y9.1623 F90.00
G01 X36.1025 Y9.1700 F90.00
G01 X36.0999 Y9.1774 F90.00
G01 X36.0743 Y9.2392 F90.00
G01 X36.0715 Y9.2448 F90.00
G01 X36.0672 Y9.2514 F90.00
G01 X36.0266 Y9.3044 F90.00
G01 X36.0203 Y9.3115 F90.00
G01 X36.0144 Y9.3167 F90.00
G01 X35.9626 Y9.3564 F90.00
G01 X35.9547 Y9.3616 F90.00
G01 X35.9477 Y9.3650 F90.00
G01 X35.8874 Y9.3900 F90.00
G01 X35.8799 Y9.3926 F90.00
G01 X35.8707 Y9.3945 F90.00
G01 X35.8008 Y9.4035 F90.00
G01 X34.5274 Y9.4036 F90.00
G01 X34.5188 Y9.4031 F90.00
G01 X34.4494 Y9.3938 F90.00
G01 X34.4433 Y9.3922 F90.00
G01 X34.4374 Y9.3901 F90.00
G01 X34.3771 Y9.3651 F90.00
G01 X34.3686 Y9.3609 F90.00
G01 X34.3621 Y9.3565 F90.00
G01 X34.3091 Y9.3158 F90.00
G01 X34.3044 Y9.3116 F90.00
G01 X34.2991 Y9.3058 F90.00
G01 X34.2575 Y9.2515 F90.00
G01 X34.2532 Y9.2449 F90.00
G01 X34.2498 Y9.2379 F90.00
G01 X34.2248 Y9.1776 F90.00
G01 X34.2218 Y9.1686 F90.00
G01 X34.2203 Y9.1609 F90.00
G01 X34.2118 Y9.0962 F90.00
G01 X34.2112 Y9.0876 F90.00
G01 X34.2112 Y8.4558 F90.00
G01 X34.2118 Y8.4489 F90.00
G01 X34.2203 Y8.3843 F90.00
G01 X34.2218 Y8.3765 F90.00
G01 X34.2248 Y8.3676 F90.00
G01 X34.2497 Y8.3073 F90.00
G01 X34.2532 Y8.3002 F90.00
G01 X34.2583 Y8.2923 F90.00
G01 X34.2981 Y8.2406 F90.00
G01 X34.3032 Y8.2346 F90.00
G01 X34.3103 Y8.2283 F90.00
G01 X34.3620 Y8.1886 F90.00
G01 X34.3699 Y8.1834 F90.00
G01 X34.3770 Y8.1800 F90.00
G01 X34.4373 Y8.1550 F90.00
G01 X34.4462 Y8.1520 F90.00
G01 X34.4540 Y8.1505 F90.00
G01 X34.5187 Y8.1420 F90.00
G01 X34.5273 Y8.1415 F90.00
G01 X35.7973 Y8.1414 F90.00
G01 X35.8059 Y8.1419 F90.00
G01 X35.8706 Y8.1504 F90.00
G01 X35.8783 Y8.1519 F90.00
G01 X35.8873 Y8.1549 F90.00
G01 X35.9383 Y8.1760 F90.00
G01 X37.1919 Y8.1760 F90.00
G01 X37.2262 Y8.1191 F90.00
G01 X37.2719 Y8.0573 F90.00
G01 X37.2760 Y8.0523 F90.00
G01 X37.3254 Y7.9978 F90.00
G01 X37.3300 Y7.9932 F90.00
G01 X37.3870 Y7.9416 F90.00
G01 X37.4487 Y7.8958 F90.00
G01 X37.4541 Y7.8922 F90.00
G01 X37.5200 Y7.8528 F90.00
G01 X37.5924 Y7.8185 F90.00
G01 X37.6678 Y7.7915 F90.00
G01 X37.7471 Y7.7718 F90.00
G01 X37.8247 Y7.7603 F90.00
G01 X37.9047 Y7.7564 F90.00
G01 X39.4047 Y7.7564 F90.00
G01 X39.4847 Y7.7603 F90.00
G01 X39.5607 Y7.7715 F90.00
G01 X39.5671 Y7.7728 F90.00
G01 X39.6416 Y7.7915 F90.00
G01 X39.7140 Y7.8174 F90.00
G01 X39.7200 Y7.8198 F90.00
G01 X39.7894 Y7.8528 F90.00
G01 X39.8581 Y7.8939 F90.00
G01 X39.9224 Y7.9416 F90.00
G01 X39.9794 Y7.9932 F90.00
G01 X39.9840 Y7.9978 F90.00
G01 X40.0335 Y8.0523 F90.00
G01 X40.0376 Y8.0573 F90.00
G01 X40.0833 Y8.1191 F90.00
G01 X40.1175 Y8.1760 F90.00
G01 X40.4947 Y8.1760 F90.00
G01 X40.5336 Y8.1779 F90.00
G01 X40.5720 Y8.1837 F90.00
G01 X40.6067 Y8.1922 F90.00
G01 X40.6129 Y8.1941 F90.00
G01 X40.6464 Y8.2062 F90.00
G01 X40.6787 Y8.2214 F90.00
G01 X40.6844 Y8.2245 F90.00
G01 X40.7136 Y8.2420 F90.00
G01 X40.7462 Y8.2660 F90.00
G01 X40.7750 Y8.2922 F90.00
G01 X41.4751 Y8.9922 F90.00
G01 X41.5012 Y9.0210 F90.00
G01 X41.5225 Y9.0496 F90.00
G01 X41.5261 Y9.0550 F90.00
G01 X41.5428 Y9.0828 F90.00
G01 X41.5458 Y9.0885 F90.00
G01 X41.5610 Y9.1208 F90.00
G01 X41.5731 Y9.1544 F90.00
G01 X41.5750 Y9.1606 F90.00
G01 X41.5829 Y9.1920 F90.00
G01 X41.5841 Y9.1984 F90.00
G01 X41.5893 Y9.2337 F90.00
G01 X41.5912 Y9.2709 F90.00
G01 X41.5912 Y12.0650 F90.00
G01 X41.5893 Y12.1039 F90.00
G01 X41.5836 Y12.1423 F90.00
G01 X41.5750 Y12.1770 F90.00
G01 X41.5731 Y12.1832 F90.00
G01 X41.5610 Y12.2167 F90.00
G01 X41.5444 Y12.2519 F90.00
G01 X41.5261 Y12.2825 F90.00
G01 X41.5225 Y12.2879 F90.00
G01 X41.5032 Y12.3140 F90.00
G01 X41.4991 Y12.3190 F90.00
G01 X41.4751 Y12.3453 F90.00
G01 X40.5226 Y13.2978 F90.00
G01 X40.4937 Y13.3240 F90.00
G01 X40.4625 Y13.3471 F90.00
G01 X40.4291 Y13.3671 F90.00
G01 X40.3969 Y13.3825 F90.00
G01 X40.3909 Y13.3850 F90.00
G01 X40.3573 Y13.3969 F90.00
G01 X40.3227 Y13.4056 F90.00
G01 X40.3164 Y13.4069 F90.00
G01 X40.2843 Y13.4117 F90.00
G01 X40.2778 Y13.4123 F90.00
G01 X40.2422 Y13.4140 F90.00
G01 X19.9222 Y13.4140 F90.00
G01 X19.8834 Y13.4121 F90.00
G01 X19.8449 Y13.4063 F90.00
G01 X19.8103 Y13.3978 F90.00
G01 X19.8041 Y13.3959 F90.00
G01 X19.7735 Y13.3850 F90.00
G01 X19.7675 Y13.3825 F90.00
G01 X19.7353 Y13.3671 F90.00
G01 X19.7020 Y13.3471 F90.00
G01 X19.6707 Y13.3240 F90.00
G01 X19.6430 Y13.2990 F90.00
G01 X15.9480 Y9.6040 F90.00
G01 X10.6850 Y9.6040 F90.00
G01 X10.6508 Y9.6609 F90.00
G01 X10.6051 Y9.7227 F90.00
G01 X10.6010 Y9.7277 F90.00
G01 X10.5493 Y9.7846 F90.00
G01 X10.4924 Y9.8362 F90.00
G01 X10.4874 Y9.8403 F90.00
G01 X10.4256 Y9.8861 F90.00
G01 X10.3598 Y9.9256 F90.00
G01 X10.3540 Y9.9287 F90.00
G01 X10.2845 Y9.9615 F90.00
G01 X10.2122 Y9.9874 F90.00
G01 X10.2060 Y9.9893 F90.00
G01 X10.1314 Y10.0079 F90.00
G01 X10.0554 Y10.0193 F90.00
G01 X10.0490 Y10.0199 F90.00
G01 X9.9722 Y10.0236 F90.00
G01 X9.8955 Y10.0199 F90.00
G01 X9.8890 Y10.0193 F90.00
G01 X9.8130 Y10.0079 F90.00
G01 X9.7385 Y9.9893 F90.00
G01 X9.7322 Y9.9874 F90.00
G01 X9.6599 Y9.9615 F90.00
G01 X9.5904 Y9.9287 F90.00
G01 X9.5847 Y9.9256 F90.00
G01 X9.5188 Y9.8861 F90.00
G01 X9.4571 Y9.8403 F90.00
G01 X9.4520 Y9.8362 F90.00
G01 X9.3952 Y9.7846 F90.00
G01 X9.3414 Y9.7252 F90.00
G01 X9.2955 Y9.6636 F90.00
G01 X9.2919 Y9.6582 F90.00
G01 X9.2525 Y9.5922 F90.00
G01 X9.2183 Y9.5198 F90.00
G01 X9.1913 Y9.4444 F90.00
G01 X9.1718 Y9.3667 F90.00
G01 X9.1601 Y9.2875 F90.00
G01 X9.1561 Y9.2075 F90.00
G01 X9.1601 Y9.1275 F90.00
G01 X9.1718 Y9.0483 F90.00
G01 X9.1913 Y8.9706 F90.00
G01 X9.2183 Y8.8952 F90.00
G01 X9.2525 Y8.8228 F90.00
G01 X9.2937 Y8.7541 F90.00
G01 X9.3414 Y8.6898 F90.00
G01 X9.3952 Y8.6304 F90.00
G01 X9.4545 Y8.5766 F90.00
G01 X9.5188 Y8.5289 F90.00
G01 X9.5875 Y8.4878 F90.00
G01 X9.6599 Y8.4535 F90.00
G01 X9.7353 Y8.4265 F90.00
G01 X9.8130 Y8.4071 F90.00
G01 X9.8922 Y8.3953 F90.00
G01 X9.9722 Y8.3914 F90.00
G01 X10.0522 Y8.3953 F90.00
G01 X10.1314 Y8.4071 F90.00
G01 X10.2091 Y8.4265 F90.00
G01 X10.2845 Y8.4535 F90.00
G01 X10.3569 Y8.4878 F90.00
G01 X10.4256 Y8.5289 F90.00
G01 X10.4900 Y8.5766 F90.00
G01 X10.5493 Y8.6304 F90.00
G01 X10.6031 Y8.6898 F90.00
G01 X10.6508 Y8.7541 F90.00
G01 X10.6850 Y8.8110 F90.00
G00 Z2.0000
G00 X10.7523 Y8.6921
G01 F60.00
G01 Z-0.0601
G01 F90.00
G01 X16.1122 Y8.6921 F90.00
G01 X16.1627 Y8.6945 F90.00
G01 X16.2128 Y8.7020 F90.00
G01 X16.2618 Y8.7143 F90.00
G01 X16.3095 Y8.7313 F90.00
G01 X16.3552 Y8.7529 F90.00
G01 X16.3986 Y8.7789 F90.00
G01 X16.4392 Y8.8091 F90.00
G01 X16.4767 Y8.8430 F90.00
G01 X20.1357 Y12.5021 F90.00
G01 X40.0287 Y12.5021 F90.00
G01 X40.6793 Y11.8515 F90.00
G01 X40.6793 Y9.4860 F90.00
G01 X40.2812 Y9.0879 F90.00
G01 X40.1848 Y9.0879 F90.00
G01 X40.1770 Y9.0994 F90.00
G01 X40.1275 Y9.1657 F90.00
G01 X40.0722 Y9.2271 F90.00
G01 X40.0593 Y9.2400 F90.00
G01 X39.9979 Y9.2953 F90.00
G01 X39.9316 Y9.3448 F90.00
G01 X39.9165 Y9.3548 F90.00
G01 X39.8495 Y9.3950 F90.00
G01 X39.8374 Y9.4012 F90.00
G01 X39.7709 Y9.4327 F90.00
G01 X39.7541 Y9.4397 F90.00
G01 X39.6762 Y9.4673 F90.00
G01 X39.5960 Y9.4876 F90.00
G01 X39.5827 Y9.4904 F90.00
G01 X39.4964 Y9.5031 F90.00
G01 X39.4047 Y9.5076 F90.00
G01 X37.9047 Y9.5076 F90.00
G01 X37.8131 Y9.5031 F90.00
G01 X37.7313 Y9.4912 F90.00
G01 X37.7134 Y9.4876 F90.00
G01 X37.6333 Y9.4673 F90.00
G01 X37.5554 Y9.4397 F90.00
G01 X37.5386 Y9.4327 F90.00
G01 X37.4639 Y9.3972 F90.00
G01 X37.3929 Y9.3548 F90.00
G01 X37.3778 Y9.3448 F90.00
G01 X37.3115 Y9.2953 F90.00
G01 X37.2501 Y9.2400 F90.00
G01 X37.2373 Y9.2271 F90.00
G01 X37.1819 Y9.1657 F90.00
G01 X37.1325 Y9.0994 F90.00
G01 X37.1246 Y9.0879 F90.00
G01 X36.2324 Y9.0879 F90.00
G01 X36.2318 Y9.1019 F90.00
G01 X36.2308 Y9.1116 F90.00
G01 X36.2217 Y9.1806 F90.00
G01 X36.2182 Y9.1979 F90.00
G01 X36.2144 Y9.2106 F90.00
G01 X36.2115 Y9.2188 F90.00
G01 X36.1849 Y9.2832 F90.00
G01 X36.1794 Y9.2952 F90.00
G01 X36.1752 Y9.3030 F90.00
G01 X36.1708 Y9.3106 F90.00
G01 X36.1634 Y9.3215 F90.00
G01 X36.1183 Y9.3803 F90.00
G01 X36.1096 Y9.3903 F90.00
G01 X36.1035 Y9.3966 F90.00
G01 X36.0970 Y9.4026 F90.00
G01 X36.0868 Y9.4110 F90.00
G01 X36.0315 Y9.4534 F90.00
G01 X36.0168 Y9.4631 F90.00
G01 X36.0052 Y9.4694 F90.00
G01 X35.9973 Y9.4732 F90.00
G01 X35.9329 Y9.4999 F90.00
G01 X35.9247 Y9.5031 F90.00
G01 X35.9121 Y9.5071 F90.00
G01 X35.9036 Y9.5093 F90.00
G01 X35.8906 Y9.5118 F90.00
G01 X35.8167 Y9.5215 F90.00
G01 X35.8071 Y9.5223 F90.00
G01 X35.7974 Y9.5225 F90.00
G01 X34.5274 Y9.5226 F90.00
G01 X34.5129 Y9.5221 F90.00
G01 X34.5032 Y9.5210 F90.00
G01 X34.4342 Y9.5119 F90.00
G01 X34.4169 Y9.5084 F90.00
G01 X34.4084 Y9.5060 F90.00
G01 X34.3959 Y9.5017 F90.00
G01 X34.3316 Y9.4751 F90.00
G01 X34.3195 Y9.4696 F90.00
G01 X34.3079 Y9.4632 F90.00
G01 X34.2932 Y9.4535 F90.00
G01 X34.2345 Y9.4084 F90.00
G01 X34.2277 Y9.4028 F90.00
G01 X34.2182 Y9.3937 F90.00
G01 X34.2065 Y9.3805 F90.00
G01 X34.1614 Y9.3217 F90.00
G01 X34.1517 Y9.3070 F90.00
G01 X34.1453 Y9.2954 F90.00
G01 X34.1416 Y9.2874 F90.00
G01 X34.1149 Y9.2231 F90.00
G01 X34.1117 Y9.2149 F90.00
G01 X34.1077 Y9.2023 F90.00
G01 X34.1037 Y9.1852 F90.00
G01 X34.0933 Y9.1069 F90.00
G01 X34.0925 Y9.0973 F90.00
G01 X34.0923 Y9.0876 F90.00
G01 X34.0923 Y8.4527 F90.00
G01 X34.0928 Y8.4431 F90.00
G01 X34.0938 Y8.4334 F90.00
G01 X34.1030 Y8.3644 F90.00
G01 X34.1054 Y8.3514 F90.00
G01 X34.1089 Y8.3386 F90.00
G01 X34.1148 Y8.3221 F90.00
G01 X34.1398 Y8.2618 F90.00
G01 X34.1453 Y8.2498 F90.00
G01 X34.1516 Y8.2382 F90.00
G01 X34.1613 Y8.2235 F90.00
G01 X34.2037 Y8.1681 F90.00
G01 X34.2121 Y8.1579 F90.00
G01 X34.2212 Y8.1484 F90.00
G01 X34.2344 Y8.1367 F90.00
G01 X34.2896 Y8.0942 F90.00
G01 X34.3004 Y8.0866 F90.00
G01 X34.3116 Y8.0797 F90.00
G01 X34.3274 Y8.0718 F90.00
G01 X34.3917 Y8.0451 F90.00
G01 X34.3999 Y8.0419 F90.00
G01 X34.4125 Y8.0379 F90.00
G01 X34.4254 Y8.0348 F90.00
G01 X34.4384 Y8.0326 F90.00
G01 X34.5079 Y8.0235 F90.00
G01 X34.5176 Y8.0227 F90.00
G01 X34.5273 Y8.0225 F90.00
G01 X35.7973 Y8.0224 F90.00
G01 X35.8118 Y8.0229 F90.00
G01 X35.8214 Y8.0240 F90.00
G01 X35.8861 Y8.0325 F90.00
G01 X35.8992 Y8.0347 F90.00
G01 X35.9120 Y8.0378 F90.00
G01 X35.9246 Y8.0418 F90.00
G01 X35.9620 Y8.0571 F90.00
G01 X37.1246 Y8.0571 F90.00
G01 X37.1325 Y8.0456 F90.00
G01 X37.1819 Y7.9793 F90.00
G01 X37.2435 Y7.9113 F90.00
G01 X37.3115 Y7.8497 F90.00
G01 X37.3852 Y7.7950 F90.00
G01 X37.4639 Y7.7478 F90.00
G01 X37.5469 Y7.7086 F90.00
G01 X37.6333 Y7.6777 F90.00
G01 X37.7134 Y7.6574 F90.00
G01 X37.7268 Y7.6546 F90.00
G01 X37.8131 Y7.6419 F90.00
G01 X37.9047 Y7.6374 F90.00
G01 X39.4047 Y7.6374 F90.00
G01 X39.4964 Y7.6419 F90.00
G01 X39.5871 Y7.6554 F90.00
G01 X39.6674 Y7.6753 F90.00
G01 X39.6848 Y7.6805 F90.00
G01 X39.7626 Y7.7086 F90.00
G01 X39.8374 Y7.7438 F90.00
G01 X39.8534 Y7.7523 F90.00
G01 X39.9165 Y7.7902 F90.00
G01 X39.9316 Y7.8002 F90.00
G01 X39.9979 Y7.8497 F90.00
G01 X40.0659 Y7.9113 F90.00
G01 X40.1275 Y7.9793 F90.00
G01 X40.1770 Y8.0456 F90.00
G01 X40.1848 Y8.0571 F90.00
G01 X40.4947 Y8.0571 F90.00
G01 X40.5362 Y8.0589 F90.00
G01 X40.5542 Y8.0607 F90.00
G01 X40.5953 Y8.0670 F90.00
G01 X40.6356 Y8.0768 F90.00
G01 X40.6487 Y8.0806 F90.00
G01 X40.6835 Y8.0930 F90.00
G01 X40.6961 Y8.0981 F90.00
G01 X40.7336 Y8.1158 F90.00
G01 X40.7456 Y8.1224 F90.00
G01 X40.7773 Y8.1414 F90.00
G01 X40.7885 Y8.1492 F90.00
G01 X40.8217 Y8.1741 F90.00
G01 X40.8592 Y8.2080 F90.00
G01 X41.5592 Y8.9081 F90.00
G01 X41.5932 Y8.9455 F90.00
G01 X41.6181 Y8.9787 F90.00
G01 X41.6282 Y8.9938 F90.00
G01 X41.6448 Y9.0216 F90.00
G01 X41.6514 Y9.0336 F90.00
G01 X41.6691 Y9.0711 F90.00
G01 X41.6742 Y9.0837 F90.00
G01 X41.6880 Y9.1229 F90.00
G01 X41.6983 Y9.1631 F90.00
G01 X41.7011 Y9.1764 F90.00
G01 X41.7072 Y9.2175 F90.00
G01 X41.7084 Y9.2311 F90.00
G01 X41.7101 Y9.2680 F90.00
G01 X41.7102 Y12.0650 F90.00
G01 X41.7077 Y12.1155 F90.00
G01 X41.7003 Y12.1656 F90.00
G01 X41.6904 Y12.2059 F90.00
G01 X41.6851 Y12.2233 F90.00
G01 X41.6709 Y12.2623 F90.00
G01 X41.6493 Y12.3080 F90.00
G01 X41.6282 Y12.3437 F90.00
G01 X41.6181 Y12.3588 F90.00
G01 X41.5988 Y12.3848 F90.00
G01 X41.5902 Y12.3955 F90.00
G01 X41.5592 Y12.4295 F90.00
G01 X40.6067 Y13.3820 F90.00
G01 X40.5692 Y13.4159 F90.00
G01 X40.5286 Y13.4461 F90.00
G01 X40.4852 Y13.4721 F90.00
G01 X40.4478 Y13.4900 F90.00
G01 X40.4353 Y13.4954 F90.00
G01 X40.4005 Y13.5079 F90.00
G01 X40.3831 Y13.5132 F90.00
G01 X40.3428 Y13.5230 F90.00
G01 X40.3018 Y13.5293 F90.00
G01 X40.2882 Y13.5309 F90.00
G01 X40.2422 Y13.5329 F90.00
G01 X19.9222 Y13.5329 F90.00
G01 X19.8717 Y13.5305 F90.00
G01 X19.8217 Y13.5230 F90.00
G01 X19.7814 Y13.5132 F90.00
G01 X19.7640 Y13.5079 F90.00
G01 X19.7292 Y13.4954 F90.00
G01 X19.7167 Y13.4900 F90.00
G01 X19.6792 Y13.4721 F90.00
G01 X19.6359 Y13.4461 F90.00
G01 X19.5952 Y13.4159 F90.00
G01 X19.5610 Y13.3851 F90.00
G01 X15.8987 Y9.7229 F90.00
G01 X10.7523 Y9.7229 F90.00
G01 X10.7445 Y9.7344 F90.00
G01 X10.6951 Y9.8007 F90.00
G01 X10.6397 Y9.8621 F90.00
G01 X10.6268 Y9.8750 F90.00
G01 X10.5654 Y9.9303 F90.00
G01 X10.4992 Y9.9798 F90.00
G01 X10.4841 Y9.9898 F90.00
G01 X10.4130 Y10.0322 F90.00
G01 X10.3384 Y10.0677 F90.00
G01 X10.3216 Y10.0747 F90.00
G01 X10.2437 Y10.1023 F90.00
G01 X10.1635 Y10.1226 F90.00
G01 X10.1457 Y10.1262 F90.00
G01 X10.0639 Y10.1381 F90.00
G01 X9.9722 Y10.1426 F90.00
G01 X9.8896 Y10.1387 F90.00
G01 X9.8716 Y10.1370 F90.00
G01 X9.7898 Y10.1246 F90.00
G01 X9.7095 Y10.1047 F90.00
