(G-CODE GENERATED BY FLATCAM v8.994 - www.flatcam.org - Version Date: 2020/11/7)

(Name: 2 - Bottom.gbr_iso_combined_cnc)
(Type: G-code from Geometry)
(Units: MM)

(Created on Wednesday, 24 November 2021 at 13:06)

(This preprocessor is used with a motion controller loaded with GRBL firmware.)
(It is configured to be compatible with almost any version of GRBL firmware.)

(TOOL DIAMETER: 0.2268 mm)
(Feedrate_XY: 120.0 mm/min)
(Feedrate_Z: 60.0 mm/min)
(Feedrate rapids 1500.0 mm/min)

(Z_Cut: -0.05 mm)
(Z_Move: 2.0 mm)
(Z Start: None mm)
(Z End: 15.0 mm)
(X,Y End: 0.0000, 0.0000 mm)
(Steps per circle: 64)
(Steps per circle: 64)
(Preprocessor Geometry: GRBL_11_no_M6)

(X range:    0.4180 ...   42.0467  mm)
(Y range:    0.7355 ...   13.8695  mm)

(Spindle Speed: 10000.0 RPM)
G21
G90
G17
G94


G01 F120.00

M5             
G00 Z15.0000
G00 X0.0000 Y0.0000                
T2
(MSG, Change to Tool Dia = 0.2268)
M0
G00 Z15.0000
        
M03 S10000.0
G01 F120.00
G00 X0.9726 Y5.0946
G01 F60.00
G01 Z-0.0500
G01 F120.00
G01 X0.9726 Y3.8101 F120.00
G01 X0.9733 Y3.7845 F120.00
G01 X0.9756 Y3.7393 F120.00
G01 X0.9782 Y3.7138 F120.00
G01 X0.9846 Y3.6691 F120.00
G01 X0.9867 Y3.6564 F120.00
G01 X0.9917 Y3.6313 F120.00
G01 X1.0025 Y3.5874 F120.00
G01 X1.0093 Y3.5628 F120.00
G01 X1.0174 Y3.5384 F120.00
G01 X1.0283 Y3.5079 F120.00
G01 X1.0327 Y3.4959 F120.00
G01 X1.0425 Y3.4723 F120.00
G01 X1.0617 Y3.4313 F120.00
G01 X1.0732 Y3.4084 F120.00
G01 X1.0859 Y3.3862 F120.00
G01 X1.1025 Y3.3584 F120.00
G01 X1.1093 Y3.3475 F120.00
G01 X1.1235 Y3.3262 F120.00
G01 X1.1503 Y3.2898 F120.00
G01 X1.1660 Y3.2696 F120.00
G01 X1.1828 Y3.2502 F120.00
G01 X1.2045 Y3.2262 F120.00
G01 X1.2222 Y3.2076 F120.00
G01 X3.4448 Y0.9850 F120.00
G01 X3.4633 Y0.9674 F120.00
G01 X3.4969 Y0.9371 F120.00
G01 X3.5167 Y0.9209 F120.00
G01 X3.5529 Y0.8938 F120.00
G01 X3.5739 Y0.8791 F120.00
G01 X3.5955 Y0.8654 F120.00
G01 X3.6233 Y0.8487 F120.00
G01 X3.6456 Y0.8361 F120.00
G01 X3.6685 Y0.8246 F120.00
G01 X3.7094 Y0.8054 F120.00
G01 X3.7331 Y0.7956 F120.00
G01 X3.7756 Y0.7802 F120.00
G01 X3.7999 Y0.7722 F120.00
G01 X3.8246 Y0.7654 F120.00
G01 X3.8685 Y0.7545 F120.00
G01 X3.8936 Y0.7495 F120.00
G01 X3.9383 Y0.7427 F120.00
G01 X3.9637 Y0.7396 F120.00
G01 X3.9892 Y0.7377 F120.00
G01 X4.0216 Y0.7361 F120.00
G01 X4.0472 Y0.7355 F120.00
G01 X40.2422 Y0.7355 F120.00
G01 X40.2678 Y0.7361 F120.00
G01 X40.3002 Y0.7377 F120.00
G01 X40.3257 Y0.7396 F120.00
G01 X40.3511 Y0.7427 F120.00
G01 X40.3959 Y0.7495 F120.00
G01 X40.4084 Y0.7519 F120.00
G01 X40.4334 Y0.7575 F120.00
G01 X40.4773 Y0.7686 F120.00
G01 X40.5018 Y0.7761 F120.00
G01 X40.5444 Y0.7911 F120.00
G01 X40.5683 Y0.8004 F120.00
G01 X40.5917 Y0.8107 F120.00
G01 X40.6325 Y0.8302 F120.00
G01 X40.6551 Y0.8423 F120.00
G01 X40.6661 Y0.8487 F120.00
G01 X40.7048 Y0.8721 F120.00
G01 X40.7261 Y0.8863 F120.00
G01 X40.7625 Y0.9131 F120.00
G01 X40.7827 Y0.9289 F120.00
G01 X40.8021 Y0.9456 F120.00
G01 X40.8355 Y0.9761 F120.00
G01 X41.7972 Y1.9375 F120.00
G01 X41.8148 Y1.9561 F120.00
G01 X41.8366 Y1.9801 F120.00
G01 X41.8451 Y1.9897 F120.00
G01 X41.8613 Y2.0095 F120.00
G01 X41.8959 Y2.0561 F120.00
G01 X41.9101 Y2.0774 F120.00
G01 X41.9399 Y2.1272 F120.00
G01 X41.9520 Y2.1497 F120.00
G01 X41.9768 Y2.2022 F120.00
G01 X41.9866 Y2.2258 F120.00
G01 X42.0020 Y2.2684 F120.00
G01 X42.0100 Y2.2927 F120.00
G01 X42.0169 Y2.3174 F120.00
G01 X42.0277 Y2.3613 F120.00
G01 X42.0327 Y2.3864 F120.00
G01 X42.0395 Y2.4311 F120.00
G01 X42.0426 Y2.4565 F120.00
G01 X42.0445 Y2.4820 F120.00
G01 X42.0461 Y2.5144 F120.00
G01 X42.0467 Y2.5400 F120.00
G01 X42.0467 Y5.3975 F120.00
G01 X42.0461 Y5.4231 F120.00
G01 X42.0437 Y5.4683 F120.00
G01 X42.0426 Y5.4810 F120.00
G01 X42.0395 Y5.5064 F120.00
G01 X42.0347 Y5.5385 F120.00
G01 X42.0304 Y5.5637 F120.00
G01 X42.0247 Y5.5887 F120.00
G01 X42.0136 Y5.6325 F120.00
G01 X42.0062 Y5.6570 F120.00
G01 X41.9911 Y5.6997 F120.00
G01 X41.9866 Y5.7117 F120.00
G01 X41.9768 Y5.7353 F120.00
G01 X41.9576 Y5.7763 F120.00
G01 X41.9461 Y5.7991 F120.00
G01 X41.9335 Y5.8214 F120.00
G01 X41.9168 Y5.8492 F120.00
G01 X41.9101 Y5.8601 F120.00
G01 X41.8959 Y5.8814 F120.00
G01 X41.8691 Y5.9178 F120.00
G01 X41.8533 Y5.9380 F120.00
G01 X41.8366 Y5.9574 F120.00
G01 X41.8148 Y5.9814 F120.00
G01 X41.7972 Y6.0000 F120.00
G01 X41.1622 Y6.6350 F120.00
G01 X41.1436 Y6.6526 F120.00
G01 X41.1196 Y6.6744 F120.00
G01 X41.1002 Y6.6911 F120.00
G01 X41.0800 Y6.7069 F120.00
G01 X41.0436 Y6.7337 F120.00
G01 X41.0223 Y6.7479 F120.00
G01 X40.9726 Y6.7777 F120.00
G01 X40.9500 Y6.7898 F120.00
G01 X40.8975 Y6.8146 F120.00
G01 X40.8739 Y6.8244 F120.00
G01 X40.8193 Y6.8439 F120.00
G01 X40.7948 Y6.8514 F120.00
G01 X40.7385 Y6.8655 F120.00
G01 X40.7134 Y6.8705 F120.00
G01 X40.6560 Y6.8790 F120.00
G01 X40.6305 Y6.8815 F120.00
G01 X40.5853 Y6.8839 F120.00
G01 X40.5597 Y6.8845 F120.00
G01 X40.3475 Y6.8845 F120.00
G01 X40.3128 Y6.9225 F120.00
G01 X40.2947 Y6.9406 F120.00
G01 X40.2212 Y7.0072 F120.00
G01 X40.2014 Y7.0235 F120.00
G01 X40.1913 Y7.0312 F120.00
G01 X40.1218 Y7.0826 F120.00
G01 X40.1112 Y7.0898 F120.00
G01 X40.0896 Y7.1035 F120.00
G01 X40.0154 Y7.1478 F120.00
G01 X39.9928 Y7.1599 F120.00
G01 X39.9148 Y7.1970 F120.00
G01 X39.9031 Y7.2023 F120.00
G01 X39.8795 Y7.2121 F120.00
G01 X39.7861 Y7.2455 F120.00
G01 X39.7616 Y7.2529 F120.00
G01 X39.7492 Y7.2562 F120.00
G01 X39.6653 Y7.2771 F120.00
G01 X39.6528 Y7.2797 F120.00
G01 X39.6276 Y7.2841 F120.00
G01 X39.5421 Y7.2966 F120.00
G01 X39.5166 Y7.2991 F120.00
G01 X39.4508 Y7.3025 F120.00
G01 X39.5166 Y7.3059 F120.00
G01 X39.5421 Y7.3084 F120.00
G01 X39.6276 Y7.3209 F120.00
G01 X39.6528 Y7.3253 F120.00
G01 X39.6653 Y7.3279 F120.00
G01 X39.7492 Y7.3488 F120.00
G01 X39.7739 Y7.3556 F120.00
G01 X39.7861 Y7.3595 F120.00
G01 X39.8795 Y7.3929 F120.00
G01 X39.9031 Y7.4027 F120.00
G01 X39.9148 Y7.4080 F120.00
G01 X39.9928 Y7.4451 F120.00
G01 X40.0154 Y7.4572 F120.00
G01 X40.0896 Y7.5015 F120.00
G01 X40.1112 Y7.5152 F120.00
G01 X40.1218 Y7.5224 F120.00
G01 X40.1913 Y7.5738 F120.00
G01 X40.2114 Y7.5895 F120.00
G01 X40.2212 Y7.5978 F120.00
G01 X40.2947 Y7.6644 F120.00
G01 X40.3128 Y7.6825 F120.00
G01 X40.3475 Y7.7205 F120.00
G01 X40.4947 Y7.7205 F120.00
G01 X40.5203 Y7.7211 F120.00
G01 X40.5527 Y7.7227 F120.00
G01 X40.5782 Y7.7246 F120.00
G01 X40.6036 Y7.7277 F120.00
G01 X40.6483 Y7.7345 F120.00
G01 X40.6734 Y7.7395 F120.00
G01 X40.7173 Y7.7504 F120.00
G01 X40.7420 Y7.7572 F120.00
G01 X40.7663 Y7.7652 F120.00
G01 X40.7969 Y7.7761 F120.00
G01 X40.8207 Y7.7854 F120.00
G01 X40.8442 Y7.7957 F120.00
G01 X40.8735 Y7.8096 F120.00
G01 X40.8963 Y7.8211 F120.00
G01 X40.9186 Y7.8337 F120.00
G01 X40.9573 Y7.8571 F120.00
G01 X40.9786 Y7.8713 F120.00
G01 X41.0252 Y7.9059 F120.00
G01 X41.0450 Y7.9221 F120.00
G01 X41.0880 Y7.9611 F120.00
G01 X41.8061 Y8.6792 F120.00
G01 X41.8366 Y8.7126 F120.00
G01 X41.8533 Y8.7320 F120.00
G01 X41.8691 Y8.7522 F120.00
G01 X41.8884 Y8.7782 F120.00
G01 X41.9031 Y8.7992 F120.00
G01 X41.9101 Y8.8099 F120.00
G01 X41.9335 Y8.8486 F120.00
G01 X41.9461 Y8.8709 F120.00
G01 X41.9576 Y8.8938 F120.00
G01 X41.9715 Y8.9231 F120.00
G01 X41.9819 Y8.9465 F120.00
G01 X41.9866 Y8.9584 F120.00
G01 X42.0062 Y9.0130 F120.00
G01 X42.0100 Y9.0252 F120.00
G01 X42.0169 Y9.0499 F120.00
G01 X42.0247 Y9.0813 F120.00
G01 X42.0304 Y9.1063 F120.00
G01 X42.0347 Y9.1315 F120.00
G01 X42.0395 Y9.1636 F120.00
G01 X42.0412 Y9.1763 F120.00
G01 X42.0437 Y9.2018 F120.00
G01 X42.0466 Y9.2597 F120.00
G01 X42.0467 Y12.0650 F120.00
G01 X42.0461 Y12.0906 F120.00
G01 X42.0445 Y12.1230 F120.00
G01 X42.0426 Y12.1485 F120.00
G01 X42.0395 Y12.1739 F120.00
G01 X42.0327 Y12.2186 F120.00
G01 X42.0304 Y12.2312 F120.00
G01 X42.0247 Y12.2562 F120.00
G01 X42.0136 Y12.3000 F120.00
G01 X42.0062 Y12.3245 F120.00
G01 X41.9911 Y12.3672 F120.00
G01 X41.9819 Y12.3910 F120.00
G01 X41.9715 Y12.4145 F120.00
G01 X41.9576 Y12.4438 F120.00
G01 X41.9461 Y12.4666 F120.00
G01 X41.9399 Y12.4778 F120.00
G01 X41.9168 Y12.5167 F120.00
G01 X41.9031 Y12.5383 F120.00
G01 X41.8884 Y12.5593 F120.00
G01 X41.8691 Y12.5853 F120.00
G01 X41.8613 Y12.5955 F120.00
G01 X41.8451 Y12.6153 F120.00
G01 X41.8148 Y12.6489 F120.00
G01 X41.7972 Y12.6675 F120.00
G01 X40.8355 Y13.6289 F120.00
G01 X40.8021 Y13.6594 F120.00
G01 X40.7827 Y13.6761 F120.00
G01 X40.7625 Y13.6919 F120.00
G01 X40.7365 Y13.7112 F120.00
G01 X40.7156 Y13.7259 F120.00
G01 X40.6939 Y13.7396 F120.00
G01 X40.6661 Y13.7563 F120.00
G01 X40.6439 Y13.7689 F120.00
G01 X40.6210 Y13.7804 F120.00
G01 X40.5800 Y13.7996 F120.00
G01 X40.5564 Y13.8094 F120.00
G01 X40.5018 Y13.8289 F120.00
G01 X40.4773 Y13.8364 F120.00
G01 X40.4334 Y13.8475 F120.00
G01 X40.4084 Y13.8531 F120.00
G01 X40.3832 Y13.8575 F120.00
G01 X40.3385 Y13.8640 F120.00
G01 X40.3130 Y13.8665 F120.00
G01 X40.2678 Y13.8689 F120.00
G01 X40.2422 Y13.8695 F120.00
G01 X19.9222 Y13.8695 F120.00
G01 X19.8966 Y13.8689 F120.00
G01 X19.8642 Y13.8673 F120.00
G01 X19.8387 Y13.8654 F120.00
G01 X19.8133 Y13.8623 F120.00
G01 X19.7686 Y13.8555 F120.00
G01 X19.7435 Y13.8505 F120.00
G01 X19.6996 Y13.8396 F120.00
G01 X19.6749 Y13.8328 F120.00
G01 X19.6627 Y13.8289 F120.00
G01 X19.6201 Y13.8139 F120.00
G01 X19.5962 Y13.8046 F120.00
G01 X19.5728 Y13.7943 F120.00
G01 X19.5320 Y13.7748 F120.00
G01 X19.5094 Y13.7627 F120.00
G01 X19.4705 Y13.7396 F120.00
G01 X19.4489 Y13.7259 F120.00
G01 X19.4383 Y13.7187 F120.00
G01 X19.4019 Y13.6919 F120.00
G01 X19.3817 Y13.6761 F120.00
G01 X19.3623 Y13.6594 F120.00
G01 X19.3289 Y13.6289 F120.00
G01 X15.7593 Y10.0595 F120.00
G01 X10.9150 Y10.0595 F120.00
G01 X10.8804 Y10.0975 F120.00
G01 X10.8622 Y10.1156 F120.00
G01 X10.7887 Y10.1822 F120.00
G01 X10.7690 Y10.1985 F120.00
G01 X10.7588 Y10.2062 F120.00
G01 X10.6893 Y10.2576 F120.00
G01 X10.6680 Y10.2718 F120.00
G01 X10.6571 Y10.2785 F120.00
G01 X10.5940 Y10.3164 F120.00
G01 X10.5717 Y10.3290 F120.00
G01 X10.5488 Y10.3405 F120.00
G01 X10.4706 Y10.3773 F120.00
G01 X10.4589 Y10.3823 F120.00
G01 X10.4350 Y10.3916 F120.00
G01 X10.3657 Y10.4163 F120.00
G01 X10.3414 Y10.4244 F120.00
G01 X10.3167 Y10.4312 F120.00
G01 X10.2453 Y10.4491 F120.00
G01 X10.2203 Y10.4547 F120.00
G01 X10.1951 Y10.4591 F120.00
G01 X10.1223 Y10.4699 F120.00
G01 X10.0969 Y10.4730 F120.00
G01 X10.0713 Y10.4749 F120.00
G01 X9.9850 Y10.4790 F120.00
G01 X9.9722 Y10.4791 F120.00
G01 X9.9466 Y10.4785 F120.00
G01 X9.8603 Y10.4741 F120.00
G01 X9.8349 Y10.4716 F120.00
G01 X9.7494 Y10.4591 F120.00
G01 X9.7241 Y10.4547 F120.00
G01 X9.7116 Y10.4521 F120.00
G01 X9.6278 Y10.4312 F120.00
G01 X9.6031 Y10.4244 F120.00
G01 X9.5788 Y10.4163 F120.00
G01 X9.5095 Y10.3916 F120.00
G01 X9.4856 Y10.3823 F120.00
G01 X9.4622 Y10.3720 F120.00
G01 X9.3957 Y10.3405 F120.00
G01 X9.3728 Y10.3290 F120.00
G01 X9.3505 Y10.3164 F120.00
G01 X9.2874 Y10.2785 F120.00
G01 X9.2657 Y10.2648 F120.00
G01 X9.2448 Y10.2501 F120.00
G01 X9.1755 Y10.1985 F120.00
G01 X9.1557 Y10.1822 F120.00
G01 X9.0916 Y10.1243 F120.00
G01 X9.0730 Y10.1067 F120.00
G01 X9.0554 Y10.0881 F120.00
G01 X9.0060 Y10.0336 F120.00
G01 X8.9892 Y10.0142 F120.00
G01 X8.9735 Y9.9940 F120.00
G01 X8.9296 Y9.9349 F120.00
G01 X8.9149 Y9.9140 F120.00
G01 X8.9012 Y9.8924 F120.00
G01 X8.8634 Y9.8292 F120.00
G01 X8.8507 Y9.8069 F120.00
G01 X8.8392 Y9.7841 F120.00
G01 X8.8078 Y9.7175 F120.00
G01 X8.7974 Y9.6941 F120.00
G01 X8.7926 Y9.6822 F120.00
G01 X8.7634 Y9.6009 F120.00
G01 X8.7554 Y9.5766 F120.00
G01 X8.7485 Y9.5520 F120.00
G01 X8.7306 Y9.4806 F120.00
G01 X8.7250 Y9.4556 F120.00
G01 X8.7207 Y9.4304 F120.00
G01 X8.7099 Y9.3576 F120.00
G01 X8.7067 Y9.3321 F120.00
G01 X8.7056 Y9.3194 F120.00
G01 X8.7012 Y9.2331 F120.00
G01 X8.7006 Y9.2075 F120.00
G01 X8.7012 Y9.1819 F120.00
G01 X8.7048 Y9.1084 F120.00
G01 X8.7067 Y9.0829 F120.00
G01 X8.7099 Y9.0574 F120.00
G01 X8.7207 Y8.9846 F120.00
G01 X8.7250 Y8.9594 F120.00
G01 X8.7306 Y8.9344 F120.00
G01 X8.7518 Y8.8507 F120.00
G01 X8.7592 Y8.8262 F120.00
G01 X8.7882 Y8.7448 F120.00
G01 X8.7974 Y8.7209 F120.00
G01 X8.8078 Y8.6975 F120.00
G01 X8.8392 Y8.6309 F120.00
G01 X8.8507 Y8.6081 F120.00
G01 X8.8569 Y8.5968 F120.00
G01 X8.9012 Y8.5226 F120.00
G01 X8.9149 Y8.5010 F120.00
G01 X8.9296 Y8.4801 F120.00
G01 X8.9735 Y8.4210 F120.00
G01 X8.9892 Y8.4008 F120.00
G01 X9.0060 Y8.3814 F120.00
G01 X9.0554 Y8.3269 F120.00
G01 X9.0730 Y8.3083 F120.00
G01 X9.0916 Y8.2907 F120.00
G01 X9.1557 Y8.2328 F120.00
G01 X9.1755 Y8.2165 F120.00
G01 X9.2448 Y8.1649 F120.00
G01 X9.2657 Y8.1502 F120.00
G01 X9.2874 Y8.1365 F120.00
G01 X9.3505 Y8.0986 F120.00
G01 X9.3728 Y8.0860 F120.00
G01 X9.3957 Y8.0745 F120.00
G01 X9.4738 Y8.0377 F120.00
G01 X9.4975 Y8.0279 F120.00
G01 X9.5788 Y7.9987 F120.00
G01 X9.6031 Y7.9906 F120.00
G01 X9.6278 Y7.9838 F120.00
G01 X9.6992 Y7.9659 F120.00
G01 X9.7241 Y7.9603 F120.00
G01 X9.7494 Y7.9559 F120.00
G01 X9.8349 Y7.9434 F120.00
G01 X9.8603 Y7.9409 F120.00
G01 X9.9261 Y7.9375 F120.00
G01 X9.8731 Y7.9349 F120.00
G01 X9.8476 Y7.9330 F120.00
G01 X9.8222 Y7.9299 F120.00
G01 X9.7367 Y7.9170 F120.00
G01 X9.7116 Y7.9121 F120.00
G01 X9.6992 Y7.9091 F120.00
G01 X9.6278 Y7.8912 F120.00
G01 X9.6031 Y7.8844 F120.00
G01 X9.5788 Y7.8763 F120.00
G01 X9.4975 Y7.8471 F120.00
G01 X9.4738 Y7.8373 F120.00
G01 X9.4622 Y7.8320 F120.00
G01 X9.3957 Y7.8005 F120.00
G01 X9.3728 Y7.7890 F120.00
G01 X9.3505 Y7.7764 F120.00
G01 X9.2765 Y7.7318 F120.00
G01 X9.2657 Y7.7248 F120.00
G01 X9.2448 Y7.7101 F120.00
G01 X9.1857 Y7.6662 F120.00
G01 X9.1655 Y7.6505 F120.00
G01 X9.1461 Y7.6338 F120.00
G01 X9.0822 Y7.5756 F120.00
G01 X9.0730 Y7.5667 F120.00
G01 X9.0554 Y7.5481 F120.00
G01 X9.0060 Y7.4936 F120.00
G01 X8.9892 Y7.4742 F120.00
G01 X8.9735 Y7.4540 F120.00
G01 X8.9296 Y7.3949 F120.00
G01 X8.9221 Y7.3845 F120.00
G01 X8.9079 Y7.3633 F120.00
G01 X8.8634 Y7.2892 F120.00
G01 X8.8507 Y7.2669 F120.00
G01 X8.8392 Y7.2441 F120.00
G01 X8.8078 Y7.1775 F120.00
G01 X8.7974 Y7.1541 F120.00
G01 X8.7882 Y7.1302 F120.00
G01 X8.7634 Y7.0609 F120.00
G01 X8.7592 Y7.0488 F120.00
G01 X8.7518 Y7.0243 F120.00
G01 X8.7306 Y6.9406 F120.00
G01 X8.7250 Y6.9156 F120.00
G01 X8.7207 Y6.8904 F120.00
G01 X8.7099 Y6.8176 F120.00
G01 X8.7067 Y6.7921 F120.00
G01 X8.7048 Y6.7666 F120.00
G01 X8.7012 Y6.6931 F120.00
G01 X8.7006 Y6.6675 F120.00
G01 X8.7012 Y6.6419 F120.00
G01 X8.7048 Y6.5684 F120.00
G01 X8.7067 Y6.5429 F120.00
G01 X8.7099 Y6.5174 F120.00
G01 X8.7207 Y6.4446 F120.00
G01 X8.7227 Y6.4320 F120.00
G01 X8.7277 Y6.4069 F120.00
G01 X8.7485 Y6.3230 F120.00
G01 X8.7554 Y6.2984 F120.00
G01 X8.7634 Y6.2741 F120.00
G01 X8.7926 Y6.1928 F120.00
G01 X8.8024 Y6.1691 F120.00
G01 X8.8392 Y6.0909 F120.00
G01 X8.8449 Y6.0794 F120.00
G01 X8.8569 Y6.0568 F120.00
G01 X8.9012 Y5.9826 F120.00
G01 X8.9149 Y5.9610 F120.00
G01 X8.9296 Y5.9401 F120.00
G01 X8.9812 Y5.8708 F120.00
G01 X8.9975 Y5.8510 F120.00
G01 X9.0060 Y5.8414 F120.00
G01 X9.0641 Y5.7775 F120.00
G01 X9.0822 Y5.7594 F120.00
G01 X9.1202 Y5.7247 F120.00
G01 X9.1202 Y5.5638 F120.00
G01 X8.2184 Y4.6620 F120.00
G01 X6.2261 Y4.6620 F120.00
G01 X5.3242 Y5.5638 F120.00
G01 X5.3242 Y5.7247 F120.00
G01 X5.3622 Y5.7594 F120.00
G01 X5.3803 Y5.7775 F120.00
G01 X5.4385 Y5.8414 F120.00
G01 X5.4552 Y5.8608 F120.00
G01 X5.4632 Y5.8708 F120.00
G01 X5.5148 Y5.9401 F120.00
G01 X5.5295 Y5.9610 F120.00
G01 X5.5432 Y5.9826 F120.00
G01 X5.5875 Y6.0568 F120.00
G01 X5.5937 Y6.0681 F120.00
G01 X5.6052 Y6.0909 F120.00
G01 X5.6420 Y6.1691 F120.00
G01 X5.6518 Y6.1928 F120.00
G01 X5.6811 Y6.2741 F120.00
G01 X5.6891 Y6.2984 F120.00
G01 X5.6959 Y6.3230 F120.00
G01 X5.7138 Y6.3944 F120.00
G01 X5.7168 Y6.4069 F120.00
G01 X5.7218 Y6.4320 F120.00
G01 X5.7346 Y6.5174 F120.00
G01 X5.7377 Y6.5429 F120.00
G01 X5.7396 Y6.5684 F120.00
G01 X5.7437 Y6.6547 F120.00
G01 X5.7437 Y6.6803 F120.00
G01 X5.7432 Y6.6931 F120.00
G01 X5.7396 Y6.7666 F120.00
G01 X5.7377 Y6.7921 F120.00
G01 X5.7346 Y6.8176 F120.00
G01 X5.7218 Y6.9030 F120.00
G01 X5.7168 Y6.9281 F120.00
G01 X5.6959 Y7.0120 F120.00
G01 X5.6891 Y7.0366 F120.00
G01 X5.6852 Y7.0488 F120.00
G01 X5.6563 Y7.1302 F120.00
G01 X5.6471 Y7.1541 F120.00
G01 X5.6367 Y7.1775 F120.00
G01 X5.6052 Y7.2441 F120.00
G01 X5.5996 Y7.2556 F120.00
G01 X5.5875 Y7.2782 F120.00
G01 X5.5432 Y7.3524 F120.00
G01 X5.5295 Y7.3740 F120.00
G01 X5.5148 Y7.3949 F120.00
G01 X5.4710 Y7.4540 F120.00
G01 X5.4552 Y7.4742 F120.00
G01 X5.4385 Y7.4936 F120.00
G01 X5.3891 Y7.5481 F120.00
G01 X5.3714 Y7.5667 F120.00
G01 X5.3529 Y7.5843 F120.00
G01 X5.2887 Y7.6422 F120.00
G01 X5.2689 Y7.6585 F120.00
G01 X5.1996 Y7.7101 F120.00
G01 X5.1787 Y7.7248 F120.00
G01 X5.1571 Y7.7385 F120.00
G01 X5.0939 Y7.7764 F120.00
G01 X5.0717 Y7.7890 F120.00
G01 X5.0488 Y7.8005 F120.00
G01 X4.9706 Y7.8373 F120.00
G01 X4.9470 Y7.8471 F120.00
G01 X4.8657 Y7.8763 F120.00
G01 X4.8414 Y7.8844 F120.00
G01 X4.8167 Y7.8912 F120.00
G01 X4.7453 Y7.9091 F120.00
G01 X4.7203 Y7.9147 F120.00
G01 X4.6951 Y7.9191 F120.00
G01 X4.6096 Y7.9316 F120.00
G01 X4.5841 Y7.9341 F120.00
G01 X4.5183 Y7.9375 F120.00
G01 X4.5841 Y7.9409 F120.00
G01 X4.6096 Y7.9434 F120.00
G01 X4.6951 Y7.9559 F120.00
G01 X4.7203 Y7.9603 F120.00
G01 X4.7453 Y7.9659 F120.00
G01 X4.8167 Y7.9838 F120.00
G01 X4.8414 Y7.9906 F120.00
G01 X4.8657 Y7.9987 F120.00
G01 X4.9470 Y8.0279 F120.00
G01 X4.9706 Y8.0377 F120.00
G01 X5.0488 Y8.0745 F120.00
G01 X5.0717 Y8.0860 F120.00
G01 X5.0939 Y8.0986 F120.00
G01 X5.1571 Y8.1365 F120.00
G01 X5.1787 Y8.1502 F120.00
G01 X5.1996 Y8.1649 F120.00
G01 X5.2689 Y8.2165 F120.00
G01 X5.2887 Y8.2328 F120.00
G01 X5.3529 Y8.2907 F120.00
G01 X5.3714 Y8.3083 F120.00
G01 X5.3891 Y8.3269 F120.00
G01 X5.4385 Y8.3814 F120.00
G01 X5.4552 Y8.4008 F120.00
G01 X5.4710 Y8.4210 F120.00
G01 X5.5148 Y8.4801 F120.00
G01 X5.5295 Y8.5010 F120.00
G01 X5.5432 Y8.5226 F120.00
G01 X5.5811 Y8.5858 F120.00
G01 X5.5937 Y8.6081 F120.00
G01 X5.6052 Y8.6309 F120.00
G01 X5.6367 Y8.6975 F120.00
G01 X5.6420 Y8.7091 F120.00
G01 X5.6518 Y8.7328 F120.00
G01 X5.6811 Y8.8141 F120.00
G01 X5.6891 Y8.8384 F120.00
G01 X5.6959 Y8.8630 F120.00
G01 X5.7168 Y8.9469 F120.00
G01 X5.7194 Y8.9594 F120.00
G01 X5.7238 Y8.9846 F120.00
G01 X5.7346 Y9.0574 F120.00
G01 X5.7377 Y9.0829 F120.00
G01 X5.7396 Y9.1084 F120.00
G01 X5.7432 Y9.1819 F120.00
G01 X5.7439 Y9.2075 F120.00
G01 X5.7432 Y9.2331 F120.00
G01 X5.7396 Y9.3066 F120.00
G01 X5.7377 Y9.3321 F120.00
G01 X5.7346 Y9.3576 F120.00
G01 X5.7238 Y9.4304 F120.00
G01 X5.7218 Y9.4430 F120.00
G01 X5.7168 Y9.4681 F120.00
G01 X5.6959 Y9.5520 F120.00
G01 X5.6891 Y9.5766 F120.00
G01 X5.6811 Y9.6009 F120.00
G01 X5.6563 Y9.6702 F120.00
G01 X5.6471 Y9.6941 F120.00
G01 X5.6367 Y9.7175 F120.00
G01 X5.6052 Y9.7841 F120.00
G01 X5.5937 Y9.8069 F120.00
G01 X5.5811 Y9.8292 F120.00
G01 X5.5432 Y9.8924 F120.00
G01 X5.5295 Y9.9140 F120.00
G01 X5.5148 Y9.9349 F120.00
G01 X5.4710 Y9.9940 F120.00
G01 X5.4552 Y10.0142 F120.00
G01 X5.4385 Y10.0336 F120.00
G01 X5.3803 Y10.0975 F120.00
G01 X5.3622 Y10.1156 F120.00
G01 X5.2983 Y10.1738 F120.00
G01 X5.2789 Y10.1905 F120.00
G01 X5.2587 Y10.2062 F120.00
G01 X5.1996 Y10.2501 F120.00
G01 X5.1787 Y10.2648 F120.00
G01 X5.1571 Y10.2785 F120.00
G01 X5.0829 Y10.3228 F120.00
G01 X5.0717 Y10.3290 F120.00
G01 X5.0488 Y10.3405 F120.00
G01 X4.9823 Y10.3720 F120.00
G01 X4.9589 Y10.3823 F120.00
G01 X4.9350 Y10.3916 F120.00
G01 X4.8657 Y10.4163 F120.00
G01 X4.8414 Y10.4244 F120.00
G01 X4.8167 Y10.4312 F120.00
G01 X4.7453 Y10.4491 F120.00
G01 X4.7203 Y10.4547 F120.00
G01 X4.6951 Y10.4591 F120.00
G01 X4.6223 Y10.4699 F120.00
G01 X4.5969 Y10.4730 F120.00
G01 X4.5713 Y10.4749 F120.00
G01 X4.4850 Y10.4790 F120.00
G01 X4.4594 Y10.4790 F120.00
G01 X4.3731 Y10.4749 F120.00
G01 X4.3476 Y10.4730 F120.00
G01 X4.3222 Y10.4699 F120.00
G01 X4.2494 Y10.4591 F120.00
G01 X4.2241 Y10.4547 F120.00
G01 X4.1992 Y10.4491 F120.00
G01 X4.1278 Y10.4312 F120.00
G01 X4.1031 Y10.4244 F120.00
G01 X4.0788 Y10.4163 F120.00
G01 X4.0095 Y10.3916 F120.00
G01 X3.9975 Y10.3871 F120.00
G01 X3.9738 Y10.3773 F120.00
G01 X3.8956 Y10.3405 F120.00
G01 X3.8728 Y10.3290 F120.00
G01 X3.8505 Y10.3164 F120.00
G01 X3.7874 Y10.2785 F120.00
G01 X3.7765 Y10.2718 F120.00
G01 X3.7552 Y10.2576 F120.00
G01 X3.6857 Y10.2062 F120.00
G01 X3.6655 Y10.1905 F120.00
G01 X3.6557 Y10.1822 F120.00
G01 X3.5822 Y10.1156 F120.00
G01 X3.5641 Y10.0975 F120.00
G01 X3.5294 Y10.0595 F120.00
G01 X2.8680 Y10.0595 F120.00
G01 X2.8511 Y10.0700 F120.00
G01 X2.8295 Y10.0822 F120.00
G01 X2.8184 Y10.0879 F120.00
G01 X2.7960 Y10.0984 F120.00
G01 X2.7127 Y10.1329 F120.00
G01 X2.6893 Y10.1414 F120.00
G01 X2.6656 Y10.1486 F120.00
G01 X2.6536 Y10.1519 F120.00
G01 X2.6293 Y10.1574 F120.00
G01 X2.6049 Y10.1619 F120.00
G01 X2.5926 Y10.1636 F120.00
G01 X2.5143 Y10.1737 F120.00
G01 X2.4871 Y10.1759 F120.00
G01 X2.4599 Y10.1766 F120.00
G01 X1.1899 Y10.1767 F120.00
G01 X1.1626 Y10.1760 F120.00
G01 X1.1354 Y10.1738 F120.00
G01 X1.1219 Y10.1722 F120.00
G01 X1.0448 Y10.1620 F120.00
G01 X1.0204 Y10.1576 F120.00
G01 X0.9962 Y10.1520 F120.00
G01 X0.9842 Y10.1488 F120.00
G01 X0.9605 Y10.1415 F120.00
G01 X0.9371 Y10.1331 F120.00
G01 X0.8653 Y10.1035 F120.00
G01 X0.8425 Y10.0935 F120.00
G01 X0.8203 Y10.0824 F120.00
G01 X0.8094 Y10.0764 F120.00
G01 X0.7881 Y10.0637 F120.00
G01 X0.7673 Y10.0500 F120.00
G01 X0.7473 Y10.0354 F120.00
G01 X0.6857 Y9.9880 F120.00
G01 X0.6668 Y9.9720 F120.00
G01 X0.6576 Y9.9636 F120.00
G01 X0.6486 Y9.9551 F120.00
G01 X0.6313 Y9.9373 F120.00
G01 X0.6148 Y9.9188 F120.00
G01 X0.6069 Y9.9092 F120.00
G01 X0.5521 Y9.8377 F120.00
G01 X0.5379 Y9.8173 F120.00
G01 X0.5312 Y9.8069 F120.00
G01 X0.5185 Y9.7855 F120.00
G01 X0.5126 Y9.7746 F120.00
G01 X0.5014 Y9.7524 F120.00
G01 X0.4963 Y9.7411 F120.00
G01 X0.4618 Y9.6579 F120.00
G01 X0.4534 Y9.6346 F120.00
G01 X0.4461 Y9.6108 F120.00
G01 X0.4429 Y9.5988 F120.00
G01 X0.4374 Y9.5747 F120.00
G01 X0.4330 Y9.5503 F120.00
G01 X0.4210 Y9.4597 F120.00
G01 X0.4198 Y9.4461 F120.00
G01 X0.4184 Y9.4188 F120.00
G01 X0.4183 Y8.7614 F120.00
G01 X0.4189 Y8.7478 F120.00
G01 X0.4210 Y8.7206 F120.00
G01 X0.4329 Y8.6301 F120.00
G01 X0.4349 Y8.6178 F120.00
G01 X0.4399 Y8.5935 F120.00
G01 X0.4461 Y8.5694 F120.00
G01 X0.4496 Y8.5575 F120.00
G01 X0.4574 Y8.5340 F120.00
G01 X0.4663 Y8.5108 F120.00
G01 X0.4962 Y8.4391 F120.00
G01 X0.5013 Y8.4278 F120.00
G01 X0.5125 Y8.4056 F120.00
G01 X0.5184 Y8.3947 F120.00
G01 X0.5311 Y8.3734 F120.00
G01 X0.5447 Y8.3526 F120.00
G01 X0.5594 Y8.3326 F120.00
G01 X0.5991 Y8.2808 F120.00
G01 X0.6147 Y8.2615 F120.00
G01 X0.6312 Y8.2429 F120.00
G01 X0.6485 Y8.2251 F120.00
G01 X0.6667 Y8.2082 F120.00
G01 X0.6761 Y8.2000 F120.00
G01 X0.6954 Y8.1845 F120.00
G01 X0.7571 Y8.1373 F120.00
G01 X0.7775 Y8.1231 F120.00
G01 X0.7985 Y8.1100 F120.00
G01 X0.8093 Y8.1038 F120.00
G01 X0.8312 Y8.0921 F120.00
G01 X0.8423 Y8.0867 F120.00
G01 X0.8650 Y8.0767 F120.00
G01 X0.9369 Y8.0471 F120.00
G01 X0.9603 Y8.0386 F120.00
G01 X0.9840 Y8.0314 F120.00
G01 X0.9960 Y8.0281 F120.00
G01 X1.0203 Y8.0226 F120.00
G01 X1.0447 Y8.0181 F120.00
G01 X1.1217 Y8.0079 F120.00
G01 X1.1488 Y8.0050 F120.00
G01 X1.1624 Y8.0041 F120.00
G01 X1.1897 Y8.0034 F120.00
G01 X2.4597 Y8.0033 F120.00
G01 X2.4870 Y8.0040 F120.00
G01 X2.5006 Y8.0049 F120.00
G01 X2.5277 Y8.0078 F120.00
G01 X2.5925 Y8.0163 F120.00
G01 X2.6170 Y8.0201 F120.00
G01 X2.6413 Y8.0251 F120.00
G01 X2.6654 Y8.0312 F120.00
G01 X2.6773 Y8.0347 F120.00
G01 X2.6891 Y8.0385 F120.00
G01 X2.7125 Y8.0469 F120.00
G01 X2.7958 Y8.0814 F120.00
G01 X2.8071 Y8.0865 F120.00
G01 X2.8293 Y8.0976 F120.00
G01 X2.8509 Y8.1098 F120.00
G01 X2.8720 Y8.1230 F120.00
G01 X2.8823 Y8.1300 F120.00
G01 X2.9023 Y8.1446 F120.00
G01 X2.9639 Y8.1920 F120.00
G01 X2.9828 Y8.2080 F120.00
G01 X3.0010 Y8.2249 F120.00
G01 X3.0183 Y8.2427 F120.00
G01 X3.0348 Y8.2612 F120.00
G01 X3.0427 Y8.2708 F120.00
G01 X3.0901 Y8.3323 F120.00
G01 X3.1068 Y8.3555 F120.00
G01 X3.5294 Y8.3555 F120.00
G01 X3.5641 Y8.3175 F120.00
G01 X3.5822 Y8.2994 F120.00
G01 X3.6557 Y8.2328 F120.00
G01 X3.6655 Y8.2245 F120.00
G01 X3.6857 Y8.2088 F120.00
G01 X3.7552 Y8.1574 F120.00
G01 X3.7765 Y8.1432 F120.00
G01 X3.7874 Y8.1365 F120.00
G01 X3.8616 Y8.0922 F120.00
G01 X3.8841 Y8.0801 F120.00
G01 X3.9622 Y8.0430 F120.00
G01 X3.9856 Y8.0327 F120.00
G01 X3.9975 Y8.0279 F120.00
G01 X4.0909 Y7.9945 F120.00
G01 X4.1031 Y7.9906 F120.00
G01 X4.1278 Y7.9838 F120.00
G01 X4.2116 Y7.9629 F120.00
G01 X4.2367 Y7.9580 F120.00
G01 X4.2494 Y7.9559 F120.00
G01 X4.3348 Y7.9434 F120.00
G01 X4.3603 Y7.9409 F120.00
G01 X4.4261 Y7.9375 F120.00
G01 X4.3603 Y7.9341 F120.00
G01 X4.3348 Y7.9316 F120.00
G01 X4.2494 Y7.9191 F120.00
G01 X4.2367 Y7.9170 F120.00
G01 X4.2116 Y7.9121 F120.00
G01 X4.1278 Y7.8912 F120.00
G01 X4.1031 Y7.8844 F120.00
G01 X4.0788 Y7.8763 F120.00
G01 X4.0095 Y7.8516 F120.00
G01 X3.9975 Y7.8471 F120.00
G01 X3.9738 Y7.8373 F120.00
G01 X3.8956 Y7.8005 F120.00
G01 X3.8728 Y7.7890 F120.00
G01 X3.8505 Y7.7764 F120.00
G01 X3.7874 Y7.7385 F120.00
G01 X3.7657 Y7.7248 F120.00
G01 X3.7448 Y7.7101 F120.00
G01 X3.6857 Y7.6662 F120.00
G01 X3.6655 Y7.6505 F120.00
G01 X3.6461 Y7.6338 F120.00
G01 X3.5916 Y7.5843 F120.00
G01 X3.5822 Y7.5756 F120.00
G01 X3.5641 Y7.5575 F120.00
G01 X3.5060 Y7.4936 F120.00
G01 X3.4892 Y7.4742 F120.00
G01 X3.4735 Y7.4540 F120.00
G01 X3.4296 Y7.3949 F120.00
G01 X3.4149 Y7.3740 F120.00
G01 X3.4012 Y7.3524 F120.00
G01 X3.3634 Y7.2892 F120.00
G01 X3.3507 Y7.2669 F120.00
G01 X3.3392 Y7.2441 F120.00
G01 X3.3078 Y7.1775 F120.00
G01 X3.2974 Y7.1541 F120.00
G01 X3.2882 Y7.1302 F120.00
G01 X3.2634 Y7.0609 F120.00
G01 X3.2553 Y7.0366 F120.00
G01 X3.2485 Y7.0120 F120.00
G01 X3.2306 Y6.9406 F120.00
G01 X3.2250 Y6.9156 F120.00
G01 X3.2206 Y6.8904 F120.00
G01 X3.2098 Y6.8176 F120.00
G01 X3.2067 Y6.7921 F120.00
G01 X3.2048 Y6.7666 F120.00
G01 X3.2007 Y6.6796 F120.00
G01 X3.1961 Y6.6943 F120.00
G01 X3.1877 Y6.7177 F120.00
G01 X3.1533 Y6.8009 F120.00
G01 X3.1427 Y6.8234 F120.00
G01 X3.1310 Y6.8453 F120.00
G01 X3.1248 Y6.8560 F120.00
G01 X3.1117 Y6.8771 F120.00
G01 X3.0975 Y6.8975 F120.00
G01 X3.0427 Y6.9690 F120.00
G01 X3.0348 Y6.9785 F120.00
G01 X3.0183 Y6.9971 F120.00
G01 X3.0009 Y7.0149 F120.00
G01 X2.9919 Y7.0235 F120.00
G01 X2.9828 Y7.0318 F120.00
G01 X2.9638 Y7.0479 F120.00
G01 X2.8923 Y7.1027 F120.00
G01 X2.8720 Y7.1169 F120.00
G01 X2.8509 Y7.1300 F120.00
G01 X2.8293 Y7.1422 F120.00
G01 X2.8183 Y7.1479 F120.00
G01 X2.8071 Y7.1533 F120.00
G01 X2.7844 Y7.1633 F120.00
G01 X2.7241 Y7.1883 F120.00
G01 X2.7009 Y7.1973 F120.00
G01 X2.6774 Y7.2051 F120.00
G01 X2.6534 Y7.2119 F120.00
G01 X2.6292 Y7.2174 F120.00
G01 X2.6047 Y7.2219 F120.00
G01 X2.5142 Y7.2337 F120.00
G01 X2.4870 Y7.2359 F120.00
G01 X2.4597 Y7.2366 F120.00
G01 X1.1897 Y7.2367 F120.00
G01 X1.1625 Y7.2360 F120.00
G01 X1.1488 Y7.2351 F120.00
G01 X1.1217 Y7.2322 F120.00
G01 X1.0570 Y7.2237 F120.00
G01 X1.0447 Y7.2220 F120.00
G01 X1.0203 Y7.2176 F120.00
G01 X0.9961 Y7.2120 F120.00
G01 X0.9721 Y7.2053 F120.00
G01 X0.9486 Y7.1974 F120.00
G01 X0.9254 Y7.1885 F120.00
G01 X0.8651 Y7.1635 F120.00
G01 X0.8424 Y7.1535 F120.00
G01 X0.8202 Y7.1424 F120.00
G01 X0.7985 Y7.1302 F120.00
G01 X0.7775 Y7.1170 F120.00
G01 X0.7570 Y7.1028 F120.00
G01 X0.6856 Y7.0480 F120.00
G01 X0.6666 Y7.0320 F120.00
G01 X0.6485 Y7.0151 F120.00
G01 X0.6312 Y6.9973 F120.00
G01 X0.6147 Y6.9788 F120.00
G01 X0.5991 Y6.9595 F120.00
G01 X0.5519 Y6.8977 F120.00
G01 X0.5377 Y6.8773 F120.00
G01 X0.5246 Y6.8563 F120.00
G01 X0.5124 Y6.8346 F120.00
G01 X0.5013 Y6.8124 F120.00
G01 X0.4961 Y6.8011 F120.00
G01 X0.4617 Y6.7179 F120.00
G01 X0.4533 Y6.6946 F120.00
G01 X0.4460 Y6.6708 F120.00
G01 X0.4399 Y6.6468 F120.00
G01 X0.4349 Y6.6225 F120.00
G01 X0.4310 Y6.5980 F120.00
G01 X0.4209 Y6.5197 F120.00
G01 X0.4187 Y6.4924 F120.00
G01 X0.4180 Y6.4651 F120.00
G01 X0.4182 Y5.8214 F120.00
G01 X0.4196 Y5.7942 F120.00
G01 X0.4208 Y5.7806 F120.00
G01 X0.4327 Y5.6901 F120.00
G01 X0.4371 Y5.6656 F120.00
G01 X0.4427 Y5.6414 F120.00
G01 X0.4494 Y5.6175 F120.00
G01 X0.4572 Y5.5940 F120.00
G01 X0.4662 Y5.5708 F120.00
G01 X0.4912 Y5.5105 F120.00
G01 X0.5012 Y5.4878 F120.00
G01 X0.5066 Y5.4766 F120.00
G01 X0.5183 Y5.4547 F120.00
G01 X0.5245 Y5.4440 F120.00
G01 X0.5309 Y5.4334 F120.00
G01 X0.5446 Y5.4126 F120.00
G01 X0.5592 Y5.3926 F120.00
G01 X0.5989 Y5.3408 F120.00
G01 X0.6145 Y5.3215 F120.00
G01 X0.6227 Y5.3121 F120.00
G01 X0.6396 Y5.2939 F120.00
G01 X0.6573 Y5.2765 F120.00
G01 X0.6759 Y5.2600 F120.00
G01 X0.6855 Y5.2521 F120.00
G01 X0.7570 Y5.1973 F120.00
G01 X0.7773 Y5.1831 F120.00
G01 X0.7878 Y5.1764 F120.00
G01 X0.7984 Y5.1700 F120.00
G01 X0.8200 Y5.1578 F120.00
G01 X0.8310 Y5.1521 F120.00
G01 X0.8535 Y5.1416 F120.00
G01 X0.9367 Y5.1071 F120.00
G01 X0.9601 Y5.0986 F120.00
G01 X0.9726 Y5.0946 F120.00
G00 Z2.0000
G00 X1.1768 Y5.2678
G01 F60.00
G01 Z-0.0500
G01 F120.00
G01 X1.1768 Y3.8101 F120.00
G01 X1.1771 Y3.7945 F120.00
G01 X1.1787 Y3.7621 F120.00
G01 X1.1807 Y3.7388 F120.00
G01 X1.1865 Y3.6990 F120.00
G01 X1.1892 Y3.6837 F120.00
G01 X1.1926 Y3.6685 F120.00
G01 X1.2005 Y3.6370 F120.00
G01 X1.2070 Y3.6146 F120.00
G01 X1.2205 Y3.5767 F120.00
G01 X1.2261 Y3.5621 F120.00
G01 X1.2324 Y3.5479 F120.00
G01 X1.2463 Y3.5186 F120.00
G01 X1.2570 Y3.4978 F120.00
G01 X1.2776 Y3.4633 F120.00
G01 X1.2860 Y3.4501 F120.00
G01 X1.2949 Y3.4374 F120.00
G01 X1.3142 Y3.4113 F120.00
G01 X1.3238 Y3.3991 F120.00
G01 X1.3340 Y3.3873 F120.00
G01 X1.3558 Y3.3632 F120.00
G01 X1.3665 Y3.3520 F120.00
G01 X3.5891 Y1.1294 F120.00
G01 X3.6004 Y1.1186 F120.00
G01 X3.6244 Y1.0969 F120.00
G01 X3.6362 Y1.0867 F120.00
G01 X3.6485 Y1.0771 F120.00
G01 X3.6745 Y1.0578 F120.00
G01 X3.6873 Y1.0488 F120.00
G01 X3.7004 Y1.0405 F120.00
G01 X3.7283 Y1.0238 F120.00
G01 X3.7418 Y1.0161 F120.00
G01 X3.7557 Y1.0091 F120.00
G01 X3.7921 Y0.9920 F120.00
G01 X3.8065 Y0.9860 F120.00
G01 X3.8444 Y0.9724 F120.00
G01 X3.8592 Y0.9675 F120.00
G01 X3.8742 Y0.9634 F120.00
G01 X3.9132 Y0.9537 F120.00
G01 X3.9285 Y0.9506 F120.00
G01 X3.9683 Y0.9446 F120.00
G01 X3.9915 Y0.9421 F120.00
G01 X4.0316 Y0.9400 F120.00
G01 X4.0472 Y0.9396 F120.00
G01 X40.2422 Y0.9396 F120.00
G01 X40.2578 Y0.9400 F120.00
G01 X40.2902 Y0.9416 F120.00
G01 X40.3057 Y0.9427 F120.00
G01 X40.3212 Y0.9446 F120.00
G01 X40.3533 Y0.9494 F120.00
G01 X40.3686 Y0.9521 F120.00
G01 X40.3838 Y0.9555 F120.00
G01 X40.4153 Y0.9634 F120.00
G01 X40.4303 Y0.9675 F120.00
G01 X40.4451 Y0.9724 F120.00
G01 X40.4756 Y0.9833 F120.00
G01 X40.4902 Y0.9889 F120.00
G01 X40.5044 Y0.9953 F120.00
G01 X40.5337 Y1.0091 F120.00
G01 X40.5476 Y1.0161 F120.00
G01 X40.5612 Y1.0238 F120.00
G01 X40.5890 Y1.0405 F120.00
G01 X40.6022 Y1.0488 F120.00
G01 X40.6149 Y1.0578 F120.00
G01 X40.6409 Y1.0771 F120.00
G01 X40.6532 Y1.0867 F120.00
G01 X40.6650 Y1.0969 F120.00
G01 X40.6891 Y1.1186 F120.00
G01 X40.7003 Y1.1294 F120.00
G01 X41.6528 Y2.0819 F120.00
G01 X41.6636 Y2.0932 F120.00
G01 X41.6854 Y2.1172 F120.00
G01 X41.6955 Y2.1290 F120.00
G01 X41.7051 Y2.1413 F120.00
G01 X41.7244 Y2.1673 F120.00
G01 X41.7334 Y2.1801 F120.00
G01 X41.7418 Y2.1932 F120.00
G01 X41.7584 Y2.2210 F120.00
G01 X41.7697 Y2.2415 F120.00
G01 X41.7870 Y2.2778 F120.00
G01 X41.7933 Y2.2921 F120.00
G01 X41.7989 Y2.3066 F120.00
G01 X41.8098 Y2.3371 F120.00
G01 X41.8147 Y2.3519 F120.00
G01 X41.8189 Y2.3669 F120.00
G01 X41.8267 Y2.3984 F120.00
G01 X41.8302 Y2.4136 F120.00
G01 X41.8328 Y2.4290 F120.00
G01 X41.8386 Y2.4688 F120.00
G01 X41.8402 Y2.4843 F120.00
G01 X41.8422 Y2.5244 F120.00
G01 X41.8426 Y2.5400 F120.00
G01 X41.8426 Y5.3975 F120.00
G01 X41.8422 Y5.4131 F120.00
G01 X41.8406 Y5.4455 F120.00
G01 X41.8395 Y5.4610 F120.00
G01 X41.8376 Y5.4765 F120.00
G01 X41.8328 Y5.5085 F120.00
G01 X41.8285 Y5.5315 F120.00
G01 X41.8189 Y5.5706 F120.00
G01 X41.8147 Y5.5856 F120.00
G01 X41.8098 Y5.6004 F120.00
G01 X41.7989 Y5.6309 F120.00
G01 X41.7902 Y5.6526 F120.00
G01 X41.7697 Y5.6960 F120.00
G01 X41.7584 Y5.7165 F120.00
G01 X41.7418 Y5.7443 F120.00
G01 X41.7334 Y5.7574 F120.00
G01 X41.7244 Y5.7702 F120.00
G01 X41.7004 Y5.8024 F120.00
G01 X41.6854 Y5.8203 F120.00
G01 X41.6636 Y5.8443 F120.00
G01 X41.6528 Y5.8556 F120.00
G01 X41.0123 Y6.4961 F120.00
G01 X40.9767 Y6.5283 F120.00
G01 X40.9584 Y6.5429 F120.00
G01 X40.9324 Y6.5622 F120.00
G01 X40.9197 Y6.5712 F120.00
G01 X40.9065 Y6.5795 F120.00
G01 X40.8720 Y6.6001 F120.00
G01 X40.8512 Y6.6109 F120.00
G01 X40.8219 Y6.6247 F120.00
G01 X40.8077 Y6.6311 F120.00
G01 X40.7931 Y6.6367 F120.00
G01 X40.7626 Y6.6476 F120.00
G01 X40.7478 Y6.6525 F120.00
G01 X40.7328 Y6.6566 F120.00
G01 X40.7013 Y6.6645 F120.00
G01 X40.6861 Y6.6679 F120.00
G01 X40.6708 Y6.6706 F120.00
G01 X40.6310 Y6.6764 F120.00
G01 X40.6077 Y6.6784 F120.00
G01 X40.5753 Y6.6800 F120.00
G01 X40.5597 Y6.6804 F120.00
G01 X40.2522 Y6.6804 F120.00
G01 X40.2348 Y6.7036 F120.00
G01 X40.2249 Y6.7157 F120.00
G01 X40.1650 Y6.7818 F120.00
G01 X40.1483 Y6.7981 F120.00
G01 X40.0879 Y6.8527 F120.00
G01 X40.0697 Y6.8673 F120.00
G01 X40.0105 Y6.9111 F120.00
G01 X39.9978 Y6.9201 F120.00
G01 X39.9846 Y6.9284 F120.00
G01 X39.9215 Y6.9663 F120.00
G01 X39.9010 Y6.9776 F120.00
G01 X39.8204 Y7.0157 F120.00
G01 X39.7987 Y7.0244 F120.00
G01 X39.7294 Y7.0492 F120.00
G01 X39.7146 Y7.0540 F120.00
G01 X39.6996 Y7.0582 F120.00
G01 X39.6282 Y7.0761 F120.00
G01 X39.6130 Y7.0795 F120.00
G01 X39.5976 Y7.0822 F120.00
G01 X39.5248 Y7.0930 F120.00
G01 X39.5094 Y7.0949 F120.00
G01 X39.4938 Y7.0960 F120.00
G01 X39.4203 Y7.0996 F120.00
G01 X39.4047 Y7.1000 F120.00
G01 X37.9047 Y7.1000 F120.00
G01 X37.8891 Y7.0996 F120.00
G01 X37.8156 Y7.0960 F120.00
G01 X37.8001 Y7.0949 F120.00
G01 X37.7846 Y7.0930 F120.00
G01 X37.7041 Y7.0809 F120.00
G01 X37.6813 Y7.0761 F120.00
G01 X37.6099 Y7.0582 F120.00
G01 X37.5948 Y7.0540 F120.00
G01 X37.5800 Y7.0492 F120.00
G01 X37.5107 Y7.0244 F120.00
G01 X37.4962 Y7.0188 F120.00
G01 X37.4820 Y7.0124 F120.00
G01 X37.4154 Y6.9810 F120.00
G01 X37.4015 Y6.9740 F120.00
G01 X37.3879 Y6.9663 F120.00
G01 X37.3182 Y6.9244 F120.00
G01 X37.2989 Y6.9111 F120.00
G01 X37.2398 Y6.8673 F120.00
G01 X37.2275 Y6.8577 F120.00
G01 X37.2157 Y6.8475 F120.00
G01 X37.1555 Y6.7928 F120.00
G01 X37.1391 Y6.7761 F120.00
G01 X37.0845 Y6.7157 F120.00
G01 X37.0747 Y6.7036 F120.00
G01 X37.0573 Y6.6804 F120.00
G01 X35.9880 Y6.6804 F120.00
G01 X35.9693 Y6.6877 F120.00
G01 X35.9550 Y6.6925 F120.00
G01 X35.9404 Y6.6966 F120.00
G01 X35.9182 Y6.7014 F120.00
G01 X35.9033 Y6.7037 F120.00
G01 X35.8386 Y6.7123 F120.00
G01 X35.8221 Y6.7140 F120.00
G01 X35.8055 Y6.7149 F120.00
G01 X34.5272 Y6.7151 F120.00
G01 X34.5106 Y6.7146 F120.00
G01 X34.4940 Y6.7133 F120.00
G01 X34.4211 Y6.7038 F120.00
G01 X34.4061 Y6.7015 F120.00
G01 X34.3840 Y6.6967 F120.00
G01 X34.3694 Y6.6926 F120.00
G01 X34.3551 Y6.6879 F120.00
G01 X34.3388 Y6.6815 F120.00
G01 X33.8429 Y6.6806 F120.00
G01 X33.2701 Y7.2534 F120.00
G01 X33.2701 Y7.2817 F120.00
G01 X33.2866 Y7.3092 F120.00
G01 X33.2943 Y7.3228 F120.00
G01 X33.3013 Y7.3367 F120.00
G01 X33.3232 Y7.3832 F120.00
G01 X33.3318 Y7.4049 F120.00
G01 X33.3465 Y7.4460 F120.00
G01 X33.3514 Y7.4608 F120.00
G01 X33.3556 Y7.4758 F120.00
G01 X33.3662 Y7.5181 F120.00
G01 X33.3696 Y7.5333 F120.00
G01 X33.3723 Y7.5487 F120.00
G01 X33.3787 Y7.5918 F120.00
G01 X33.3806 Y7.6073 F120.00
G01 X33.3817 Y7.6229 F120.00
G01 X33.3839 Y7.6664 F120.00
G01 X33.3842 Y7.6820 F120.00
G01 X33.3842 Y8.1930 F120.00
G01 X33.3839 Y8.2086 F120.00
G01 X33.3812 Y8.2599 F120.00
G01 X33.3787 Y8.2832 F120.00
G01 X33.3723 Y8.3263 F120.00
G01 X33.3696 Y8.3417 F120.00
G01 X33.3662 Y8.3569 F120.00
G01 X33.3556 Y8.3992 F120.00
G01 X33.3491 Y8.4216 F120.00
G01 X33.3318 Y8.4701 F120.00
G01 X33.3232 Y8.4918 F120.00
G01 X33.2979 Y8.5453 F120.00
G01 X33.2866 Y8.5658 F120.00
G01 X33.2601 Y8.6098 F120.00
G01 X33.2468 Y8.6291 F120.00
G01 X33.2209 Y8.6641 F120.00
G01 X33.2113 Y8.6764 F120.00
G01 X33.2011 Y8.6882 F120.00
G01 X33.1718 Y8.7205 F120.00
G01 X33.1611 Y8.7318 F120.00
G01 X33.1498 Y8.7426 F120.00
G01 X33.1174 Y8.7719 F120.00
G01 X33.1056 Y8.7820 F120.00
G01 X33.0934 Y8.7916 F120.00
G01 X33.0583 Y8.8176 F120.00
G01 X33.0390 Y8.8308 F120.00
G01 X32.9950 Y8.8574 F120.00
G01 X32.9814 Y8.8650 F120.00
G01 X32.9675 Y8.8720 F120.00
G01 X32.9281 Y8.8907 F120.00
G01 X32.9138 Y8.8970 F120.00
G01 X32.8993 Y8.9026 F120.00
G01 X32.8582 Y8.9173 F120.00
G01 X32.8434 Y8.9222 F120.00
G01 X32.8284 Y8.9264 F120.00
G01 X32.7861 Y8.9370 F120.00
G01 X32.7709 Y8.9404 F120.00
G01 X32.7555 Y8.9430 F120.00
G01 X32.7124 Y8.9494 F120.00
G01 X32.6969 Y8.9513 F120.00
G01 X32.6814 Y8.9525 F120.00
G01 X32.6378 Y8.9546 F120.00
G01 X32.6222 Y8.9550 F120.00
G01 X32.6066 Y8.9546 F120.00
G01 X32.5631 Y8.9525 F120.00
G01 X32.5475 Y8.9513 F120.00
G01 X32.5321 Y8.9494 F120.00
G01 X32.4889 Y8.9430 F120.00
G01 X32.4736 Y8.9404 F120.00
G01 X32.4584 Y8.9370 F120.00
G01 X32.4160 Y8.9264 F120.00
G01 X32.4010 Y8.9222 F120.00
G01 X32.3862 Y8.9173 F120.00
G01 X32.3452 Y8.9026 F120.00
G01 X32.3306 Y8.8970 F120.00
G01 X32.3164 Y8.8907 F120.00
G01 X32.2769 Y8.8720 F120.00
G01 X32.2630 Y8.8650 F120.00
G01 X32.2495 Y8.8574 F120.00
G01 X32.2120 Y8.8349 F120.00
G01 X32.1989 Y8.8266 F120.00
G01 X32.1861 Y8.8176 F120.00
G01 X32.1511 Y8.7916 F120.00
G01 X32.1388 Y8.7820 F120.00
G01 X32.1270 Y8.7719 F120.00
G01 X32.0947 Y8.7426 F120.00
G01 X32.0834 Y8.7318 F120.00
G01 X32.0726 Y8.7205 F120.00
G01 X32.0434 Y8.6882 F120.00
G01 X32.0332 Y8.6764 F120.00
G01 X32.0236 Y8.6641 F120.00
G01 X31.9976 Y8.6291 F120.00
G01 X31.9872 Y8.6142 F120.00
G01 X31.9768 Y8.6291 F120.00
G01 X31.9509 Y8.6641 F120.00
G01 X31.9413 Y8.6764 F120.00
G01 X31.9311 Y8.6882 F120.00
G01 X31.9018 Y8.7205 F120.00
G01 X31.8911 Y8.7318 F120.00
G01 X31.8798 Y8.7426 F120.00
G01 X31.8474 Y8.7719 F120.00
G01 X31.8296 Y8.7869 F120.00
G01 X31.7883 Y8.8176 F120.00
G01 X31.7756 Y8.8266 F120.00
G01 X31.7624 Y8.8349 F120.00
G01 X31.7183 Y8.8613 F120.00
G01 X31.6975 Y8.8720 F120.00
G01 X31.6581 Y8.8907 F120.00
G01 X31.6438 Y8.8970 F120.00
G01 X31.6293 Y8.9026 F120.00
G01 X31.5882 Y8.9173 F120.00
G01 X31.5659 Y8.9244 F120.00
G01 X31.5161 Y8.9370 F120.00
G01 X31.5009 Y8.9404 F120.00
G01 X31.4855 Y8.9430 F120.00
G01 X31.4347 Y8.9505 F120.00
G01 X31.4114 Y8.9525 F120.00
G01 X31.3678 Y8.9546 F120.00
G01 X31.3522 Y8.9550 F120.00
G01 X31.3366 Y8.9546 F120.00
G01 X31.2853 Y8.9520 F120.00
G01 X31.2621 Y8.9494 F120.00
G01 X31.2189 Y8.9430 F120.00
G01 X31.2036 Y8.9404 F120.00
G01 X31.1884 Y8.9370 F120.00
G01 X31.1460 Y8.9264 F120.00
G01 X31.1310 Y8.9222 F120.00
G01 X31.1162 Y8.9173 F120.00
G01 X31.0752 Y8.9026 F120.00
G01 X31.0606 Y8.8970 F120.00
G01 X31.0464 Y8.8907 F120.00
G01 X31.0069 Y8.8720 F120.00
G01 X30.9862 Y8.8613 F120.00
G01 X30.9420 Y8.8349 F120.00
G01 X30.9224 Y8.8222 F120.00
G01 X30.8749 Y8.7869 F120.00
G01 X30.8570 Y8.7719 F120.00
G01 X30.8190 Y8.7373 F120.00
G01 X30.8026 Y8.7205 F120.00
G01 X30.7734 Y8.6882 F120.00
G01 X30.7632 Y8.6764 F120.00
G01 X30.7536 Y8.6641 F120.00
G01 X30.7301 Y8.6325 F120.00
G01 X30.7301 Y9.2566 F120.00
G01 X31.9381 Y10.4646 F120.00
G01 X37.0573 Y10.4646 F120.00
G01 X37.0747 Y10.4414 F120.00
G01 X37.0845 Y10.4293 F120.00
G01 X37.1444 Y10.3632 F120.00
G01 X37.1612 Y10.3469 F120.00
G01 X37.2215 Y10.2923 F120.00
G01 X37.2398 Y10.2777 F120.00
G01 X37.2989 Y10.2339 F120.00
G01 X37.3116 Y10.2249 F120.00
G01 X37.3248 Y10.2166 F120.00
G01 X37.3947 Y10.1748 F120.00
G01 X37.4154 Y10.1640 F120.00
G01 X37.4820 Y10.1326 F120.00
G01 X37.4962 Y10.1262 F120.00
G01 X37.5107 Y10.1206 F120.00
G01 X37.5800 Y10.0958 F120.00
G01 X37.5948 Y10.0910 F120.00
G01 X37.6099 Y10.0868 F120.00
G01 X37.6813 Y10.0689 F120.00
G01 X37.6965 Y10.0655 F120.00
G01 X37.7118 Y10.0628 F120.00
G01 X37.7923 Y10.0510 F120.00
G01 X37.8156 Y10.0490 F120.00
G01 X37.8891 Y10.0454 F120.00
G01 X37.9047 Y10.0450 F120.00
G01 X39.4047 Y10.0450 F120.00
G01 X39.4203 Y10.0454 F120.00
G01 X39.4938 Y10.0490 F120.00
G01 X39.5094 Y10.0501 F120.00
G01 X39.5248 Y10.0520 F120.00
G01 X39.5976 Y10.0628 F120.00
G01 X39.6130 Y10.0655 F120.00
G01 X39.6282 Y10.0689 F120.00
G01 X39.6996 Y10.0868 F120.00
G01 X39.7146 Y10.0910 F120.00
G01 X39.7294 Y10.0958 F120.00
G01 X39.7987 Y10.1206 F120.00
G01 X39.8132 Y10.1262 F120.00
G01 X39.8275 Y10.1326 F120.00
G01 X39.8940 Y10.1640 F120.00
G01 X39.9079 Y10.1710 F120.00
G01 X39.9215 Y10.1787 F120.00
G01 X39.9846 Y10.2166 F120.00
G01 X39.9978 Y10.2249 F120.00
G01 X40.0105 Y10.2339 F120.00
G01 X40.0697 Y10.2777 F120.00
G01 X40.0819 Y10.2873 F120.00
G01 X40.0937 Y10.2975 F120.00
G01 X40.1483 Y10.3469 F120.00
G01 X40.1596 Y10.3577 F120.00
G01 X40.1703 Y10.3689 F120.00
G01 X40.2249 Y10.4293 F120.00
G01 X40.2395 Y10.4476 F120.00
G01 X40.2834 Y10.5067 F120.00
G01 X40.2923 Y10.5194 F120.00
G01 X40.3007 Y10.5326 F120.00
G01 X40.3385 Y10.5957 F120.00
G01 X40.3462 Y10.6093 F120.00
G01 X40.3532 Y10.6232 F120.00
G01 X40.3847 Y10.6897 F120.00
G01 X40.3910 Y10.7040 F120.00
G01 X40.3966 Y10.7185 F120.00
G01 X40.4214 Y10.7878 F120.00
G01 X40.4284 Y10.8101 F120.00
G01 X40.4483 Y10.8890 F120.00
G01 X40.4517 Y10.9042 F120.00
G01 X40.4544 Y10.9196 F120.00
G01 X40.4652 Y10.9924 F120.00
G01 X40.4671 Y11.0079 F120.00
G01 X40.4682 Y11.0234 F120.00
G01 X40.4719 Y11.0969 F120.00
G01 X40.4722 Y11.1125 F120.00
G01 X40.4719 Y11.1281 F120.00
G01 X40.4682 Y11.2016 F120.00
G01 X40.4671 Y11.2171 F120.00
G01 X40.4652 Y11.2326 F120.00
G01 X40.4544 Y11.3054 F120.00
G01 X40.4517 Y11.3208 F120.00
G01 X40.4483 Y11.3360 F120.00
G01 X40.4284 Y11.4149 F120.00
G01 X40.4214 Y11.4372 F120.00
G01 X40.3966 Y11.5065 F120.00
G01 X40.3910 Y11.5210 F120.00
G01 X40.3847 Y11.5353 F120.00
G01 X40.3532 Y11.6018 F120.00
G01 X40.3462 Y11.6157 F120.00
G01 X40.3385 Y11.6293 F120.00
G01 X40.3007 Y11.6924 F120.00
G01 X40.2923 Y11.7056 F120.00
G01 X40.2834 Y11.7183 F120.00
G01 X40.2395 Y11.7774 F120.00
G01 X40.2249 Y11.7957 F120.00
G01 X40.1703 Y11.8561 F120.00
G01 X40.1596 Y11.8673 F120.00
G01 X40.1483 Y11.8781 F120.00
G01 X40.0937 Y11.9275 F120.00
G01 X40.0819 Y11.9377 F120.00
G01 X40.0697 Y11.9473 F120.00
G01 X40.0105 Y11.9911 F120.00
G01 X39.9978 Y12.0001 F120.00
G01 X39.9846 Y12.0084 F120.00
G01 X39.9215 Y12.0463 F120.00
G01 X39.9079 Y12.0540 F120.00
G01 X39.8940 Y12.0610 F120.00
G01 X39.8275 Y12.0924 F120.00
G01 X39.8132 Y12.0988 F120.00
G01 X39.7987 Y12.1044 F120.00
G01 X39.7220 Y12.1317 F120.00
G01 X39.6996 Y12.1382 F120.00
G01 X39.6282 Y12.1561 F120.00
G01 X39.6130 Y12.1595 F120.00
G01 X39.5976 Y12.1622 F120.00
G01 X39.5248 Y12.1730 F120.00
G01 X39.5016 Y12.1755 F120.00
G01 X39.4203 Y12.1796 F120.00
G01 X39.4047 Y12.1800 F120.00
G01 X37.9047 Y12.1800 F120.00
G01 X37.8891 Y12.1796 F120.00
G01 X37.8156 Y12.1760 F120.00
G01 X37.8001 Y12.1749 F120.00
G01 X37.7846 Y12.1730 F120.00
G01 X37.7041 Y12.1609 F120.00
G01 X37.6813 Y12.1561 F120.00
G01 X37.6099 Y12.1382 F120.00
G01 X37.5948 Y12.1340 F120.00
G01 X37.5800 Y12.1292 F120.00
G01 X37.5107 Y12.1044 F120.00
G01 X37.4962 Y12.0988 F120.00
G01 X37.4820 Y12.0924 F120.00
G01 X37.4154 Y12.0610 F120.00
G01 X37.4015 Y12.0540 F120.00
G01 X37.3879 Y12.0463 F120.00
G01 X37.3182 Y12.0044 F120.00
G01 X37.2989 Y11.9911 F120.00
G01 X37.2398 Y11.9473 F120.00
G01 X37.2275 Y11.9377 F120.00
G01 X37.2157 Y11.9275 F120.00
G01 X37.1555 Y11.8728 F120.00
G01 X37.1391 Y11.8561 F120.00
G01 X37.0845 Y11.7957 F120.00
G01 X37.0747 Y11.7836 F120.00
G01 X37.0573 Y11.7604 F120.00
G01 X31.6619 Y11.7603 F120.00
G01 X31.6218 Y11.7584 F120.00
G01 X31.6062 Y11.7573 F120.00
G01 X31.5908 Y11.7554 F120.00
G01 X31.5587 Y11.7506 F120.00
G01 X31.5433 Y11.7479 F120.00
G01 X31.5281 Y11.7445 F120.00
G01 X31.4967 Y11.7366 F120.00
G01 X31.4817 Y11.7325 F120.00
G01 X31.4669 Y11.7276 F120.00
G01 X31.4363 Y11.7167 F120.00
G01 X31.4218 Y11.7111 F120.00
G01 X31.4075 Y11.7047 F120.00
G01 X31.3782 Y11.6909 F120.00
G01 X31.3643 Y11.6839 F120.00
G01 X31.3508 Y11.6762 F120.00
G01 X31.3229 Y11.6595 F120.00
G01 X31.3098 Y11.6512 F120.00
G01 X31.2970 Y11.6422 F120.00
G01 X31.2710 Y11.6229 F120.00
G01 X31.2587 Y11.6133 F120.00
G01 X31.2469 Y11.6031 F120.00
G01 X31.2229 Y11.5814 F120.00
G01 X31.2116 Y11.5706 F120.00
G01 X29.6241 Y9.9831 F120.00
G01 X29.6134 Y9.9718 F120.00
G01 X29.5864 Y9.9420 F120.00
G01 X29.5718 Y9.9237 F120.00
G01 X29.5525 Y9.8977 F120.00
G01 X29.5435 Y9.8849 F120.00
G01 X29.5352 Y9.8718 F120.00
G01 X29.5146 Y9.8372 F120.00
G01 X29.5038 Y9.8165 F120.00
G01 X29.4900 Y9.7872 F120.00
G01 X29.4837 Y9.7729 F120.00
G01 X29.4780 Y9.7584 F120.00
G01 X29.4671 Y9.7279 F120.00
G01 X29.4622 Y9.7131 F120.00
G01 X29.4581 Y9.6981 F120.00
G01 X29.4502 Y9.6666 F120.00
G01 X29.4468 Y9.6514 F120.00
G01 X29.4441 Y9.6360 F120.00
G01 X29.4394 Y9.6040 F120.00
G01 X29.4368 Y9.5807 F120.00
G01 X29.4347 Y9.5406 F120.00
G01 X29.4343 Y9.5250 F120.00
G01 X29.4343 Y8.5933 F120.00
G01 X29.4179 Y8.5658 F120.00
G01 X29.4102 Y8.5522 F120.00
G01 X29.4032 Y8.5383 F120.00
G01 X29.3845 Y8.4989 F120.00
G01 X29.3753 Y8.4774 F120.00
G01 X29.3554 Y8.4216 F120.00
G01 X29.3489 Y8.3992 F120.00
G01 X29.3383 Y8.3569 F120.00
G01 X29.3348 Y8.3417 F120.00
G01 X29.3322 Y8.3263 F120.00
G01 X29.3258 Y8.2832 F120.00
G01 X29.3232 Y8.2599 F120.00
G01 X29.3206 Y8.2086 F120.00
G01 X29.3202 Y8.1930 F120.00
G01 X29.3203 Y7.6742 F120.00
G01 X29.3232 Y7.6151 F120.00
G01 X29.3258 Y7.5918 F120.00
G01 X29.3322 Y7.5487 F120.00
G01 X29.3348 Y7.5333 F120.00
G01 X29.3383 Y7.5181 F120.00
G01 X29.3508 Y7.4683 F120.00
G01 X29.3554 Y7.4534 F120.00
G01 X29.3726 Y7.4049 F120.00
G01 X29.3782 Y7.3904 F120.00
G01 X29.3845 Y7.3761 F120.00
G01 X29.4066 Y7.3297 F120.00
G01 X29.4139 Y7.3160 F120.00
G01 X29.4403 Y7.2718 F120.00
G01 X29.4530 Y7.2522 F120.00
G01 X29.4836 Y7.2109 F120.00
G01 X29.4932 Y7.1986 F120.00
G01 X29.5034 Y7.1868 F120.00
G01 X29.5326 Y7.1545 F120.00
G01 X29.5434 Y7.1432 F120.00
G01 X29.5547 Y7.1324 F120.00
G01 X29.5870 Y7.1031 F120.00
G01 X29.5988 Y7.0930 F120.00
G01 X29.6111 Y7.0834 F120.00
G01 X29.6461 Y7.0574 F120.00
G01 X29.6654 Y7.0442 F120.00
G01 X29.7162 Y7.0137 F120.00
G01 X29.7369 Y7.0030 F120.00
G01 X29.7834 Y6.9811 F120.00
G01 X29.8052 Y6.9724 F120.00
G01 X29.8462 Y6.9577 F120.00
G01 X29.8610 Y6.9528 F120.00
G01 X29.8760 Y6.9486 F120.00
G01 X29.9259 Y6.9362 F120.00
G01 X29.9489 Y6.9320 F120.00
G01 X29.9921 Y6.9256 F120.00
G01 X30.0075 Y6.9237 F120.00
G01 X30.0231 Y6.9225 F120.00
G01 X30.0666 Y6.9204 F120.00
G01 X30.0822 Y6.9200 F120.00
G01 X30.0978 Y6.9204 F120.00
G01 X30.1414 Y6.9225 F120.00
G01 X30.1569 Y6.9237 F120.00
G01 X30.1724 Y6.9256 F120.00
G01 X30.2232 Y6.9332 F120.00
G01 X30.2461 Y6.9380 F120.00
G01 X30.2884 Y6.9486 F120.00
G01 X30.3034 Y6.9528 F120.00
G01 X30.3182 Y6.9577 F120.00
G01 X30.3593 Y6.9724 F120.00
G01 X30.3738 Y6.9780 F120.00
G01 X30.3881 Y6.9843 F120.00
G01 X30.4275 Y7.0030 F120.00
G01 X30.4414 Y7.0100 F120.00
G01 X30.4550 Y7.0176 F120.00
G01 X30.4990 Y7.0442 F120.00
G01 X30.5183 Y7.0574 F120.00
G01 X30.5534 Y7.0834 F120.00
G01 X30.5656 Y7.0930 F120.00
G01 X30.5774 Y7.1031 F120.00
G01 X30.6155 Y7.1377 F120.00
G01 X30.6318 Y7.1545 F120.00
G01 X30.6663 Y7.1926 F120.00
G01 X30.6761 Y7.2047 F120.00
G01 X30.7043 Y7.2425 F120.00
G01 X30.7043 Y4.1404 F120.00
G01 X19.5556 Y4.1404 F120.00
G01 X16.5703 Y7.1256 F120.00
G01 X16.5591 Y7.1364 F120.00
G01 X16.5350 Y7.1581 F120.00
G01 X16.5232 Y7.1683 F120.00
G01 X16.5109 Y7.1779 F120.00
G01 X16.4849 Y7.1972 F120.00
G01 X16.4722 Y7.2062 F120.00
G01 X16.4590 Y7.2145 F120.00
G01 X16.4312 Y7.2312 F120.00
G01 X16.4176 Y7.2389 F120.00
G01 X16.4037 Y7.2459 F120.00
G01 X16.3744 Y7.2597 F120.00
G01 X16.3529 Y7.2690 F120.00
G01 X16.3151 Y7.2826 F120.00
G01 X16.3003 Y7.2875 F120.00
G01 X16.2853 Y7.2916 F120.00
G01 X16.2538 Y7.2995 F120.00
G01 X16.2386 Y7.3029 F120.00
G01 X16.2233 Y7.3056 F120.00
G01 X16.1912 Y7.3104 F120.00
G01 X16.1757 Y7.3123 F120.00
G01 X16.1602 Y7.3134 F120.00
G01 X16.1278 Y7.3150 F120.00
G01 X16.1122 Y7.3154 F120.00
G01 X10.8197 Y7.3154 F120.00
G01 X10.8023 Y7.3386 F120.00
G01 X10.7924 Y7.3507 F120.00
G01 X10.7325 Y7.4168 F120.00
G01 X10.7158 Y7.4331 F120.00
G01 X10.6554 Y7.4877 F120.00
G01 X10.6372 Y7.5023 F120.00
G01 X10.5781 Y7.5461 F120.00
G01 X10.5653 Y7.5551 F120.00
G01 X10.5521 Y7.5634 F120.00
G01 X10.4890 Y7.6013 F120.00
G01 X10.4685 Y7.6126 F120.00
G01 X10.3879 Y7.6507 F120.00
G01 X10.3662 Y7.6594 F120.00
G01 X10.2969 Y7.6842 F120.00
G01 X10.2821 Y7.6890 F120.00
G01 X10.2671 Y7.6932 F120.00
G01 X10.1957 Y7.7111 F120.00
G01 X10.1805 Y7.7145 F120.00
G01 X10.1651 Y7.7172 F120.00
G01 X10.0923 Y7.7280 F120.00
G01 X10.0769 Y7.7299 F120.00
G01 X10.0613 Y7.7310 F120.00
G01 X9.9800 Y7.7349 F120.00
G01 X9.9567 Y7.7346 F120.00
G01 X9.8831 Y7.7310 F120.00
G01 X9.8676 Y7.7299 F120.00
G01 X9.8521 Y7.7280 F120.00
G01 X9.7793 Y7.7172 F120.00
G01 X9.7640 Y7.7145 F120.00
G01 X9.7488 Y7.7111 F120.00
G01 X9.6774 Y7.6932 F120.00
G01 X9.6623 Y7.6890 F120.00
G01 X9.6475 Y7.6842 F120.00
G01 X9.5783 Y7.6594 F120.00
G01 X9.5637 Y7.6538 F120.00
G01 X9.5495 Y7.6474 F120.00
G01 X9.4829 Y7.6160 F120.00
G01 X9.4690 Y7.6090 F120.00
G01 X9.4554 Y7.6013 F120.00
G01 X9.3923 Y7.5634 F120.00
G01 X9.3792 Y7.5551 F120.00
G01 X9.3664 Y7.5461 F120.00
G01 X9.3073 Y7.5023 F120.00
G01 X9.2950 Y7.4927 F120.00
G01 X9.2832 Y7.4825 F120.00
G01 X9.2287 Y7.4331 F120.00
G01 X9.2174 Y7.4223 F120.00
G01 X9.2066 Y7.4111 F120.00
G01 X9.1572 Y7.3565 F120.00
G01 X9.1470 Y7.3447 F120.00
G01 X9.1374 Y7.3324 F120.00
G01 X9.0936 Y7.2733 F120.00
G01 X9.0846 Y7.2606 F120.00
G01 X9.0763 Y7.2474 F120.00
G01 X9.0384 Y7.1843 F120.00
G01 X9.0272 Y7.1638 F120.00
G01 X8.9923 Y7.0903 F120.00
G01 X8.9860 Y7.0760 F120.00
G01 X8.9804 Y7.0615 F120.00
G01 X8.9556 Y6.9922 F120.00
G01 X8.9485 Y6.9699 F120.00
G01 X8.9286 Y6.8910 F120.00
G01 X8.9252 Y6.8758 F120.00
G01 X8.9226 Y6.8604 F120.00
G01 X8.9118 Y6.7876 F120.00
G01 X8.9099 Y6.7721 F120.00
G01 X8.9087 Y6.7566 F120.00
G01 X8.9051 Y6.6831 F120.00
G01 X8.9047 Y6.6675 F120.00
G01 X8.9051 Y6.6519 F120.00
G01 X8.9087 Y6.5784 F120.00
G01 X8.9099 Y6.5629 F120.00
G01 X8.9118 Y6.5474 F120.00
G01 X8.9238 Y6.4669 F120.00
G01 X8.9286 Y6.4440 F120.00
G01 X8.9465 Y6.3726 F120.00
G01 X8.9507 Y6.3576 F120.00
G01 X8.9556 Y6.3428 F120.00
G01 X8.9804 Y6.2735 F120.00
G01 X8.9860 Y6.2590 F120.00
G01 X8.9923 Y6.2447 F120.00
G01 X9.0238 Y6.1782 F120.00
G01 X9.0308 Y6.1643 F120.00
G01 X9.0384 Y6.1507 F120.00
G01 X9.0804 Y6.0810 F120.00
G01 X9.0936 Y6.0617 F120.00
G01 X9.1374 Y6.0026 F120.00
G01 X9.1470 Y5.9903 F120.00
G01 X9.1572 Y5.9785 F120.00
G01 X9.2119 Y5.9182 F120.00
G01 X9.2287 Y5.9019 F120.00
G01 X9.2890 Y5.8473 F120.00
G01 X9.3011 Y5.8374 F120.00
G01 X9.3243 Y5.8201 F120.00
G01 X9.3243 Y5.4793 F120.00
G01 X8.3029 Y4.4579 F120.00
G01 X6.1415 Y4.4579 F120.00
G01 X5.1201 Y5.4793 F120.00
G01 X5.1201 Y5.8201 F120.00
G01 X5.1434 Y5.8374 F120.00
G01 X5.1554 Y5.8473 F120.00
G01 X5.2215 Y5.9072 F120.00
G01 X5.2378 Y5.9239 F120.00
G01 X5.2924 Y5.9843 F120.00
G01 X5.3070 Y6.0026 F120.00
G01 X5.3508 Y6.0617 F120.00
G01 X5.3598 Y6.0744 F120.00
G01 X5.3682 Y6.0876 F120.00
G01 X5.4060 Y6.1507 F120.00
G01 X5.4173 Y6.1712 F120.00
G01 X5.4554 Y6.2518 F120.00
G01 X5.4641 Y6.2735 F120.00
G01 X5.4889 Y6.3428 F120.00
G01 X5.4938 Y6.3576 F120.00
G01 X5.4979 Y6.3726 F120.00
G01 X5.5158 Y6.4440 F120.00
G01 X5.5192 Y6.4592 F120.00
G01 X5.5219 Y6.4746 F120.00
G01 X5.5327 Y6.5474 F120.00
G01 X5.5346 Y6.5629 F120.00
G01 X5.5357 Y6.5784 F120.00
G01 X5.5396 Y6.6597 F120.00
G01 X5.5393 Y6.6831 F120.00
G01 X5.5357 Y6.7566 F120.00
G01 X5.5346 Y6.7721 F120.00
G01 X5.5327 Y6.7876 F120.00
G01 X5.5219 Y6.8604 F120.00
G01 X5.5192 Y6.8758 F120.00
G01 X5.5158 Y6.8910 F120.00
G01 X5.4979 Y6.9624 F120.00
G01 X5.4938 Y6.9774 F120.00
G01 X5.4889 Y6.9922 F120.00
G01 X5.4641 Y7.0615 F120.00
G01 X5.4585 Y7.0760 F120.00
G01 X5.4522 Y7.0903 F120.00
G01 X5.4207 Y7.1568 F120.00
G01 X5.4137 Y7.1707 F120.00
G01 X5.4060 Y7.1843 F120.00
G01 X5.3682 Y7.2474 F120.00
G01 X5.3554 Y7.2670 F120.00
G01 X5.3070 Y7.3324 F120.00
G01 X5.2974 Y7.3447 F120.00
G01 X5.2872 Y7.3565 F120.00
G01 X5.2378 Y7.4111 F120.00
G01 X5.2271 Y7.4223 F120.00
G01 X5.2158 Y7.4331 F120.00
G01 X5.1612 Y7.4825 F120.00
G01 X5.1494 Y7.4927 F120.00
G01 X5.1372 Y7.5023 F120.00
G01 X5.0780 Y7.5461 F120.00
G01 X5.0653 Y7.5551 F120.00
G01 X5.0521 Y7.5634 F120.00
G01 X4.9890 Y7.6013 F120.00
G01 X4.9754 Y7.6090 F120.00
G01 X4.9615 Y7.6160 F120.00
G01 X4.8950 Y7.6474 F120.00
G01 X4.8807 Y7.6538 F120.00
G01 X4.8662 Y7.6594 F120.00
G01 X4.7969 Y7.6842 F120.00
G01 X4.7821 Y7.6890 F120.00
G01 X4.7671 Y7.6932 F120.00
G01 X4.6957 Y7.7111 F120.00
G01 X4.6805 Y7.7145 F120.00
G01 X4.6651 Y7.7172 F120.00
G01 X4.5923 Y7.7280 F120.00
G01 X4.5769 Y7.7299 F120.00
G01 X4.5613 Y7.7310 F120.00
G01 X4.4878 Y7.7346 F120.00
G01 X4.4722 Y7.7350 F120.00
G01 X4.4566 Y7.7346 F120.00
G01 X4.3831 Y7.7310 F120.00
G01 X4.3676 Y7.7299 F120.00
G01 X4.3521 Y7.7280 F120.00
G01 X4.2793 Y7.7172 F120.00
G01 X4.2640 Y7.7145 F120.00
G01 X4.2487 Y7.7111 F120.00
G01 X4.1774 Y7.6932 F120.00
G01 X4.1623 Y7.6890 F120.00
G01 X4.1475 Y7.6842 F120.00
G01 X4.0782 Y7.6594 F120.00
G01 X4.0637 Y7.6538 F120.00
G01 X4.0494 Y7.6474 F120.00
G01 X3.9829 Y7.6160 F120.00
G01 X3.9622 Y7.6052 F120.00
G01 X3.8923 Y7.5634 F120.00
G01 X3.8791 Y7.5551 F120.00
G01 X3.8664 Y7.5461 F120.00
G01 X3.8073 Y7.5023 F120.00
G01 X3.7950 Y7.4927 F120.00
G01 X3.7832 Y7.4825 F120.00
G01 X3.7229 Y7.4278 F120.00
G01 X3.7066 Y7.4111 F120.00
G01 X3.6572 Y7.3565 F120.00
G01 X3.6470 Y7.3447 F120.00
G01 X3.6374 Y7.3324 F120.00
G01 X3.5936 Y7.2733 F120.00
G01 X3.5846 Y7.2606 F120.00
G01 X3.5763 Y7.2474 F120.00
G01 X3.5384 Y7.1843 F120.00
G01 X3.5308 Y7.1707 F120.00
G01 X3.5237 Y7.1568 F120.00
G01 X3.4923 Y7.0903 F120.00
G01 X3.4831 Y7.0688 F120.00
G01 X3.4556 Y6.9922 F120.00
G01 X3.4507 Y6.9774 F120.00
G01 X3.4465 Y6.9624 F120.00
G01 X3.4286 Y6.8910 F120.00
G01 X3.4252 Y6.8758 F120.00
G01 X3.4225 Y6.8604 F120.00
G01 X3.4117 Y6.7876 F120.00
G01 X3.4098 Y6.7721 F120.00
G01 X3.4087 Y6.7566 F120.00
G01 X3.4051 Y6.6831 F120.00
G01 X3.4047 Y6.6675 F120.00
G01 X3.4051 Y6.6519 F120.00
G01 X3.4087 Y6.5784 F120.00
G01 X3.4098 Y6.5629 F120.00
G01 X3.4117 Y6.5474 F120.00
G01 X3.4225 Y6.4746 F120.00
G01 X3.4268 Y6.4516 F120.00
G01 X3.4465 Y6.3726 F120.00
G01 X3.4507 Y6.3576 F120.00
G01 X3.4556 Y6.3428 F120.00
G01 X3.4804 Y6.2735 F120.00
G01 X3.4860 Y6.2590 F120.00
G01 X3.4923 Y6.2447 F120.00
G01 X3.5272 Y6.1712 F120.00
G01 X3.5384 Y6.1507 F120.00
G01 X3.5763 Y6.0876 F120.00
G01 X3.5846 Y6.0744 F120.00
G01 X3.5936 Y6.0617 F120.00
G01 X3.6374 Y6.0026 F120.00
G01 X3.6520 Y5.9843 F120.00
G01 X3.7066 Y5.9239 F120.00
G01 X3.7229 Y5.9072 F120.00
G01 X3.7890 Y5.8473 F120.00
G01 X3.8011 Y5.8374 F120.00
G01 X3.8243 Y5.8201 F120.00
G01 X3.8243 Y5.2109 F120.00
G01 X3.8247 Y5.1954 F120.00
G01 X3.8263 Y5.1630 F120.00
G01 X3.8283 Y5.1397 F120.00
G01 X3.8354 Y5.0922 F120.00
G01 X3.8402 Y5.0693 F120.00
G01 X3.8481 Y5.0379 F120.00
G01 X3.8522 Y5.0229 F120.00
G01 X3.8571 Y5.0081 F120.00
G01 X3.8680 Y4.9775 F120.00
G01 X3.8767 Y4.9558 F120.00
G01 X3.8938 Y4.9194 F120.00
G01 X3.9008 Y4.9055 F120.00
G01 X3.9085 Y4.8920 F120.00
G01 X3.9252 Y4.8642 F120.00
G01 X3.9379 Y4.8446 F120.00
G01 X3.9618 Y4.8122 F120.00
G01 X3.9714 Y4.7999 F120.00
G01 X3.9816 Y4.7881 F120.00
G01 X4.0033 Y4.7641 F120.00
G01 X4.0141 Y4.7528 F120.00
G01 X5.4150 Y3.3519 F120.00
G01 X5.4263 Y3.3411 F120.00
G01 X5.4503 Y3.3194 F120.00
G01 X5.4621 Y3.3092 F120.00
G01 X5.4744 Y3.2996 F120.00
G01 X5.5068 Y3.2757 F120.00
G01 X5.5197 Y3.2671 F120.00
G01 X5.5542 Y3.2463 F120.00
G01 X5.5677 Y3.2386 F120.00
G01 X5.5817 Y3.2316 F120.00
G01 X5.6181 Y3.2145 F120.00
G01 X5.6325 Y3.2085 F120.00
G01 X5.6703 Y3.1949 F120.00
G01 X5.6851 Y3.1900 F120.00
G01 X5.7001 Y3.1859 F120.00
G01 X5.7316 Y3.1780 F120.00
G01 X5.7468 Y3.1746 F120.00
G01 X5.7621 Y3.1719 F120.00
G01 X5.7942 Y3.1671 F120.00
G01 X5.8096 Y3.1652 F120.00
G01 X5.8252 Y3.1641 F120.00
G01 X5.8576 Y3.1625 F120.00
G01 X5.8732 Y3.1621 F120.00
G01 X8.5791 Y3.1622 F120.00
G01 X8.6270 Y3.1646 F120.00
G01 X8.6503 Y3.1671 F120.00
G01 X8.6823 Y3.1719 F120.00
G01 X8.6977 Y3.1746 F120.00
G01 X8.7129 Y3.1780 F120.00
G01 X8.7443 Y3.1859 F120.00
G01 X8.7668 Y3.1924 F120.00
G01 X8.8047 Y3.2058 F120.00
G01 X8.8192 Y3.2114 F120.00
G01 X8.8335 Y3.2178 F120.00
G01 X8.8628 Y3.2316 F120.00
G01 X8.8835 Y3.2424 F120.00
G01 X8.9181 Y3.2630 F120.00
G01 X8.9312 Y3.2713 F120.00
G01 X8.9440 Y3.2803 F120.00
G01 X8.9700 Y3.2996 F120.00
G01 X8.9883 Y3.3142 F120.00
G01 X9.0181 Y3.3411 F120.00
G01 X9.0294 Y3.3519 F120.00
G01 X10.4304 Y4.7528 F120.00
G01 X10.4411 Y4.7641 F120.00
G01 X10.4629 Y4.7881 F120.00
G01 X10.4731 Y4.7999 F120.00
G01 X10.4826 Y4.8122 F120.00
G01 X10.5065 Y4.8446 F120.00
G01 X10.5193 Y4.8642 F120.00
G01 X10.5359 Y4.8920 F120.00
G01 X10.5436 Y4.9055 F120.00
G01 X10.5506 Y4.9194 F120.00
G01 X10.5677 Y4.9558 F120.00
G01 X10.5764 Y4.9775 F120.00
G01 X10.5873 Y5.0081 F120.00
G01 X10.5922 Y5.0229 F120.00
G01 X10.5964 Y5.0379 F120.00
G01 X10.6042 Y5.0693 F120.00
G01 X10.6091 Y5.0922 F120.00
G01 X10.6161 Y5.1397 F120.00
G01 X10.6181 Y5.1630 F120.00
G01 X10.6197 Y5.1954 F120.00
G01 X10.6201 Y5.2109 F120.00
G01 X10.6201 Y5.8201 F120.00
G01 X10.6434 Y5.8374 F120.00
G01 X10.6554 Y5.8473 F120.00
G01 X10.7158 Y5.9019 F120.00
G01 X10.7271 Y5.9127 F120.00
G01 X10.7378 Y5.9239 F120.00
G01 X10.7924 Y5.9843 F120.00
G01 X10.8023 Y5.9964 F120.00
G01 X10.8197 Y6.0196 F120.00
G01 X15.8439 Y6.0196 F120.00
G01 X18.8347 Y3.0289 F120.00
G01 X18.8644 Y3.0019 F120.00
G01 X18.8762 Y2.9917 F120.00
G01 X18.8885 Y2.9821 F120.00
G01 X18.9209 Y2.9582 F120.00
G01 X18.9338 Y2.9496 F120.00
G01 X18.9683 Y2.9288 F120.00
G01 X18.9818 Y2.9211 F120.00
G01 X18.9957 Y2.9141 F120.00
G01 X19.0250 Y2.9003 F120.00
G01 X19.0393 Y2.8939 F120.00
G01 X19.0538 Y2.8883 F120.00
G01 X19.0844 Y2.8774 F120.00
G01 X19.0992 Y2.8725 F120.00
G01 X19.1142 Y2.8684 F120.00
G01 X19.1456 Y2.8605 F120.00
G01 X19.1608 Y2.8571 F120.00
G01 X19.1762 Y2.8544 F120.00
G01 X19.2160 Y2.8486 F120.00
G01 X19.2393 Y2.8466 F120.00
G01 X19.2716 Y2.8450 F120.00
G01 X19.2872 Y2.8446 F120.00
G01 X37.0573 Y2.8446 F120.00
G01 X37.0747 Y2.8214 F120.00
G01 X37.0845 Y2.8093 F120.00
G01 X37.1391 Y2.7489 F120.00
G01 X37.1555 Y2.7322 F120.00
G01 X37.2157 Y2.6775 F120.00
G01 X37.2275 Y2.6673 F120.00
G01 X37.2398 Y2.6577 F120.00
G01 X37.2989 Y2.6139 F120.00
G01 X37.3182 Y2.6006 F120.00
G01 X37.3879 Y2.5587 F120.00
G01 X37.4015 Y2.5510 F120.00
G01 X37.4154 Y2.5440 F120.00
G01 X37.4820 Y2.5126 F120.00
G01 X37.4962 Y2.5062 F120.00
G01 X37.5107 Y2.5006 F120.00
G01 X37.5800 Y2.4758 F120.00
G01 X37.5948 Y2.4710 F120.00
G01 X37.6099 Y2.4668 F120.00
G01 X37.6813 Y2.4489 F120.00
G01 X37.7041 Y2.4441 F120.00
G01 X37.7846 Y2.4320 F120.00
G01 X37.8001 Y2.4301 F120.00
G01 X37.8156 Y2.4290 F120.00
G01 X37.8891 Y2.4254 F120.00
G01 X37.9047 Y2.4250 F120.00
G01 X39.4047 Y2.4250 F120.00
G01 X39.4203 Y2.4254 F120.00
G01 X39.4938 Y2.4290 F120.00
G01 X39.5094 Y2.4301 F120.00
G01 X39.5248 Y2.4320 F120.00
G01 X39.5976 Y2.4428 F120.00
G01 X39.6130 Y2.4455 F120.00
G01 X39.6282 Y2.4489 F120.00
G01 X39.6996 Y2.4668 F120.00
G01 X39.7146 Y2.4710 F120.00
G01 X39.7294 Y2.4758 F120.00
G01 X39.7987 Y2.5006 F120.00
G01 X39.8132 Y2.5062 F120.00
G01 X39.8275 Y2.5126 F120.00
G01 X39.8940 Y2.5440 F120.00
G01 X39.9079 Y2.5510 F120.00
G01 X39.9215 Y2.5587 F120.00
G01 X39.9846 Y2.5966 F120.00
G01 X39.9978 Y2.6049 F120.00
G01 X40.0105 Y2.6139 F120.00
G01 X40.0697 Y2.6577 F120.00
G01 X40.0819 Y2.6673 F120.00
G01 X40.0937 Y2.6775 F120.00
G01 X40.1483 Y2.7269 F120.00
G01 X40.1596 Y2.7377 F120.00
G01 X40.1703 Y2.7489 F120.00
G01 X40.2197 Y2.8035 F120.00
G01 X40.2299 Y2.8153 F120.00
G01 X40.2395 Y2.8276 F120.00
G01 X40.2834 Y2.8867 F120.00
G01 X40.2923 Y2.8994 F120.00
G01 X40.3007 Y2.9126 F120.00
G01 X40.3385 Y2.9757 F120.00
G01 X40.3462 Y2.9893 F120.00
G01 X40.3532 Y3.0032 F120.00
G01 X40.3879 Y3.0768 F120.00
G01 X40.3966 Y3.0985 F120.00
G01 X40.4214 Y3.1678 F120.00
G01 X40.4263 Y3.1826 F120.00
G01 X40.4304 Y3.1976 F120.00
G01 X40.4483 Y3.2690 F120.00
G01 X40.4517 Y3.2842 F120.00
G01 X40.4544 Y3.2996 F120.00
G01 X40.4662 Y3.3801 F120.00
G01 X40.4682 Y3.4034 F120.00
G01 X40.4719 Y3.4769 F120.00
G01 X40.4722 Y3.4925 F120.00
G01 X40.4719 Y3.5081 F120.00
G01 X40.4682 Y3.5816 F120.00
G01 X40.4671 Y3.5971 F120.00
G01 X40.4652 Y3.6126 F120.00
G01 X40.4544 Y3.6854 F120.00
G01 X40.4517 Y3.7008 F120.00
G01 X40.4483 Y3.7160 F120.00
G01 X40.4304 Y3.7874 F120.00
G01 X40.4263 Y3.8024 F120.00
G01 X40.4214 Y3.8172 F120.00
G01 X40.3966 Y3.8865 F120.00
G01 X40.3910 Y3.9010 F120.00
G01 X40.3847 Y3.9153 F120.00
G01 X40.3532 Y3.9818 F120.00
G01 X40.3462 Y3.9957 F120.00
G01 X40.3385 Y4.0093 F120.00
G01 X40.2966 Y4.0790 F120.00
G01 X40.2834 Y4.0983 F120.00
G01 X40.2395 Y4.1574 F120.00
G01 X40.2299 Y4.1697 F120.00
G01 X40.2197 Y4.1815 F120.00
G01 X40.1703 Y4.2361 F120.00
G01 X40.1596 Y4.2473 F120.00
G01 X40.1483 Y4.2581 F120.00
G01 X40.0937 Y4.3075 F120.00
G01 X40.0819 Y4.3177 F120.00
G01 X40.0697 Y4.3273 F120.00
G01 X40.0105 Y4.3711 F120.00
G01 X39.9978 Y4.3801 F120.00
G01 X39.9846 Y4.3884 F120.00
G01 X39.9215 Y4.4263 F120.00
G01 X39.9079 Y4.4340 F120.00
G01 X39.8940 Y4.4410 F120.00
G01 X39.8275 Y4.4724 F120.00
G01 X39.8132 Y4.4788 F120.00
G01 X39.7987 Y4.4844 F120.00
G01 X39.7294 Y4.5092 F120.00
G01 X39.7146 Y4.5140 F120.00
G01 X39.6996 Y4.5182 F120.00
G01 X39.6282 Y4.5361 F120.00
G01 X39.6053 Y4.5409 F120.00
G01 X39.5171 Y4.5540 F120.00
G01 X39.4938 Y4.5560 F120.00
G01 X39.4203 Y4.5596 F120.00
G01 X39.4047 Y4.5600 F120.00
G01 X37.9047 Y4.5600 F120.00
G01 X37.8891 Y4.5596 F120.00
G01 X37.8156 Y4.5560 F120.00
G01 X37.8001 Y4.5549 F120.00
G01 X37.7846 Y4.5530 F120.00
G01 X37.7041 Y4.5409 F120.00
G01 X37.6813 Y4.5361 F120.00
G01 X37.6099 Y4.5182 F120.00
G01 X37.5948 Y4.5140 F120.00
G01 X37.5800 Y4.5092 F120.00
G01 X37.5107 Y4.4844 F120.00
G01 X37.4962 Y4.4788 F120.00
G01 X37.4820 Y4.4724 F120.00
G01 X37.4154 Y4.4410 F120.00
G01 X37.4015 Y4.4340 F120.00
G01 X37.3879 Y4.4263 F120.00
G01 X37.3182 Y4.3844 F120.00
G01 X37.2989 Y4.3711 F120.00
G01 X37.2398 Y4.3273 F120.00
G01 X37.2275 Y4.3177 F120.00
G01 X37.2157 Y4.3075 F120.00
G01 X37.1555 Y4.2528 F120.00
G01 X37.1391 Y4.2361 F120.00
G01 X37.0845 Y4.1757 F120.00
G01 X37.0747 Y4.1636 F120.00
G01 X37.0573 Y4.1404 F120.00
G01 X32.0001 Y4.1404 F120.00
G01 X32.0001 Y6.8043 F120.00
G01 X32.0071 Y6.7821 F120.00
G01 X32.0180 Y6.7516 F120.00
G01 X32.0237 Y6.7371 F120.00
G01 X32.0300 Y6.7228 F120.00
G01 X32.0438 Y6.6935 F120.00
G01 X32.0546 Y6.6728 F120.00
G01 X32.0793 Y6.6316 F120.00
G01 X32.0925 Y6.6123 F120.00
G01 X32.1118 Y6.5863 F120.00
G01 X32.1214 Y6.5740 F120.00
G01 X32.1316 Y6.5622 F120.00
G01 X32.1534 Y6.5382 F120.00
G01 X32.1641 Y6.5269 F120.00
G01 X33.1166 Y5.5744 F120.00
G01 X33.1279 Y5.5636 F120.00
G01 X33.1519 Y5.5419 F120.00
G01 X33.1698 Y5.5268 F120.00
G01 X33.2084 Y5.4982 F120.00
G01 X33.2279 Y5.4855 F120.00
G01 X33.2558 Y5.4688 F120.00
G01 X33.2693 Y5.4611 F120.00
G01 X33.2832 Y5.4541 F120.00
G01 X33.3125 Y5.4403 F120.00
G01 X33.3340 Y5.4310 F120.00
G01 X33.3719 Y5.4174 F120.00
G01 X33.3867 Y5.4125 F120.00
G01 X33.4017 Y5.4084 F120.00
G01 X33.4331 Y5.4005 F120.00
G01 X33.4560 Y5.3956 F120.00
G01 X33.4958 Y5.3896 F120.00
G01 X33.5112 Y5.3877 F120.00
G01 X33.5268 Y5.3866 F120.00
G01 X33.5669 Y5.3847 F120.00
G01 X33.9755 Y5.3846 F120.00
G01 X33.9780 Y5.3744 F120.00
G01 X33.9820 Y5.3598 F120.00
G01 X33.9894 Y5.3384 F120.00
G01 X34.0202 Y5.2642 F120.00
G01 X34.0266 Y5.2505 F120.00
G01 X34.0337 Y5.2371 F120.00
G01 X34.0455 Y5.2178 F120.00
G01 X34.0541 Y5.2054 F120.00
G01 X34.0984 Y5.1475 F120.00
G01 X34.1128 Y5.1300 F120.00
G01 X34.1285 Y5.1136 F120.00
G01 X34.1395 Y5.1033 F120.00
G01 X34.1511 Y5.0936 F120.00
G01 X34.2148 Y5.0446 F120.00
G01 X34.2336 Y5.0319 F120.00
G01 X34.2532 Y5.0206 F120.00
G01 X34.2667 Y5.0138 F120.00
G01 X34.2805 Y5.0077 F120.00
G01 X34.3408 Y4.9827 F120.00
G01 X34.3549 Y4.9773 F120.00
G01 X34.3765 Y4.9704 F120.00
G01 X34.3912 Y4.9666 F120.00
G01 X34.4060 Y4.9636 F120.00
G01 X34.4210 Y4.9613 F120.00
G01 X34.4939 Y4.9518 F120.00
G01 X34.5105 Y4.9505 F120.00
G01 X34.5270 Y4.9500 F120.00
G01 X35.7970 Y4.9499 F120.00
G01 X35.8137 Y4.9504 F120.00
G01 X35.8302 Y4.9517 F120.00
G01 X35.9032 Y4.9612 F120.00
G01 X35.9255 Y4.9649 F120.00
G01 X35.9476 Y4.9702 F120.00
G01 X35.9620 Y4.9747 F120.00
G01 X35.9762 Y4.9798 F120.00
G01 X36.0505 Y5.0105 F120.00
G01 X36.0642 Y5.0170 F120.00
G01 X36.0776 Y5.0241 F120.00
G01 X36.0969 Y5.0359 F120.00
G01 X36.1154 Y5.0490 F120.00
G01 X36.1731 Y5.0934 F120.00
G01 X36.1846 Y5.1032 F120.00
G01 X36.1957 Y5.1135 F120.00
G01 X36.2113 Y5.1299 F120.00
G01 X36.2211 Y5.1414 F120.00
G01 X36.2655 Y5.1991 F120.00
G01 X36.2786 Y5.2176 F120.00
G01 X36.2904 Y5.2369 F120.00
G01 X36.2975 Y5.2503 F120.00
G01 X36.3040 Y5.2640 F120.00
G01 X36.3347 Y5.3382 F120.00
G01 X36.3421 Y5.3596 F120.00
G01 X36.3462 Y5.3742 F120.00
G01 X36.3487 Y5.3846 F120.00
G01 X37.0573 Y5.3846 F120.00
G01 X37.0747 Y5.3614 F120.00
G01 X37.0845 Y5.3493 F120.00
G01 X37.1444 Y5.2832 F120.00
G01 X37.1612 Y5.2669 F120.00
G01 X37.2215 Y5.2123 F120.00
G01 X37.2398 Y5.1977 F120.00
G01 X37.2989 Y5.1539 F120.00
G01 X37.3116 Y5.1449 F120.00
G01 X37.3248 Y5.1366 F120.00
G01 X37.3947 Y5.0948 F120.00
G01 X37.4154 Y5.0840 F120.00
G01 X37.4820 Y5.0526 F120.00
G01 X37.4962 Y5.0462 F120.00
G01 X37.5107 Y5.0406 F120.00
G01 X37.5800 Y5.0158 F120.00
G01 X37.5948 Y5.0110 F120.00
G01 X37.6099 Y5.0068 F120.00
G01 X37.6813 Y4.9889 F120.00
G01 X37.6965 Y4.9855 F120.00
G01 X37.7118 Y4.9828 F120.00
G01 X37.7923 Y4.9710 F120.00
G01 X37.8156 Y4.9690 F120.00
G01 X37.8891 Y4.9654 F120.00
G01 X37.9047 Y4.9650 F120.00
G01 X39.4047 Y4.9650 F120.00
G01 X39.4203 Y4.9654 F120.00
G01 X39.5016 Y4.9695 F120.00
G01 X39.5248 Y4.9720 F120.00
G01 X39.5976 Y4.9828 F120.00
G01 X39.6130 Y4.9855 F120.00
G01 X39.6282 Y4.9889 F120.00
G01 X39.6996 Y5.0068 F120.00
G01 X39.7146 Y5.0110 F120.00
G01 X39.7294 Y5.0158 F120.00
G01 X39.7987 Y5.0406 F120.00
G01 X39.8132 Y5.0462 F120.00
G01 X39.8275 Y5.0526 F120.00
G01 X39.8940 Y5.0840 F120.00
G01 X39.9079 Y5.0910 F120.00
G01 X39.9215 Y5.0987 F120.00
G01 X39.9846 Y5.1366 F120.00
G01 X39.9978 Y5.1449 F120.00
G01 X40.0105 Y5.1539 F120.00
G01 X40.0697 Y5.1977 F120.00
G01 X40.0879 Y5.2123 F120.00
G01 X40.1483 Y5.2669 F120.00
G01 X40.1650 Y5.2832 F120.00
G01 X40.2249 Y5.3493 F120.00
G01 X40.2348 Y5.3614 F120.00
G01 X40.2522 Y5.3846 F120.00
G01 X40.2914 Y5.3846 F120.00
G01 X40.5468 Y5.1291 F120.00
G01 X40.5468 Y2.8084 F120.00
G01 X39.9739 Y2.2354 F120.00
G01 X4.3156 Y2.2354 F120.00
G01 X2.4725 Y4.0784 F120.00
G01 X2.4725 Y5.2677 F120.00
G01 X2.4845 Y5.2684 F120.00
G01 X2.5010 Y5.2701 F120.00
G01 X2.5657 Y5.2787 F120.00
G01 X2.5806 Y5.2810 F120.00
G01 X2.5954 Y5.2840 F120.00
G01 X2.6101 Y5.2877 F120.00
G01 X2.6317 Y5.2946 F120.00
G01 X2.6458 Y5.3001 F120.00
G01 X2.7130 Y5.3280 F120.00
G01 X2.7267 Y5.3345 F120.00
G01 X2.7466 Y5.3454 F120.00
G01 X2.7594 Y5.3534 F120.00
G01 X2.7719 Y5.3620 F120.00
G01 X2.8297 Y5.4063 F120.00
G01 X2.8414 Y5.4157 F120.00
G01 X2.8527 Y5.4258 F120.00
G01 X2.8635 Y5.4363 F120.00
G01 X2.8738 Y5.4474 F120.00
G01 X2.8836 Y5.4589 F120.00
G01 X2.9325 Y5.5227 F120.00
G01 X2.9412 Y5.5351 F120.00
G01 X2.9530 Y5.5544 F120.00
G01 X2.9601 Y5.5678 F120.00
G01 X2.9665 Y5.5815 F120.00
G01 X2.9944 Y5.6487 F120.00
G01 X2.9999 Y5.6628 F120.00
G01 X3.0068 Y5.6844 F120.00
G01 X3.0105 Y5.6990 F120.00
G01 X3.0136 Y5.7138 F120.00
G01 X3.0159 Y5.7287 F120.00
G01 X3.0254 Y5.8017 F120.00
G01 X3.0267 Y5.8183 F120.00
G01 X3.0272 Y5.8349 F120.00
G01 X3.0271 Y6.4732 F120.00
G01 X3.0254 Y6.4981 F120.00
G01 X3.0160 Y6.5710 F120.00
G01 X3.0136 Y6.5860 F120.00
G01 X3.0106 Y6.6008 F120.00
G01 X3.0047 Y6.6227 F120.00
G01 X3.0000 Y6.6370 F120.00
G01 X2.9945 Y6.6511 F120.00
G01 X2.9695 Y6.7114 F120.00
G01 X2.9634 Y6.7252 F120.00
G01 X2.9567 Y6.7387 F120.00
G01 X2.9453 Y6.7584 F120.00
G01 X2.9370 Y6.7710 F120.00
G01 X2.9281 Y6.7832 F120.00
G01 X2.8837 Y6.8409 F120.00
G01 X2.8740 Y6.8525 F120.00
G01 X2.8583 Y6.8689 F120.00
G01 X2.8415 Y6.8841 F120.00
G01 X2.8298 Y6.8936 F120.00
G01 X2.7720 Y6.9379 F120.00
G01 X2.7532 Y6.9506 F120.00
G01 X2.7336 Y6.9619 F120.00
G01 X2.7201 Y6.9687 F120.00
G01 X2.7063 Y6.9748 F120.00
G01 X2.6460 Y6.9998 F120.00
G01 X2.6319 Y7.0052 F120.00
G01 X2.6102 Y7.0121 F120.00
G01 X2.5956 Y7.0159 F120.00
G01 X2.5807 Y7.0189 F120.00
G01 X2.5658 Y7.0212 F120.00
G01 X2.4929 Y7.0307 F120.00
G01 X2.4763 Y7.0320 F120.00
G01 X2.4597 Y7.0325 F120.00
G01 X1.1897 Y7.0326 F120.00
G01 X1.1731 Y7.0321 F120.00
G01 X1.1566 Y7.0308 F120.00
G01 X1.0761 Y7.0203 F120.00
G01 X1.0612 Y7.0176 F120.00
G01 X1.0465 Y7.0142 F120.00
G01 X1.0247 Y7.0078 F120.00
G01 X1.0105 Y7.0027 F120.00
G01 X0.9363 Y6.9720 F120.00
G01 X0.9226 Y6.9655 F120.00
G01 X0.9092 Y6.9584 F120.00
G01 X0.8962 Y6.9507 F120.00
G01 X0.8836 Y6.9424 F120.00
G01 X0.8714 Y6.9335 F120.00
G01 X0.8196 Y6.8937 F120.00
G01 X0.8078 Y6.8843 F120.00
G01 X0.7966 Y6.8742 F120.00
G01 X0.7857 Y6.8637 F120.00
G01 X0.7705 Y6.8469 F120.00
G01 X0.7610 Y6.8352 F120.00
G01 X0.7213 Y6.7834 F120.00
G01 X0.7081 Y6.7649 F120.00
G01 X0.7001 Y6.7521 F120.00
G01 X0.6927 Y6.7389 F120.00
G01 X0.6859 Y6.7254 F120.00
G01 X0.6798 Y6.7116 F120.00
G01 X0.6548 Y6.6513 F120.00
G01 X0.6494 Y6.6372 F120.00
G01 X0.6425 Y6.6156 F120.00
G01 X0.6388 Y6.6010 F120.00
G01 X0.6357 Y6.5862 F120.00
G01 X0.6334 Y6.5713 F120.00
G01 X0.6239 Y6.4983 F120.00
G01 X0.6223 Y6.4734 F120.00
G01 X0.6221 Y5.8351 F120.00
G01 X0.6226 Y5.8185 F120.00
G01 X0.6248 Y5.7937 F120.00
G01 X0.6344 Y5.7215 F120.00
G01 X0.6387 Y5.6992 F120.00
G01 X0.6446 Y5.6773 F120.00
G01 X0.6493 Y5.6630 F120.00
G01 X0.6548 Y5.6489 F120.00
G01 X0.6827 Y5.5817 F120.00
G01 X0.6926 Y5.5613 F120.00
G01 X0.7000 Y5.5481 F120.00
G01 X0.7080 Y5.5353 F120.00
G01 X0.7166 Y5.5229 F120.00
G01 X0.7609 Y5.4650 F120.00
G01 X0.7704 Y5.4533 F120.00
G01 X0.7804 Y5.4420 F120.00
G01 X0.7910 Y5.4311 F120.00
G01 X0.8020 Y5.4208 F120.00
G01 X0.8136 Y5.4111 F120.00
G01 X0.8773 Y5.3621 F120.00
G01 X0.8897 Y5.3535 F120.00
G01 X0.9091 Y5.3417 F120.00
G01 X0.9224 Y5.3347 F120.00
G01 X0.9361 Y5.3282 F120.00
G01 X1.0103 Y5.2974 F120.00
G01 X1.0246 Y5.2923 F120.00
G01 X1.0391 Y5.2879 F120.00
G01 X1.0537 Y5.2841 F120.00
G01 X1.0685 Y5.2811 F120.00
G01 X1.0835 Y5.2788 F120.00
G01 X1.1482 Y5.2702 F120.00
G01 X1.1647 Y5.2685 F120.00
G01 X1.1768 Y5.2678 F120.00
G00 Z2.0000
G00 X3.2313 Y6.3918
G01 F60.00
G01 Z-0.0500
G01 F120.00
G01 X3.2313 Y5.8349 F120.00
G01 X3.2306 Y5.8076 F120.00
G01 X3.2297 Y5.7939 F120.00
G01 X3.2268 Y5.7667 F120.00
G01 X3.2165 Y5.6897 F120.00
G01 X3.2121 Y5.6653 F120.00
G01 X3.2065 Y5.6412 F120.00
G01 X3.1998 Y5.6173 F120.00
G01 X3.1920 Y5.5937 F120.00
G01 X3.1830 Y5.5706 F120.00
G01 X3.1581 Y5.5103 F120.00
G01 X3.1480 Y5.4876 F120.00
G01 X3.1369 Y5.4654 F120.00
G01 X3.1309 Y5.4545 F120.00
G01 X3.1183 Y5.4331 F120.00
G01 X3.1115 Y5.4227 F120.00
G01 X3.0974 Y5.4023 F120.00
G01 X3.0502 Y5.3405 F120.00
G01 X3.0425 Y5.3308 F120.00
G01 X3.0265 Y5.3119 F120.00
G01 X3.0096 Y5.2937 F120.00
G01 X3.0008 Y5.2849 F120.00
G01 X2.9918 Y5.2764 F120.00
G01 X2.9733 Y5.2599 F120.00
G01 X2.9540 Y5.2443 F120.00
G01 X2.8922 Y5.1972 F120.00
G01 X2.8821 Y5.1900 F120.00
G01 X2.8614 Y5.1763 F120.00
G01 X2.8400 Y5.1636 F120.00
G01 X2.8181 Y5.1520 F120.00
G01 X2.8069 Y5.1465 F120.00
G01 X2.7842 Y5.1365 F120.00
G01 X2.7124 Y5.1069 F120.00
G01 X2.6890 Y5.0985 F120.00
G01 X2.6766 Y5.0946 F120.00
G01 X2.6767 Y4.1630 F120.00
G01 X4.4001 Y2.4395 F120.00
G01 X37.1919 Y2.4395 F120.00
G01 X37.1773 Y2.4499 F120.00
G01 X37.1182 Y2.4938 F120.00
G01 X37.1080 Y2.5015 F120.00
G01 X37.0882 Y2.5178 F120.00
G01 X37.0147 Y2.5844 F120.00
G01 X36.9966 Y2.6025 F120.00
G01 X36.9619 Y2.6405 F120.00
G01 X19.2872 Y2.6405 F120.00
G01 X19.2616 Y2.6411 F120.00
G01 X19.2165 Y2.6435 F120.00
G01 X19.1910 Y2.6460 F120.00
G01 X19.1462 Y2.6525 F120.00
G01 X19.1210 Y2.6569 F120.00
G01 X19.0960 Y2.6625 F120.00
G01 X19.0522 Y2.6736 F120.00
G01 X19.0277 Y2.6811 F120.00
G01 X18.9851 Y2.6961 F120.00
G01 X18.9612 Y2.7054 F120.00
G01 X18.9378 Y2.7157 F120.00
G01 X18.8970 Y2.7352 F120.00
G01 X18.8744 Y2.7473 F120.00
G01 X18.8355 Y2.7704 F120.00
G01 X18.8246 Y2.7771 F120.00
G01 X18.8033 Y2.7913 F120.00
G01 X18.7669 Y2.8181 F120.00
G01 X18.7467 Y2.8339 F120.00
G01 X18.7273 Y2.8506 F120.00
G01 X18.6939 Y2.8811 F120.00
G01 X15.7593 Y5.8155 F120.00
G01 X10.9150 Y5.8155 F120.00
G01 X10.8891 Y5.7869 F120.00
G01 X10.8714 Y5.7683 F120.00
G01 X10.8529 Y5.7507 F120.00
G01 X10.8242 Y5.7247 F120.00
G01 X10.8241 Y5.1981 F120.00
G01 X10.8220 Y5.1530 F120.00
G01 X10.8201 Y5.1274 F120.00
G01 X10.8170 Y5.1020 F120.00
G01 X10.8122 Y5.0699 F120.00
G01 X10.8102 Y5.0573 F120.00
G01 X10.8052 Y5.0322 F120.00
G01 X10.7911 Y4.9759 F120.00
G01 X10.7837 Y4.9514 F120.00
G01 X10.7795 Y4.9393 F120.00
G01 X10.7686 Y4.9088 F120.00
G01 X10.7594 Y4.8849 F120.00
G01 X10.7490 Y4.8615 F120.00
G01 X10.7351 Y4.8322 F120.00
G01 X10.7236 Y4.8093 F120.00
G01 X10.7110 Y4.7870 F120.00
G01 X10.6943 Y4.7592 F120.00
G01 X10.6876 Y4.7483 F120.00
G01 X10.6734 Y4.7270 F120.00
G01 X10.6466 Y4.6906 F120.00
G01 X10.6308 Y4.6704 F120.00
G01 X10.6141 Y4.6510 F120.00
G01 X10.5923 Y4.6270 F120.00
G01 X10.5747 Y4.6085 F120.00
G01 X9.1738 Y3.2075 F120.00
G01 X9.1552 Y3.1899 F120.00
G01 X9.1216 Y3.1596 F120.00
G01 X9.1018 Y3.1434 F120.00
G01 X9.0916 Y3.1356 F120.00
G01 X9.0656 Y3.1163 F120.00
G01 X9.0446 Y3.1016 F120.00
G01 X9.0230 Y3.0879 F120.00
G01 X8.9841 Y3.0648 F120.00
G01 X8.9729 Y3.0586 F120.00
G01 X8.9501 Y3.0471 F120.00
G01 X8.9207 Y3.0332 F120.00
G01 X8.8973 Y3.0229 F120.00
G01 X8.8735 Y3.0136 F120.00
G01 X8.8429 Y3.0027 F120.00
G01 X8.8186 Y2.9947 F120.00
G01 X8.8063 Y2.9911 F120.00
G01 X8.7625 Y2.9800 F120.00
G01 X8.7375 Y2.9744 F120.00
G01 X8.7123 Y2.9700 F120.00
G01 X8.6802 Y2.9652 F120.00
G01 X8.6675 Y2.9635 F120.00
G01 X8.6420 Y2.9610 F120.00
G01 X8.5841 Y2.9582 F120.00
G01 X5.8732 Y2.9580 F120.00
G01 X5.8476 Y2.9586 F120.00
G01 X5.8152 Y2.9602 F120.00
G01 X5.8024 Y2.9610 F120.00
G01 X5.7769 Y2.9635 F120.00
G01 X5.7322 Y2.9700 F120.00
G01 X5.7069 Y2.9744 F120.00
G01 X5.6820 Y2.9800 F120.00
G01 X5.6381 Y2.9911 F120.00
G01 X5.6136 Y2.9986 F120.00
G01 X5.5710 Y3.0136 F120.00
G01 X5.5471 Y3.0229 F120.00
G01 X5.5353 Y3.0279 F120.00
G01 X5.4944 Y3.0471 F120.00
G01 X5.4715 Y3.0586 F120.00
G01 X5.4492 Y3.0712 F120.00
G01 X5.4105 Y3.0946 F120.00
G01 X5.3998 Y3.1016 F120.00
G01 X5.3789 Y3.1163 F120.00
G01 X5.3426 Y3.1434 F120.00
G01 X5.3229 Y3.1596 F120.00
G01 X5.2892 Y3.1899 F120.00
G01 X5.2707 Y3.2075 F120.00
G01 X3.8698 Y4.6085 F120.00
G01 X3.8521 Y4.6270 F120.00
G01 X3.8219 Y4.6606 F120.00
G01 X3.8136 Y4.6704 F120.00
G01 X3.7979 Y4.6906 F120.00
G01 X3.7785 Y4.7167 F120.00
G01 X3.7638 Y4.7376 F120.00
G01 X3.7501 Y4.7592 F120.00
G01 X3.7334 Y4.7870 F120.00
G01 X3.7208 Y4.8093 F120.00
G01 X3.7149 Y4.8207 F120.00
G01 X3.6901 Y4.8731 F120.00
G01 X3.6851 Y4.8849 F120.00
G01 X3.6759 Y4.9088 F120.00
G01 X3.6649 Y4.9393 F120.00
G01 X3.6569 Y4.9636 F120.00
G01 X3.6501 Y4.9883 F120.00
G01 X3.6422 Y5.0197 F120.00
G01 X3.6366 Y5.0447 F120.00
G01 X3.6342 Y5.0573 F120.00
G01 X3.6275 Y5.1020 F120.00
G01 X3.6243 Y5.1274 F120.00
G01 X3.6224 Y5.1530 F120.00
G01 X3.6204 Y5.1981 F120.00
G01 X3.6202 Y5.7247 F120.00
G01 X3.5822 Y5.7594 F120.00
G01 X3.5641 Y5.7775 F120.00
G01 X3.5060 Y5.8414 F120.00
G01 X3.4892 Y5.8608 F120.00
G01 X3.4812 Y5.8708 F120.00
G01 X3.4296 Y5.9401 F120.00
G01 X3.4149 Y5.9610 F120.00
G01 X3.4012 Y5.9826 F120.00
G01 X3.3634 Y6.0458 F120.00
G01 X3.3507 Y6.0681 F120.00
G01 X3.3392 Y6.0909 F120.00
G01 X3.3024 Y6.1691 F120.00
G01 X3.2926 Y6.1928 F120.00
G01 X3.2634 Y6.2741 F120.00
G01 X3.2553 Y6.2984 F120.00
G01 X3.2485 Y6.3230 F120.00
G01 X3.2313 Y6.3918 F120.00
G00 Z2.0000
G00 X4.0285 Y5.9279
G01 F60.00
G01 Z-0.0500
G01 F120.00
G01 X4.0285 Y5.2109 F120.00
G01 X4.0304 Y5.1702 F120.00
G01 X4.0360 Y5.1298 F120.00
G01 X4.0382 Y5.1189 F120.00
G01 X4.0476 Y5.0821 F120.00
G01 X4.0602 Y5.0463 F120.00
G01 X4.0645 Y5.0360 F120.00
G01 X4.0809 Y5.0017 F120.00
G01 X4.1003 Y4.9691 F120.00
G01 X4.1048 Y4.9621 F120.00
G01 X4.1292 Y4.9294 F120.00
G01 X4.1584 Y4.8971 F120.00
G01 X5.5634 Y3.4924 F120.00
G01 X5.5916 Y3.4670 F120.00
G01 X5.6266 Y3.4410 F120.00
G01 X5.6640 Y3.4186 F120.00
G01 X5.6982 Y3.4023 F120.00
G01 X5.7085 Y3.3980 F120.00
G01 X5.7417 Y3.3862 F120.00
G01 X5.7497 Y3.3839 F120.00
G01 X5.7866 Y3.3748 F120.00
G01 X5.8241 Y3.3691 F120.00
G01 X5.8324 Y3.3681 F120.00
G01 X5.8732 Y3.3662 F120.00
G01 X8.5741 Y3.3663 F120.00
G01 X8.6092 Y3.3680 F120.00
G01 X8.6203 Y3.3691 F120.00
G01 X8.6579 Y3.3748 F120.00
G01 X8.6947 Y3.3839 F120.00
G01 X8.7054 Y3.3871 F120.00
G01 X8.7411 Y3.4000 F120.00
G01 X8.7755 Y3.4161 F120.00
G01 X8.7853 Y3.4214 F120.00
G01 X8.8178 Y3.4410 F120.00
G01 X8.8484 Y3.4635 F120.00
G01 X8.8570 Y3.4706 F120.00
G01 X8.8851 Y3.4962 F120.00
G01 X10.2860 Y4.8971 F120.00
G01 X10.3153 Y4.9294 F120.00
G01 X10.3396 Y4.9621 F120.00
G01 X10.3609 Y4.9969 F120.00
G01 X10.3661 Y5.0067 F120.00
G01 X10.3822 Y5.0411 F120.00
G01 X10.3951 Y5.0768 F120.00
G01 X10.3984 Y5.0875 F120.00
G01 X10.4075 Y5.1244 F120.00
G01 X10.4132 Y5.1619 F120.00
G01 X10.4141 Y5.1702 F120.00
G01 X10.4160 Y5.2109 F120.00
G01 X10.4160 Y5.9279 F120.00
G01 X10.4542 Y5.9512 F120.00
G01 X10.5178 Y5.9983 F120.00
G01 X10.5242 Y6.0037 F120.00
G01 X10.5827 Y6.0570 F120.00
G01 X10.6360 Y6.1156 F120.00
G01 X10.6414 Y6.1219 F120.00
G01 X10.6885 Y6.1855 F120.00
G01 X10.7118 Y6.2237 F120.00
G01 X15.9284 Y6.2237 F120.00
G01 X18.9754 Y3.1768 F120.00
G01 X19.0057 Y3.1495 F120.00
G01 X19.0407 Y3.1235 F120.00
G01 X19.0780 Y3.1011 F120.00
G01 X19.1123 Y3.0848 F120.00
G01 X19.1200 Y3.0815 F120.00
G01 X19.1531 Y3.0696 F120.00
G01 X19.1638 Y3.0664 F120.00
G01 X19.2006 Y3.0573 F120.00
G01 X19.2437 Y3.0509 F120.00
G01 X19.2872 Y3.0487 F120.00
G01 X37.1652 Y3.0487 F120.00
G01 X37.1884 Y3.0105 F120.00
G01 X37.2356 Y2.9469 F120.00
G01 X37.2409 Y2.9406 F120.00
G01 X37.2923 Y2.8840 F120.00
G01 X37.2982 Y2.8781 F120.00
G01 X37.3570 Y2.8251 F120.00
G01 X37.4228 Y2.7762 F120.00
G01 X37.4298 Y2.7716 F120.00
G01 X37.4977 Y2.7311 F120.00
G01 X37.5743 Y2.6948 F120.00
G01 X37.6541 Y2.6663 F120.00
G01 X37.7363 Y2.6457 F120.00
G01 X37.8201 Y2.6333 F120.00
G01 X37.9047 Y2.6291 F120.00
G01 X39.4075 Y2.6291 F120.00
G01 X39.4893 Y2.6333 F120.00
G01 X39.5732 Y2.6457 F120.00
G01 X39.6554 Y2.6663 F120.00
G01 X39.7351 Y2.6948 F120.00
G01 X39.8117 Y2.7311 F120.00
G01 X39.8844 Y2.7746 F120.00
G01 X39.9525 Y2.8251 F120.00
G01 X40.0112 Y2.8781 F120.00
G01 X40.0191 Y2.8860 F120.00
G01 X40.0685 Y2.9406 F120.00
G01 X40.0756 Y2.9492 F120.00
G01 X40.1226 Y3.0128 F120.00
G01 X40.1634 Y3.0807 F120.00
G01 X40.1687 Y3.0905 F120.00
G01 X40.2024 Y3.1621 F120.00
G01 X40.2309 Y3.2419 F120.00
G01 X40.2515 Y3.3241 F120.00
G01 X40.2633 Y3.4023 F120.00
G01 X40.2642 Y3.4106 F120.00
G01 X40.2681 Y3.4925 F120.00
G01 X40.2640 Y3.5771 F120.00
G01 X40.2515 Y3.6609 F120.00
G01 X40.2309 Y3.7431 F120.00
G01 X40.2024 Y3.8229 F120.00
G01 X40.1662 Y3.8995 F120.00
G01 X40.1226 Y3.9722 F120.00
G01 X40.0721 Y4.0402 F120.00
G01 X40.0152 Y4.1030 F120.00
G01 X39.9525 Y4.1599 F120.00
G01 X39.8844 Y4.2104 F120.00
G01 X39.8117 Y4.2539 F120.00
G01 X39.7351 Y4.2902 F120.00
G01 X39.6554 Y4.3187 F120.00
G01 X39.5732 Y4.3393 F120.00
G01 X39.4949 Y4.3511 F120.00
G01 X39.4866 Y4.3520 F120.00
G01 X39.4047 Y4.3559 F120.00
G01 X37.9047 Y4.3559 F120.00
G01 X37.8201 Y4.3517 F120.00
G01 X37.7390 Y4.3398 F120.00
G01 X37.7309 Y4.3381 F120.00
G01 X37.6541 Y4.3187 F120.00
G01 X37.5743 Y4.2902 F120.00
G01 X37.4977 Y4.2539 F120.00
G01 X37.4298 Y4.2134 F120.00
G01 X37.4228 Y4.2088 F120.00
G01 X37.3570 Y4.1599 F120.00
G01 X37.2982 Y4.1069 F120.00
G01 X37.2923 Y4.1010 F120.00
G01 X37.2409 Y4.0444 F120.00
G01 X37.2356 Y4.0381 F120.00
G01 X37.1884 Y3.9745 F120.00
G01 X37.1652 Y3.9363 F120.00
G01 X31.7960 Y3.9363 F120.00
G01 X31.7960 Y7.3447 F120.00
G01 X31.8161 Y7.3721 F120.00
G01 X31.8429 Y7.4166 F120.00
G01 X31.8467 Y7.4240 F120.00
G01 X31.8654 Y7.4634 F120.00
G01 X31.8687 Y7.4711 F120.00
G01 X31.8861 Y7.5201 F120.00
G01 X31.8982 Y7.5677 F120.00
G01 X31.9004 Y7.5786 F120.00
G01 X31.9071 Y7.6246 F120.00
G01 X31.9078 Y7.6329 F120.00
G01 X31.9101 Y7.6820 F120.00
G01 X31.9101 Y8.1930 F120.00
G01 X31.9077 Y8.2449 F120.00
G01 X31.9068 Y8.2532 F120.00
G01 X31.8994 Y8.3018 F120.00
G01 X31.8876 Y8.3496 F120.00
G01 X31.8844 Y8.3602 F120.00
G01 X31.8697 Y8.4013 F120.00
G01 X31.8654 Y8.4116 F120.00
G01 X31.8442 Y8.4560 F120.00
G01 X31.8161 Y8.5029 F120.00
G01 X31.7835 Y8.5469 F120.00
G01 X31.7467 Y8.5875 F120.00
G01 X31.7061 Y8.6243 F120.00
G01 X31.6622 Y8.6569 F120.00
G01 X31.6152 Y8.6850 F120.00
G01 X31.5708 Y8.7062 F120.00
G01 X31.5605 Y8.7104 F120.00
G01 X31.5195 Y8.7251 F120.00
G01 X31.5088 Y8.7284 F120.00
G01 X31.4611 Y8.7402 F120.00
G01 X31.4124 Y8.7475 F120.00
G01 X31.4041 Y8.7484 F120.00
G01 X31.3522 Y8.7509 F120.00
G01 X31.2975 Y8.7482 F120.00
G01 X31.2434 Y8.7402 F120.00
G01 X31.1903 Y8.7269 F120.00
G01 X31.1387 Y8.7084 F120.00
G01 X31.0892 Y8.6850 F120.00
G01 X31.0423 Y8.6569 F120.00
G01 X30.9983 Y8.6243 F120.00
G01 X30.9577 Y8.5875 F120.00
G01 X30.9210 Y8.5469 F120.00
G01 X30.8883 Y8.5029 F120.00
G01 X30.8602 Y8.4560 F120.00
G01 X30.8368 Y8.4065 F120.00
G01 X30.8183 Y8.3549 F120.00
G01 X30.8050 Y8.3018 F120.00
G01 X30.7970 Y8.2477 F120.00
G01 X30.7943 Y8.1930 F120.00
G01 X30.7943 Y7.6820 F120.00
G01 X30.7966 Y7.6329 F120.00
G01 X30.7973 Y7.6246 F120.00
G01 X30.8050 Y7.5732 F120.00
G01 X30.8169 Y7.5254 F120.00
G01 X30.8201 Y7.5148 F120.00
G01 X30.8358 Y7.4711 F120.00
G01 X30.8390 Y7.4634 F120.00
G01 X30.8577 Y7.4240 F120.00
G01 X30.8615 Y7.4166 F120.00
G01 X30.8883 Y7.3721 F120.00
G01 X30.9085 Y7.3447 F120.00
G01 X30.9085 Y3.9363 F120.00
G01 X19.4710 Y3.9363 F120.00
G01 X16.4240 Y6.9832 F120.00
G01 X16.3937 Y7.0105 F120.00
G01 X16.3588 Y7.0365 F120.00
G01 X16.3214 Y7.0589 F120.00
G01 X16.2871 Y7.0752 F120.00
G01 X16.2769 Y7.0795 F120.00
G01 X16.2437 Y7.0913 F120.00
G01 X16.2357 Y7.0936 F120.00
G01 X16.1988 Y7.1027 F120.00
G01 X16.1612 Y7.1084 F120.00
G01 X16.1529 Y7.1094 F120.00
G01 X16.1122 Y7.1113 F120.00
G01 X10.7118 Y7.1113 F120.00
G01 X10.6885 Y7.1495 F120.00
G01 X10.6431 Y7.2108 F120.00
G01 X10.6379 Y7.2174 F120.00
G01 X10.5827 Y7.2780 F120.00
G01 X10.5242 Y7.3313 F120.00
G01 X10.5178 Y7.3367 F120.00
G01 X10.4519 Y7.3854 F120.00
G01 X10.3792 Y7.4289 F120.00
G01 X10.3026 Y7.4652 F120.00
G01 X10.2255 Y7.4929 F120.00
G01 X10.2175 Y7.4952 F120.00
G01 X10.1407 Y7.5143 F120.00
G01 X10.0624 Y7.5261 F120.00
G01 X10.0513 Y7.5271 F120.00
G01 X9.9778 Y7.5308 F120.00
G01 X9.9667 Y7.5308 F120.00
G01 X9.8876 Y7.5267 F120.00
G01 X9.8038 Y7.5143 F120.00
G01 X9.7216 Y7.4937 F120.00
G01 X9.6470 Y7.4672 F120.00
G01 X9.6367 Y7.4629 F120.00
G01 X9.5702 Y7.4314 F120.00
G01 X9.5604 Y7.4262 F120.00
G01 X9.4926 Y7.3854 F120.00
G01 X9.4245 Y7.3349 F120.00
G01 X9.3657 Y7.2819 F120.00
G01 X9.3579 Y7.2740 F120.00
G01 X9.3048 Y7.2152 F120.00
G01 X9.2575 Y7.1517 F120.00
G01 X9.2514 Y7.1425 F120.00
G01 X9.2135 Y7.0793 F120.00
G01 X9.2083 Y7.0695 F120.00
G01 X9.1746 Y6.9979 F120.00
G01 X9.1478 Y6.9234 F120.00
G01 X9.1445 Y6.9128 F120.00
G01 X9.1254 Y6.8359 F120.00
G01 X9.1137 Y6.7577 F120.00
G01 X9.1126 Y6.7466 F120.00
G01 X9.1088 Y6.6675 F120.00
G01 X9.1126 Y6.5884 F120.00
G01 X9.1137 Y6.5773 F120.00
G01 X9.1254 Y6.4991 F120.00
G01 X9.1445 Y6.4222 F120.00
G01 X9.1478 Y6.4116 F120.00
G01 X9.1746 Y6.3371 F120.00
G01 X9.2095 Y6.2630 F120.00
G01 X9.2135 Y6.2557 F120.00
G01 X9.2514 Y6.1925 F120.00
G01 X9.2575 Y6.1833 F120.00
G01 X9.3048 Y6.1198 F120.00
G01 X9.3598 Y6.0590 F120.00
G01 X9.3657 Y6.0531 F120.00
G01 X9.4203 Y6.0037 F120.00
G01 X9.4267 Y5.9983 F120.00
G01 X9.4903 Y5.9512 F120.00
G01 X9.5285 Y5.9279 F120.00
G01 X9.5285 Y5.3948 F120.00
G01 X8.3875 Y4.2538 F120.00
G01 X6.0570 Y4.2538 F120.00
G01 X4.9160 Y5.3947 F120.00
G01 X4.9160 Y5.9279 F120.00
G01 X4.9542 Y5.9512 F120.00
G01 X5.0178 Y5.9983 F120.00
G01 X5.0242 Y6.0037 F120.00
G01 X5.0787 Y6.0531 F120.00
G01 X5.0847 Y6.0590 F120.00
G01 X5.1396 Y6.1198 F120.00
G01 X5.1869 Y6.1833 F120.00
G01 X5.1931 Y6.1925 F120.00
G01 X5.2309 Y6.2557 F120.00
G01 X5.2349 Y6.2630 F120.00
G01 X5.2699 Y6.3371 F120.00
G01 X5.2967 Y6.4116 F120.00
G01 X5.2999 Y6.4222 F120.00
G01 X5.3190 Y6.4991 F120.00
G01 X5.3308 Y6.5773 F120.00
G01 X5.3319 Y6.5884 F120.00
G01 X5.3356 Y6.6675 F120.00
G01 X5.3319 Y6.7466 F120.00
G01 X5.3308 Y6.7577 F120.00
G01 X5.3190 Y6.8359 F120.00
G01 X5.2999 Y6.9128 F120.00
G01 X5.2967 Y6.9234 F120.00
G01 X5.2699 Y6.9979 F120.00
G01 X5.2362 Y7.0695 F120.00
G01 X5.2309 Y7.0793 F120.00
G01 X5.1931 Y7.1425 F120.00
G01 X5.1869 Y7.1517 F120.00
G01 X5.1396 Y7.2152 F120.00
G01 X5.0866 Y7.2740 F120.00
G01 X5.0787 Y7.2819 F120.00
G01 X5.0199 Y7.3349 F120.00
G01 X4.9519 Y7.3854 F120.00
G01 X4.8841 Y7.4262 F120.00
G01 X4.8742 Y7.4314 F120.00
G01 X4.8077 Y7.4629 F120.00
G01 X4.8000 Y7.4662 F120.00
G01 X4.7228 Y7.4937 F120.00
G01 X4.6407 Y7.5143 F120.00
G01 X4.5568 Y7.5267 F120.00
G01 X4.4722 Y7.5309 F120.00
G01 X4.3876 Y7.5267 F120.00
G01 X4.3038 Y7.5143 F120.00
G01 X4.2216 Y7.4937 F120.00
G01 X4.1470 Y7.4672 F120.00
G01 X4.1367 Y7.4629 F120.00
G01 X4.0652 Y7.4289 F120.00
G01 X3.9972 Y7.3884 F120.00
G01 X3.9880 Y7.3822 F120.00
G01 X3.9289 Y7.3383 F120.00
G01 X3.9203 Y7.3313 F120.00
G01 X3.8617 Y7.2780 F120.00
G01 X3.8048 Y7.2152 F120.00
G01 X3.7543 Y7.1472 F120.00
G01 X3.7135 Y7.0793 F120.00
G01 X3.7095 Y7.0720 F120.00
G01 X3.6745 Y6.9979 F120.00
G01 X3.6460 Y6.9181 F120.00
G01 X3.6254 Y6.8359 F120.00
G01 X3.6130 Y6.7521 F120.00
G01 X3.6088 Y6.6675 F120.00
G01 X3.6130 Y6.5829 F120.00
G01 X3.6254 Y6.4991 F120.00
G01 X3.6452 Y6.4195 F120.00
G01 X3.6477 Y6.4116 F120.00
G01 X3.6745 Y6.3371 F120.00
G01 X3.7108 Y6.2605 F120.00
G01 X3.7543 Y6.1878 F120.00
G01 X3.8031 Y6.1219 F120.00
G01 X3.8084 Y6.1156 F120.00
G01 X3.8617 Y6.0570 F120.00
G01 X3.9224 Y6.0019 F120.00
G01 X3.9289 Y5.9967 F120.00
G01 X3.9902 Y5.9512 F120.00
G01 X4.0285 Y5.9279 F120.00
G00 Z2.0000
G00 X2.7262 Y9.6513
G01 F60.00
G01 Z-0.0500
G01 F120.00
G01 X2.7214 Y9.6570 F120.00
G01 X2.7158 Y9.6628 F120.00
G01 X2.7056 Y9.6717 F120.00
G01 X2.6517 Y9.7130 F120.00
G01 X2.6404 Y9.7203 F120.00
G01 X2.6307 Y9.7251 F120.00
G01 X2.5655 Y9.7522 F120.00
G01 X2.5526 Y9.7563 F120.00
G01 X2.5393 Y9.7589 F120.00
G01 X2.4746 Y9.7674 F120.00
G01 X2.4658 Y9.7682 F120.00
G01 X1.1869 Y9.7684 F120.00
G01 X1.1751 Y9.7675 F120.00
G01 X1.1103 Y9.7590 F120.00
G01 X1.1024 Y9.7576 F120.00
G01 X1.0945 Y9.7557 F120.00
G01 X1.0817 Y9.7513 F120.00
G01 X1.0214 Y9.7263 F120.00
G01 X1.0093 Y9.7204 F120.00
G01 X1.0024 Y9.7162 F120.00
G01 X0.9958 Y9.7115 F120.00
G01 X0.9440 Y9.6718 F120.00
G01 X0.9338 Y9.6630 F120.00
G01 X0.9283 Y9.6571 F120.00
G01 X0.9231 Y9.6509 F120.00
G01 X0.8834 Y9.5991 F120.00
G01 X0.8758 Y9.5879 F120.00
G01 X0.8719 Y9.5808 F120.00
G01 X0.8686 Y9.5735 F120.00
G01 X0.8436 Y9.5132 F120.00
G01 X0.8392 Y9.5004 F120.00
G01 X0.8363 Y9.4873 F120.00
G01 X0.8274 Y9.4199 F120.00
G01 X0.8264 Y9.4051 F120.00
G01 X0.8265 Y8.7691 F120.00
G01 X0.8274 Y8.7603 F120.00
G01 X0.8359 Y8.6956 F120.00
G01 X0.8372 Y8.6876 F120.00
G01 X0.8391 Y8.6797 F120.00
G01 X0.8435 Y8.6670 F120.00
G01 X0.8685 Y8.6067 F120.00
G01 X0.8744 Y8.5946 F120.00
G01 X0.8786 Y8.5876 F120.00
G01 X0.8833 Y8.5811 F120.00
G01 X0.9230 Y8.5293 F120.00
G01 X0.9318 Y8.5191 F120.00
G01 X0.9377 Y8.5135 F120.00
G01 X0.9440 Y8.5083 F120.00
G01 X0.9957 Y8.4686 F120.00
G01 X1.0069 Y8.4610 F120.00
G01 X1.0140 Y8.4572 F120.00
G01 X1.0213 Y8.4538 F120.00
G01 X1.0816 Y8.4288 F120.00
G01 X1.0944 Y8.4244 F120.00
G01 X1.1076 Y8.4215 F120.00
G01 X1.1779 Y8.4123 F120.00
G01 X1.1897 Y8.4117 F120.00
G01 X2.4657 Y8.4117 F120.00
G01 X2.4745 Y8.4125 F120.00
G01 X2.5392 Y8.4210 F120.00
G01 X2.5525 Y8.4236 F120.00
G01 X2.5653 Y8.4277 F120.00
G01 X2.6281 Y8.4537 F120.00
G01 X2.6403 Y8.4596 F120.00
G01 X2.6516 Y8.4668 F120.00
G01 X2.7056 Y8.5082 F120.00
G01 X2.7158 Y8.5170 F120.00
G01 X2.7248 Y8.5270 F120.00
G01 X2.7679 Y8.5831 F120.00
G01 X2.7738 Y8.5921 F120.00
G01 X2.7800 Y8.6041 F120.00
G01 X2.8070 Y8.6693 F120.00
G01 X2.8111 Y8.6822 F120.00
G01 X2.8137 Y8.6954 F120.00
G01 X2.8226 Y8.7637 F120.00
G01 X3.7326 Y8.7637 F120.00
G01 X3.7559 Y8.7255 F120.00
G01 X3.8031 Y8.6619 F120.00
G01 X3.8084 Y8.6556 F120.00
G01 X3.8579 Y8.6010 F120.00
G01 X3.8637 Y8.5950 F120.00
G01 X3.9245 Y8.5401 F120.00
G01 X3.9880 Y8.4928 F120.00
G01 X3.9972 Y8.4866 F120.00
G01 X4.0604 Y8.4488 F120.00
G01 X4.0677 Y8.4448 F120.00
G01 X4.1418 Y8.4098 F120.00
G01 X4.2163 Y8.3830 F120.00
G01 X4.2269 Y8.3798 F120.00
G01 X4.3038 Y8.3607 F120.00
G01 X4.3821 Y8.3489 F120.00
G01 X4.3931 Y8.3479 F120.00
G01 X4.4722 Y8.3441 F120.00
G01 X4.5541 Y8.3480 F120.00
G01 X4.5624 Y8.3489 F120.00
G01 X4.6352 Y8.3597 F120.00
G01 X4.6461 Y8.3619 F120.00
G01 X4.7228 Y8.3813 F120.00
G01 X4.8026 Y8.4098 F120.00
G01 X4.8792 Y8.4461 F120.00
G01 X4.9472 Y8.4866 F120.00
G01 X4.9564 Y8.4928 F120.00
G01 X5.0199 Y8.5401 F120.00
G01 X5.0827 Y8.5970 F120.00
G01 X5.1360 Y8.6556 F120.00
G01 X5.1431 Y8.6642 F120.00
G01 X5.1901 Y8.7278 F120.00
G01 X5.2337 Y8.8005 F120.00
G01 X5.2676 Y8.8720 F120.00
G01 X5.2719 Y8.8823 F120.00
G01 X5.2967 Y8.9516 F120.00
G01 X5.2992 Y8.9595 F120.00
G01 X5.3190 Y9.0391 F120.00
G01 X5.3315 Y9.1229 F120.00
G01 X5.3356 Y9.2075 F120.00
G01 X5.3315 Y9.2921 F120.00
G01 X5.3190 Y9.3759 F120.00
G01 X5.2984 Y9.4581 F120.00
G01 X5.2699 Y9.5379 F120.00
G01 X5.2337 Y9.6145 F120.00
G01 X5.1901 Y9.6872 F120.00
G01 X5.1396 Y9.7552 F120.00
G01 X5.0827 Y9.8180 F120.00
G01 X5.0199 Y9.8749 F120.00
G01 X4.9519 Y9.9254 F120.00
G01 X4.8792 Y9.9689 F120.00
G01 X4.8026 Y10.0052 F120.00
G01 X4.7281 Y10.0320 F120.00
G01 X4.7202 Y10.0345 F120.00
G01 X4.6407 Y10.0543 F120.00
G01 X4.5568 Y10.0667 F120.00
G01 X4.4722 Y10.0709 F120.00
G01 X4.3931 Y10.0671 F120.00
G01 X4.3821 Y10.0661 F120.00
G01 X4.3093 Y10.0553 F120.00
G01 X4.2983 Y10.0531 F120.00
G01 X4.2216 Y10.0337 F120.00
G01 X4.1444 Y10.0062 F120.00
G01 X4.1367 Y10.0029 F120.00
G01 X4.0652 Y9.9689 F120.00
G01 X3.9972 Y9.9284 F120.00
G01 X3.9880 Y9.9222 F120.00
G01 X3.9289 Y9.8783 F120.00
G01 X3.9224 Y9.8731 F120.00
G01 X3.8617 Y9.8180 F120.00
G01 X3.8066 Y9.7574 F120.00
G01 X3.8014 Y9.7508 F120.00
G01 X3.7559 Y9.6895 F120.00
G01 X3.7326 Y9.6513 F120.00
G01 X2.7262 Y9.6513 F120.00
G00 Z2.0000
G00 X2.8015 Y9.8554
G01 F60.00
G01 Z-0.0500
G01 F120.00
G01 X2.7660 Y9.8822 F120.00
G01 X2.7469 Y9.8945 F120.00
G01 X2.7337 Y9.9019 F120.00
G01 X2.7202 Y9.9087 F120.00
G01 X2.7064 Y9.9148 F120.00
G01 X2.6461 Y9.9398 F120.00
G01 X2.6320 Y9.9452 F120.00
G01 X2.6177 Y9.9500 F120.00
G01 X2.6031 Y9.9541 F120.00
G01 X2.5883 Y9.9575 F120.00
G01 X2.5734 Y9.9602 F120.00
G01 X2.4930 Y9.9707 F120.00
G01 X2.4682 Y9.9724 F120.00
G01 X1.1899 Y9.9726 F120.00
G01 X1.1733 Y9.9721 F120.00
G01 X1.1485 Y9.9699 F120.00
G01 X1.0763 Y9.9603 F120.00
G01 X1.0540 Y9.9560 F120.00
G01 X1.0321 Y9.9501 F120.00
G01 X1.0107 Y9.9427 F120.00
G01 X0.9364 Y9.9120 F120.00
G01 X0.9227 Y9.9055 F120.00
G01 X0.9094 Y9.8984 F120.00
G01 X0.8900 Y9.8866 F120.00
G01 X0.8715 Y9.8735 F120.00
G01 X0.8138 Y9.8291 F120.00
G01 X0.7967 Y9.8142 F120.00
G01 X0.7859 Y9.8037 F120.00
G01 X0.7756 Y9.7926 F120.00
G01 X0.7659 Y9.7811 F120.00
G01 X0.7214 Y9.7234 F120.00
G01 X0.7083 Y9.7049 F120.00
G01 X0.7003 Y9.6921 F120.00
G01 X0.6929 Y9.6789 F120.00
G01 X0.6829 Y9.6585 F120.00
G01 X0.6522 Y9.5843 F120.00
G01 X0.6448 Y9.5629 F120.00
G01 X0.6407 Y9.5483 F120.00
G01 X0.6359 Y9.5262 F120.00
G01 X0.6336 Y9.5113 F120.00
G01 X0.6250 Y9.4466 F120.00
G01 X0.6227 Y9.4217 F120.00
G01 X0.6223 Y9.4051 F120.00
G01 X0.6223 Y8.7751 F120.00
G01 X0.6232 Y8.7502 F120.00
G01 X0.6250 Y8.7337 F120.00
G01 X0.6346 Y8.6615 F120.00
G01 X0.6389 Y8.6392 F120.00
G01 X0.6447 Y8.6173 F120.00
G01 X0.6521 Y8.5959 F120.00
G01 X0.6829 Y8.5217 F120.00
G01 X0.6928 Y8.5013 F120.00
G01 X0.7002 Y8.4881 F120.00
G01 X0.7082 Y8.4753 F120.00
G01 X0.7213 Y8.4568 F120.00
G01 X0.7611 Y8.4050 F120.00
G01 X0.7755 Y8.3875 F120.00
G01 X0.7858 Y8.3765 F120.00
G01 X0.8022 Y8.3608 F120.00
G01 X0.8137 Y8.3511 F120.00
G01 X0.8714 Y8.3067 F120.00
G01 X0.8836 Y8.2978 F120.00
G01 X0.9027 Y8.2855 F120.00
G01 X0.9159 Y8.2781 F120.00
G01 X0.9294 Y8.2713 F120.00
G01 X0.9432 Y8.2652 F120.00
G01 X1.0035 Y8.2402 F120.00
G01 X1.0176 Y8.2348 F120.00
G01 X1.0392 Y8.2279 F120.00
G01 X1.0539 Y8.2241 F120.00
G01 X1.0762 Y8.2198 F120.00
G01 X1.1566 Y8.2093 F120.00
G01 X1.1731 Y8.2080 F120.00
G01 X1.1897 Y8.2075 F120.00
G01 X2.4680 Y8.2075 F120.00
G01 X2.4929 Y8.2092 F120.00
G01 X2.5733 Y8.2197 F120.00
G01 X2.5956 Y8.2240 F120.00
G01 X2.6175 Y8.2299 F120.00
G01 X2.6318 Y8.2346 F120.00
G01 X2.6459 Y8.2401 F120.00
G01 X2.7062 Y8.2651 F120.00
G01 X2.7201 Y8.2712 F120.00
G01 X2.7336 Y8.2780 F120.00
G01 X2.7468 Y8.2854 F120.00
G01 X2.7659 Y8.2976 F120.00
G01 X2.7781 Y8.3065 F120.00
G01 X2.8298 Y8.3463 F120.00
G01 X2.8416 Y8.3557 F120.00
G01 X2.8529 Y8.3658 F120.00
G01 X2.8637 Y8.3763 F120.00
G01 X2.8789 Y8.3931 F120.00
G01 X2.8884 Y8.4048 F120.00
G01 X2.9282 Y8.4566 F120.00
G01 X2.9371 Y8.4688 F120.00
G01 X2.9454 Y8.4814 F120.00
G01 X2.9567 Y8.5011 F120.00
G01 X2.9635 Y8.5146 F120.00
G01 X2.9825 Y8.5596 F120.00
G01 X3.6248 Y8.5596 F120.00
G01 X3.6421 Y8.5364 F120.00
G01 X3.6520 Y8.5243 F120.00
G01 X3.7119 Y8.4582 F120.00
G01 X3.7287 Y8.4419 F120.00
G01 X3.7832 Y8.3925 F120.00
G01 X3.8011 Y8.3774 F120.00
G01 X3.8664 Y8.3289 F120.00
G01 X3.8791 Y8.3199 F120.00
G01 X3.8923 Y8.3116 F120.00
G01 X3.9554 Y8.2737 F120.00
G01 X3.9759 Y8.2624 F120.00
G01 X4.0565 Y8.2243 F120.00
G01 X4.0782 Y8.2156 F120.00
G01 X4.1475 Y8.1908 F120.00
G01 X4.1623 Y8.1860 F120.00
G01 X4.1774 Y8.1818 F120.00
G01 X4.2487 Y8.1639 F120.00
G01 X4.2640 Y8.1605 F120.00
G01 X4.2793 Y8.1578 F120.00
G01 X4.3521 Y8.1470 F120.00
G01 X4.3676 Y8.1451 F120.00
G01 X4.3831 Y8.1440 F120.00
G01 X4.4566 Y8.1404 F120.00
G01 X4.4800 Y8.1401 F120.00
G01 X4.5691 Y8.1445 F120.00
G01 X4.5923 Y8.1470 F120.00
G01 X4.6651 Y8.1578 F120.00
G01 X4.6805 Y8.1605 F120.00
G01 X4.6957 Y8.1639 F120.00
G01 X4.7671 Y8.1818 F120.00
G01 X4.7821 Y8.1860 F120.00
G01 X4.7969 Y8.1908 F120.00
G01 X4.8662 Y8.2156 F120.00
G01 X4.8807 Y8.2212 F120.00
G01 X4.8950 Y8.2276 F120.00
G01 X4.9615 Y8.2590 F120.00
G01 X4.9754 Y8.2660 F120.00
G01 X4.9890 Y8.2737 F120.00
G01 X5.0521 Y8.3116 F120.00
G01 X5.0653 Y8.3199 F120.00
G01 X5.0780 Y8.3289 F120.00
G01 X5.1372 Y8.3727 F120.00
G01 X5.1494 Y8.3823 F120.00
G01 X5.1612 Y8.3925 F120.00
G01 X5.2158 Y8.4419 F120.00
G01 X5.2271 Y8.4527 F120.00
G01 X5.2378 Y8.4639 F120.00
G01 X5.2872 Y8.5185 F120.00
G01 X5.2974 Y8.5303 F120.00
G01 X5.3070 Y8.5426 F120.00
G01 X5.3508 Y8.6017 F120.00
G01 X5.3598 Y8.6144 F120.00
G01 X5.3682 Y8.6276 F120.00
G01 X5.4060 Y8.6907 F120.00
G01 X5.4137 Y8.7043 F120.00
G01 X5.4207 Y8.7182 F120.00
G01 X5.4522 Y8.7847 F120.00
G01 X5.4614 Y8.8062 F120.00
G01 X5.4889 Y8.8828 F120.00
G01 X5.4938 Y8.8976 F120.00
G01 X5.4979 Y8.9126 F120.00
G01 X5.5158 Y8.9840 F120.00
G01 X5.5192 Y8.9992 F120.00
G01 X5.5219 Y9.0146 F120.00
G01 X5.5327 Y9.0874 F120.00
G01 X5.5346 Y9.1029 F120.00
G01 X5.5357 Y9.1184 F120.00
G01 X5.5393 Y9.1919 F120.00
G01 X5.5397 Y9.2075 F120.00
G01 X5.5393 Y9.2231 F120.00
G01 X5.5357 Y9.2966 F120.00
G01 X5.5346 Y9.3121 F120.00
G01 X5.5327 Y9.3276 F120.00
G01 X5.5219 Y9.4004 F120.00
G01 X5.5192 Y9.4158 F120.00
G01 X5.5158 Y9.4310 F120.00
G01 X5.4979 Y9.5024 F120.00
G01 X5.4938 Y9.5174 F120.00
G01 X5.4889 Y9.5322 F120.00
G01 X5.4641 Y9.6015 F120.00
G01 X5.4585 Y9.6160 F120.00
G01 X5.4522 Y9.6303 F120.00
G01 X5.4207 Y9.6968 F120.00
G01 X5.4137 Y9.7107 F120.00
G01 X5.4060 Y9.7243 F120.00
G01 X5.3682 Y9.7874 F120.00
G01 X5.3598 Y9.8006 F120.00
G01 X5.3508 Y9.8133 F120.00
G01 X5.3070 Y9.8724 F120.00
G01 X5.2974 Y9.8847 F120.00
G01 X5.2872 Y9.8965 F120.00
G01 X5.2378 Y9.9511 F120.00
G01 X5.2271 Y9.9623 F120.00
G01 X5.2158 Y9.9731 F120.00
G01 X5.1612 Y10.0225 F120.00
G01 X5.1494 Y10.0327 F120.00
G01 X5.1372 Y10.0423 F120.00
G01 X5.0780 Y10.0861 F120.00
G01 X5.0653 Y10.0951 F120.00
G01 X5.0521 Y10.1034 F120.00
G01 X4.9890 Y10.1413 F120.00
G01 X4.9754 Y10.1490 F120.00
G01 X4.9615 Y10.1560 F120.00
G01 X4.8950 Y10.1874 F120.00
G01 X4.8735 Y10.1966 F120.00
G01 X4.7969 Y10.2242 F120.00
G01 X4.7821 Y10.2290 F120.00
G01 X4.7671 Y10.2332 F120.00
G01 X4.6957 Y10.2511 F120.00
G01 X4.6805 Y10.2545 F120.00
G01 X4.6651 Y10.2572 F120.00
G01 X4.5923 Y10.2680 F120.00
G01 X4.5769 Y10.2699 F120.00
G01 X4.5613 Y10.2710 F120.00
G01 X4.4878 Y10.2746 F120.00
G01 X4.4722 Y10.2750 F120.00
G01 X4.4566 Y10.2746 F120.00
G01 X4.3831 Y10.2710 F120.00
G01 X4.3676 Y10.2699 F120.00
G01 X4.3521 Y10.2680 F120.00
G01 X4.2716 Y10.2559 F120.00
G01 X4.2487 Y10.2511 F120.00
G01 X4.1774 Y10.2332 F120.00
G01 X4.1623 Y10.2290 F120.00
G01 X4.1475 Y10.2242 F120.00
G01 X4.0782 Y10.1994 F120.00
G01 X4.0637 Y10.1938 F120.00
G01 X4.0494 Y10.1874 F120.00
G01 X3.9829 Y10.1560 F120.00
G01 X3.9690 Y10.1490 F120.00
G01 X3.9554 Y10.1413 F120.00
G01 X3.8857 Y10.0994 F120.00
G01 X3.8664 Y10.0861 F120.00
G01 X3.8073 Y10.0423 F120.00
G01 X3.7950 Y10.0327 F120.00
G01 X3.7832 Y10.0225 F120.00
G01 X3.7229 Y9.9678 F120.00
G01 X3.7066 Y9.9511 F120.00
G01 X3.6520 Y9.8907 F120.00
G01 X3.6421 Y9.8786 F120.00
G01 X3.6248 Y9.8554 F120.00
G01 X2.8015 Y9.8554 F120.00
G00 Z2.0000
G00 X10.0183 Y7.9375
G01 F60.00
G01 Z-0.0500
G01 F120.00
G01 X10.0841 Y7.9341 F120.00
G01 X10.1096 Y7.9316 F120.00
G01 X10.1951 Y7.9191 F120.00
G01 X10.2203 Y7.9147 F120.00
G01 X10.2328 Y7.9121 F120.00
G01 X10.3167 Y7.8912 F120.00
G01 X10.3414 Y7.8844 F120.00
G01 X10.3536 Y7.8805 F120.00
G01 X10.4470 Y7.8471 F120.00
G01 X10.4706 Y7.8373 F120.00
G01 X10.4823 Y7.8320 F120.00
G01 X10.5603 Y7.7949 F120.00
G01 X10.5829 Y7.7828 F120.00
G01 X10.6571 Y7.7385 F120.00
G01 X10.6787 Y7.7248 F120.00
G01 X10.6893 Y7.7176 F120.00
G01 X10.7588 Y7.6662 F120.00
G01 X10.7789 Y7.6505 F120.00
G01 X10.7887 Y7.6422 F120.00
G01 X10.8622 Y7.5756 F120.00
G01 X10.8804 Y7.5575 F120.00
G01 X10.9150 Y7.5195 F120.00
G01 X16.1122 Y7.5195 F120.00
G01 X16.1378 Y7.5189 F120.00
G01 X16.1702 Y7.5173 F120.00
G01 X16.1957 Y7.5154 F120.00
G01 X16.2211 Y7.5123 F120.00
G01 X16.2532 Y7.5075 F120.00
G01 X16.2784 Y7.5031 F120.00
G01 X16.3034 Y7.4975 F120.00
G01 X16.3349 Y7.4896 F120.00
G01 X16.3595 Y7.4828 F120.00
G01 X16.3839 Y7.4748 F120.00
G01 X16.4264 Y7.4594 F120.00
G01 X16.4500 Y7.4496 F120.00
G01 X16.5025 Y7.4248 F120.00
G01 X16.5251 Y7.4127 F120.00
G01 X16.5748 Y7.3829 F120.00
G01 X16.5961 Y7.3687 F120.00
G01 X16.6427 Y7.3341 F120.00
G01 X16.6625 Y7.3179 F120.00
G01 X16.7055 Y7.2789 F120.00
G01 X19.6401 Y4.3445 F120.00
G01 X30.5002 Y4.3445 F120.00
G01 X30.5002 Y6.8115 F120.00
G01 X30.4754 Y6.7998 F120.00
G01 X30.4519 Y6.7894 F120.00
G01 X30.4281 Y6.7802 F120.00
G01 X30.3749 Y6.7613 F120.00
G01 X30.3504 Y6.7539 F120.00
G01 X30.2832 Y6.7371 F120.00
G01 X30.2581 Y6.7321 F120.00
G01 X30.2455 Y6.7301 F120.00
G01 X30.2023 Y6.7237 F120.00
G01 X30.1769 Y6.7205 F120.00
G01 X30.1514 Y6.7186 F120.00
G01 X30.1078 Y6.7165 F120.00
G01 X30.0950 Y6.7160 F120.00
G01 X30.0694 Y6.7160 F120.00
G01 X30.0003 Y6.7194 F120.00
G01 X29.9748 Y6.7219 F120.00
G01 X29.9063 Y6.7321 F120.00
G01 X29.8812 Y6.7371 F120.00
G01 X29.8688 Y6.7400 F120.00
G01 X29.8264 Y6.7506 F120.00
G01 X29.8018 Y6.7575 F120.00
G01 X29.7775 Y6.7655 F120.00
G01 X29.7364 Y6.7802 F120.00
G01 X29.7244 Y6.7847 F120.00
G01 X29.7007 Y6.7945 F120.00
G01 X29.6382 Y6.8240 F120.00
G01 X29.6268 Y6.8299 F120.00
G01 X29.6045 Y6.8426 F120.00
G01 X29.5671 Y6.8650 F120.00
G01 X29.5455 Y6.8787 F120.00
G01 X29.5245 Y6.8934 F120.00
G01 X29.4895 Y6.9194 F120.00
G01 X29.4693 Y6.9352 F120.00
G01 X29.4499 Y6.9519 F120.00
G01 X29.4176 Y6.9812 F120.00
G01 X29.3991 Y6.9988 F120.00
G01 X29.3901 Y7.0080 F120.00
G01 X29.3436 Y7.0593 F120.00
G01 X29.3354 Y7.0691 F120.00
G01 X29.3196 Y7.0893 F120.00
G01 X29.2937 Y7.1243 F120.00
G01 X29.2789 Y7.1452 F120.00
G01 X29.2652 Y7.1669 F120.00
G01 X29.2428 Y7.2043 F120.00
G01 X29.2363 Y7.2154 F120.00
G01 X29.2243 Y7.2379 F120.00
G01 X29.1947 Y7.3005 F120.00
G01 X29.1849 Y7.3242 F120.00
G01 X29.1804 Y7.3362 F120.00
G01 X29.1657 Y7.3772 F120.00
G01 X29.1577 Y7.4015 F120.00
G01 X29.1509 Y7.4262 F120.00
G01 X29.1403 Y7.4685 F120.00
G01 X29.1346 Y7.4935 F120.00
G01 X29.1303 Y7.5187 F120.00
G01 X29.1239 Y7.5619 F120.00
G01 X29.1207 Y7.5873 F120.00
G01 X29.1189 Y7.6128 F120.00
G01 X29.1162 Y7.6692 F120.00
G01 X29.1161 Y8.1930 F120.00
G01 X29.1167 Y8.2186 F120.00
G01 X29.1189 Y8.2622 F120.00
G01 X29.1207 Y8.2877 F120.00
G01 X29.1239 Y8.3131 F120.00
G01 X29.1303 Y8.3563 F120.00
G01 X29.1323 Y8.3689 F120.00
G01 X29.1373 Y8.3940 F120.00
G01 X29.1541 Y8.4612 F120.00
G01 X29.1616 Y8.4857 F120.00
G01 X29.1657 Y8.4978 F120.00
G01 X29.1804 Y8.5388 F120.00
G01 X29.1896 Y8.5627 F120.00
G01 X29.2000 Y8.5861 F120.00
G01 X29.2187 Y8.6256 F120.00
G01 X29.2302 Y8.6485 F120.00
G01 X29.2302 Y9.5250 F120.00
G01 X29.2308 Y9.5506 F120.00
G01 X29.2324 Y9.5830 F120.00
G01 X29.2343 Y9.6085 F120.00
G01 X29.2357 Y9.6212 F120.00
G01 X29.2422 Y9.6660 F120.00
G01 X29.2466 Y9.6912 F120.00
G01 X29.2522 Y9.7162 F120.00
G01 X29.2633 Y9.7600 F120.00
G01 X29.2708 Y9.7845 F120.00
G01 X29.2749 Y9.7966 F120.00
G01 X29.2903 Y9.8392 F120.00
G01 X29.3001 Y9.8628 F120.00
G01 X29.3193 Y9.9038 F120.00
G01 X29.3308 Y9.9266 F120.00
G01 X29.3434 Y9.9489 F120.00
G01 X29.3668 Y9.9876 F120.00
G01 X29.3738 Y9.9983 F120.00
G01 X29.3886 Y10.0193 F120.00
G01 X29.4156 Y10.0555 F120.00
