(G-CODE GENERATED BY FLATCAM v8.994 - www.flatcam.org - Version Date: 2020/11/7)

(Name: 2 - Bottom.gbr_iso_combined_cnc)
(Type: G-code from Geometry)
(Units: MM)

(Created on Monday, 06 December 2021 at 12:40)

(This preprocessor is used with a motion controller loaded with GRBL firmware.)
(It is configured to be compatible with almost any version of GRBL firmware.)

(TOOL DIAMETER: 0.1268 mm)
(Feedrate_XY: 90.0 mm/min)
(Feedrate_Z: 60.0 mm/min)
(Feedrate rapids 1500.0 mm/min)

(Z_Cut: -0.05 mm)
(Z_Move: 2.0 mm)
(Z Start: None mm)
(Z End: 5.0 mm)
(X,Y End: 0.0000, 0.0000 mm)
(Steps per circle: 64)
(Steps per circle: 64)
(Preprocessor Geometry: GRBL_11_no_M6)

(X range:    0.4198 ...   42.0450  mm)
(Y range:    0.7373 ...   13.8677  mm)

(Spindle Speed: 10000.0 RPM)
G21
G90
G17
G94


G01 F90.00

M5             
G00 Z15.0000
G00 X0.0000 Y0.0000                
T1
(MSG, Change to Tool Dia = 0.1268)
M0
G00 Z15.0000
        
M03 S10000.0
G01 F90.00
G00 X0.9744 Y5.0960
G01 F60.00
G01 Z-0.0500
G01 F90.00
G01 X0.9744 Y3.8101 F90.00
G01 X0.9750 Y3.7846 F90.00
G01 X0.9774 Y3.7395 F90.00
G01 X0.9799 Y3.7141 F90.00
G01 X0.9864 Y3.6693 F90.00
G01 X0.9884 Y3.6567 F90.00
G01 X0.9934 Y3.6317 F90.00
G01 X1.0042 Y3.5879 F90.00
G01 X1.0110 Y3.5633 F90.00
G01 X1.0190 Y3.5390 F90.00
G01 X1.0299 Y3.5085 F90.00
G01 X1.0344 Y3.4965 F90.00
G01 X1.0442 Y3.4730 F90.00
G01 X1.0633 Y3.4321 F90.00
G01 X1.0748 Y3.4093 F90.00
G01 X1.0874 Y3.3871 F90.00
G01 X1.1040 Y3.3593 F90.00
G01 X1.1107 Y3.3484 F90.00
G01 X1.1249 Y3.3272 F90.00
G01 X1.1517 Y3.2908 F90.00
G01 X1.1674 Y3.2707 F90.00
G01 X1.1841 Y3.2514 F90.00
G01 X1.2058 Y3.2273 F90.00
G01 X1.2234 Y3.2089 F90.00
G01 X3.4460 Y0.9863 F90.00
G01 X3.4645 Y0.9687 F90.00
G01 X3.4981 Y0.9385 F90.00
G01 X3.5178 Y0.9223 F90.00
G01 X3.5540 Y0.8952 F90.00
G01 X3.5749 Y0.8805 F90.00
G01 X3.5964 Y0.8669 F90.00
G01 X3.6242 Y0.8502 F90.00
G01 X3.6464 Y0.8377 F90.00
G01 X3.6692 Y0.8262 F90.00
G01 X3.7101 Y0.8070 F90.00
G01 X3.7337 Y0.7972 F90.00
G01 X3.7762 Y0.7819 F90.00
G01 X3.8004 Y0.7739 F90.00
G01 X3.8250 Y0.7671 F90.00
G01 X3.8689 Y0.7562 F90.00
G01 X3.8939 Y0.7513 F90.00
G01 X3.9386 Y0.7445 F90.00
G01 X3.9639 Y0.7414 F90.00
G01 X3.9893 Y0.7395 F90.00
G01 X4.0217 Y0.7379 F90.00
G01 X4.0472 Y0.7373 F90.00
G01 X40.2422 Y0.7373 F90.00
G01 X40.2677 Y0.7379 F90.00
G01 X40.3001 Y0.7395 F90.00
G01 X40.3256 Y0.7414 F90.00
G01 X40.3509 Y0.7445 F90.00
G01 X40.3956 Y0.7513 F90.00
G01 X40.4081 Y0.7536 F90.00
G01 X40.4330 Y0.7592 F90.00
G01 X40.4768 Y0.7703 F90.00
G01 X40.5012 Y0.7777 F90.00
G01 X40.5438 Y0.7928 F90.00
G01 X40.5676 Y0.8020 F90.00
G01 X40.5909 Y0.8123 F90.00
G01 X40.6202 Y0.8262 F90.00
G01 X40.6317 Y0.8318 F90.00
G01 X40.6542 Y0.8438 F90.00
G01 X40.6930 Y0.8669 F90.00
G01 X40.7146 Y0.8805 F90.00
G01 X40.7355 Y0.8952 F90.00
G01 X40.7615 Y0.9146 F90.00
G01 X40.7716 Y0.9223 F90.00
G01 X40.7914 Y0.9385 F90.00
G01 X40.8250 Y0.9687 F90.00
G01 X40.8434 Y0.9863 F90.00
G01 X41.8048 Y1.9479 F90.00
G01 X41.8353 Y1.9813 F90.00
G01 X41.8520 Y2.0006 F90.00
G01 X41.8677 Y2.0207 F90.00
G01 X41.8945 Y2.0571 F90.00
G01 X41.9086 Y2.0783 F90.00
G01 X41.9320 Y2.1170 F90.00
G01 X41.9446 Y2.1392 F90.00
G01 X41.9560 Y2.1620 F90.00
G01 X41.9752 Y2.2029 F90.00
G01 X41.9850 Y2.2265 F90.00
G01 X42.0004 Y2.2690 F90.00
G01 X42.0084 Y2.2932 F90.00
G01 X42.0152 Y2.3178 F90.00
G01 X42.0230 Y2.3492 F90.00
G01 X42.0286 Y2.3741 F90.00
G01 X42.0330 Y2.3993 F90.00
G01 X42.0395 Y2.4440 F90.00
G01 X42.0409 Y2.4567 F90.00
G01 X42.0427 Y2.4821 F90.00
G01 X42.0443 Y2.5145 F90.00
G01 X42.0450 Y2.5400 F90.00
G01 X42.0450 Y5.3975 F90.00
G01 X42.0443 Y5.4230 F90.00
G01 X42.0427 Y5.4554 F90.00
G01 X42.0409 Y5.4808 F90.00
G01 X42.0377 Y5.5062 F90.00
G01 X42.0330 Y5.5382 F90.00
G01 X42.0310 Y5.5508 F90.00
G01 X42.0260 Y5.5759 F90.00
G01 X42.0119 Y5.6321 F90.00
G01 X42.0084 Y5.6443 F90.00
G01 X42.0004 Y5.6685 F90.00
G01 X41.9894 Y5.6991 F90.00
G01 X41.9802 Y5.7229 F90.00
G01 X41.9699 Y5.7462 F90.00
G01 X41.9560 Y5.7755 F90.00
G01 X41.9504 Y5.7870 F90.00
G01 X41.9384 Y5.8095 F90.00
G01 X41.9086 Y5.8592 F90.00
G01 X41.8945 Y5.8804 F90.00
G01 X41.8870 Y5.8907 F90.00
G01 X41.8677 Y5.9168 F90.00
G01 X41.8520 Y5.9369 F90.00
G01 X41.8353 Y5.9562 F90.00
G01 X41.8135 Y5.9802 F90.00
G01 X41.7959 Y5.9987 F90.00
G01 X41.1609 Y6.6337 F90.00
G01 X41.1425 Y6.6513 F90.00
G01 X41.1184 Y6.6731 F90.00
G01 X41.0991 Y6.6897 F90.00
G01 X41.0891 Y6.6977 F90.00
G01 X41.0426 Y6.7322 F90.00
G01 X41.0214 Y6.7464 F90.00
G01 X41.0105 Y6.7531 F90.00
G01 X40.9827 Y6.7698 F90.00
G01 X40.9605 Y6.7823 F90.00
G01 X40.9377 Y6.7938 F90.00
G01 X40.9084 Y6.8077 F90.00
G01 X40.8851 Y6.8180 F90.00
G01 X40.8613 Y6.8272 F90.00
G01 X40.8308 Y6.8381 F90.00
G01 X40.8187 Y6.8423 F90.00
G01 X40.7943 Y6.8497 F90.00
G01 X40.7381 Y6.8638 F90.00
G01 X40.7131 Y6.8687 F90.00
G01 X40.6557 Y6.8772 F90.00
G01 X40.6303 Y6.8797 F90.00
G01 X40.5852 Y6.8821 F90.00
G01 X40.5597 Y6.8827 F90.00
G01 X40.3467 Y6.8827 F90.00
G01 X40.3116 Y6.9213 F90.00
G01 X40.2935 Y6.9393 F90.00
G01 X40.2201 Y7.0059 F90.00
G01 X40.2004 Y7.0221 F90.00
G01 X40.1902 Y7.0298 F90.00
G01 X40.1207 Y7.0811 F90.00
G01 X40.1102 Y7.0884 F90.00
G01 X40.0887 Y7.1020 F90.00
G01 X40.0255 Y7.1399 F90.00
G01 X40.0033 Y7.1524 F90.00
G01 X39.9805 Y7.1639 F90.00
G01 X39.9024 Y7.2007 F90.00
G01 X39.8788 Y7.2105 F90.00
G01 X39.8669 Y7.2149 F90.00
G01 X39.7976 Y7.2397 F90.00
G01 X39.7733 Y7.2477 F90.00
G01 X39.7488 Y7.2545 F90.00
G01 X39.6649 Y7.2753 F90.00
G01 X39.6525 Y7.2780 F90.00
G01 X39.6273 Y7.2823 F90.00
G01 X39.5419 Y7.2949 F90.00
G01 X39.5165 Y7.2974 F90.00
G01 X39.4302 Y7.3017 F90.00
G01 X39.4047 Y7.3024 F90.00
G01 X37.9047 Y7.3024 F90.00
G01 X37.8792 Y7.3017 F90.00
G01 X37.8057 Y7.2981 F90.00
G01 X37.7803 Y7.2963 F90.00
G01 X37.7549 Y7.2931 F90.00
G01 X37.6695 Y7.2803 F90.00
G01 X37.6445 Y7.2753 F90.00
G01 X37.6321 Y7.2724 F90.00
G01 X37.5484 Y7.2512 F90.00
G01 X37.5239 Y7.2438 F90.00
G01 X37.4426 Y7.2149 F90.00
G01 X37.4188 Y7.2057 F90.00
G01 X37.3954 Y7.1954 F90.00
G01 X37.3174 Y7.1583 F90.00
G01 X37.2949 Y7.1463 F90.00
G01 X37.2208 Y7.1020 F90.00
G01 X37.1992 Y7.0884 F90.00
G01 X37.1784 Y7.0737 F90.00
G01 X37.1091 Y7.0221 F90.00
G01 X37.0894 Y7.0059 F90.00
G01 X37.0798 Y6.9975 F90.00
G01 X37.0159 Y6.9393 F90.00
G01 X36.9979 Y6.9213 F90.00
G01 X36.9627 Y6.8827 F90.00
G01 X36.0244 Y6.8827 F90.00
G01 X36.0024 Y6.8895 F90.00
G01 X35.9784 Y6.8956 F90.00
G01 X35.9663 Y6.8982 F90.00
G01 X35.9419 Y6.9026 F90.00
G01 X35.8515 Y6.9145 F90.00
G01 X35.8379 Y6.9157 F90.00
G01 X35.8108 Y6.9171 F90.00
G01 X34.5272 Y6.9174 F90.00
G01 X34.1668 Y7.2776 F90.00
G01 X34.1239 Y7.3165 F90.00
G01 X34.1041 Y7.3327 F90.00
G01 X34.0576 Y7.3672 F90.00
G01 X34.0364 Y7.3814 F90.00
G01 X33.9977 Y7.4048 F90.00
G01 X33.9755 Y7.4173 F90.00
G01 X33.9527 Y7.4288 F90.00
G01 X33.9234 Y7.4427 F90.00
G01 X33.9118 Y7.4480 F90.00
G01 X33.8882 Y7.4578 F90.00
G01 X33.8458 Y7.4731 F90.00
G01 X33.8215 Y7.4811 F90.00
G01 X33.7969 Y7.4879 F90.00
G01 X33.7531 Y7.4988 F90.00
G01 X33.7281 Y7.5037 F90.00
G01 X33.7155 Y7.5058 F90.00
G01 X33.6834 Y7.5105 F90.00
G01 X33.6581 Y7.5136 F90.00
G01 X33.6326 Y7.5155 F90.00
G01 X33.5909 Y7.5175 F90.00
G01 X33.5766 Y7.5570 F90.00
G01 X33.5668 Y7.5806 F90.00
G01 X33.5346 Y7.6487 F90.00
G01 X33.5226 Y7.6712 F90.00
G01 X33.4838 Y7.7359 F90.00
G01 X33.4769 Y7.7466 F90.00
G01 X33.4622 Y7.7674 F90.00
G01 X33.4325 Y7.8075 F90.00
G01 X33.4168 Y7.8276 F90.00
G01 X33.4001 Y7.8469 F90.00
G01 X33.3666 Y7.8838 F90.00
G01 X33.3580 Y7.8932 F90.00
G01 X33.3399 Y7.9112 F90.00
G01 X33.2841 Y7.9618 F90.00
G01 X33.2643 Y7.9780 F90.00
G01 X33.2038 Y8.0229 F90.00
G01 X33.1826 Y8.0371 F90.00
G01 X33.1717 Y8.0438 F90.00
G01 X33.1290 Y8.0694 F90.00
G01 X33.1068 Y8.0820 F90.00
G01 X33.0840 Y8.0935 F90.00
G01 X33.0389 Y8.1148 F90.00
G01 X33.0156 Y8.1251 F90.00
G01 X33.0037 Y8.1299 F90.00
G01 X32.9328 Y8.1553 F90.00
G01 X32.9083 Y8.1627 F90.00
G01 X32.8960 Y8.1659 F90.00
G01 X32.8476 Y8.1780 F90.00
G01 X32.8228 Y8.1836 F90.00
G01 X32.7976 Y8.1880 F90.00
G01 X32.7483 Y8.1953 F90.00
G01 X32.7230 Y8.1984 F90.00
G01 X32.7103 Y8.1995 F90.00
G01 X32.6350 Y8.2032 F90.00
G01 X32.6095 Y8.2032 F90.00
G01 X32.5967 Y8.2028 F90.00
G01 X32.5469 Y8.2003 F90.00
G01 X32.5215 Y8.1984 F90.00
G01 X32.4961 Y8.1953 F90.00
G01 X32.4342 Y8.1860 F90.00
G01 X32.4092 Y8.1810 F90.00
G01 X32.3968 Y8.1780 F90.00
G01 X32.3484 Y8.1659 F90.00
G01 X32.3238 Y8.1591 F90.00
G01 X32.2996 Y8.1511 F90.00
G01 X32.2527 Y8.1343 F90.00
G01 X32.2407 Y8.1299 F90.00
G01 X32.2171 Y8.1201 F90.00
G01 X32.1490 Y8.0879 F90.00
G01 X32.1265 Y8.0759 F90.00
G01 X32.1155 Y8.0694 F90.00
G01 X32.0727 Y8.0438 F90.00
G01 X32.0512 Y8.0301 F90.00
G01 X32.0303 Y8.0155 F90.00
G01 X31.9872 Y7.9834 F90.00
G01 X31.9441 Y8.0155 F90.00
G01 X31.9233 Y8.0301 F90.00
G01 X31.9017 Y8.0438 F90.00
G01 X31.8590 Y8.0694 F90.00
G01 X31.8479 Y8.0759 F90.00
G01 X31.8254 Y8.0879 F90.00
G01 X31.7689 Y8.1148 F90.00
G01 X31.7456 Y8.1251 F90.00
G01 X31.7218 Y8.1343 F90.00
G01 X31.6628 Y8.1553 F90.00
G01 X31.6506 Y8.1591 F90.00
G01 X31.6260 Y8.1659 F90.00
G01 X31.5776 Y8.1780 F90.00
G01 X31.5528 Y8.1836 F90.00
G01 X31.5276 Y8.1880 F90.00
G01 X31.4657 Y8.1970 F90.00
G01 X31.4403 Y8.1995 F90.00
G01 X31.3777 Y8.2028 F90.00
G01 X31.3650 Y8.2032 F90.00
G01 X31.3395 Y8.2032 F90.00
G01 X31.2769 Y8.2003 F90.00
G01 X31.2515 Y8.1984 F90.00
G01 X31.2261 Y8.1953 F90.00
G01 X31.1768 Y8.1880 F90.00
G01 X31.1517 Y8.1836 F90.00
G01 X31.1392 Y8.1810 F90.00
G01 X31.0784 Y8.1659 F90.00
G01 X31.0538 Y8.1591 F90.00
G01 X31.0296 Y8.1511 F90.00
G01 X30.9707 Y8.1299 F90.00
G01 X30.9471 Y8.1201 F90.00
G01 X30.9325 Y8.1133 F90.00
G01 X30.9325 Y9.1728 F90.00
G01 X32.0219 Y10.2623 F90.00
G01 X36.9627 Y10.2623 F90.00
G01 X36.9979 Y10.2237 F90.00
G01 X37.0159 Y10.2057 F90.00
G01 X37.0894 Y10.1391 F90.00
G01 X37.1091 Y10.1229 F90.00
G01 X37.1192 Y10.1152 F90.00
G01 X37.1887 Y10.0639 F90.00
G01 X37.1992 Y10.0566 F90.00
G01 X37.2208 Y10.0430 F90.00
G01 X37.2839 Y10.0051 F90.00
G01 X37.3061 Y9.9926 F90.00
G01 X37.3289 Y9.9811 F90.00
G01 X37.4070 Y9.9443 F90.00
G01 X37.4306 Y9.9345 F90.00
G01 X37.4426 Y9.9301 F90.00
G01 X37.5119 Y9.9053 F90.00
G01 X37.5361 Y9.8973 F90.00
G01 X37.5607 Y9.8905 F90.00
G01 X37.6321 Y9.8726 F90.00
G01 X37.6570 Y9.8670 F90.00
G01 X37.6821 Y9.8627 F90.00
G01 X37.7549 Y9.8519 F90.00
G01 X37.7803 Y9.8487 F90.00
G01 X37.8057 Y9.8469 F90.00
G01 X37.8792 Y9.8433 F90.00
G01 X37.9047 Y9.8426 F90.00
G01 X39.4175 Y9.8428 F90.00
G01 X39.5037 Y9.8469 F90.00
G01 X39.5292 Y9.8487 F90.00
G01 X39.5545 Y9.8519 F90.00
G01 X39.6399 Y9.8647 F90.00
G01 X39.6649 Y9.8697 F90.00
G01 X39.7488 Y9.8905 F90.00
G01 X39.7733 Y9.8973 F90.00
G01 X39.7976 Y9.9053 F90.00
G01 X39.8788 Y9.9345 F90.00
G01 X39.9024 Y9.9443 F90.00
G01 X39.9805 Y9.9811 F90.00
G01 X39.9920 Y9.9867 F90.00
G01 X40.0145 Y9.9987 F90.00
G01 X40.0887 Y10.0430 F90.00
G01 X40.1102 Y10.0566 F90.00
G01 X40.1311 Y10.0713 F90.00
G01 X40.2004 Y10.1229 F90.00
G01 X40.2103 Y10.1309 F90.00
G01 X40.2296 Y10.1475 F90.00
G01 X40.2935 Y10.2057 F90.00
G01 X40.3116 Y10.2237 F90.00
G01 X40.3445 Y10.2598 F90.00
G01 X40.3445 Y9.6247 F90.00
G01 X40.2441 Y9.5243 F90.00
G01 X40.2201 Y9.5459 F90.00
G01 X40.2004 Y9.5621 F90.00
G01 X40.1311 Y9.6137 F90.00
G01 X40.1207 Y9.6211 F90.00
G01 X40.0995 Y9.6353 F90.00
G01 X40.0255 Y9.6799 F90.00
G01 X40.0033 Y9.6924 F90.00
G01 X39.9805 Y9.7039 F90.00
G01 X39.9024 Y9.7407 F90.00
G01 X39.8788 Y9.7505 F90.00
G01 X39.7976 Y9.7797 F90.00
G01 X39.7733 Y9.7877 F90.00
G01 X39.7488 Y9.7945 F90.00
G01 X39.6774 Y9.8124 F90.00
G01 X39.6525 Y9.8180 F90.00
G01 X39.6273 Y9.8223 F90.00
G01 X39.5419 Y9.8349 F90.00
G01 X39.5165 Y9.8374 F90.00
G01 X39.5037 Y9.8381 F90.00
G01 X39.4302 Y9.8417 F90.00
G01 X39.4047 Y9.8424 F90.00
G01 X37.8920 Y9.8422 F90.00
G01 X37.8057 Y9.8381 F90.00
G01 X37.7803 Y9.8363 F90.00
G01 X37.7549 Y9.8331 F90.00
G01 X37.6821 Y9.8223 F90.00
G01 X37.6570 Y9.8180 F90.00
G01 X37.6321 Y9.8124 F90.00
G01 X37.5607 Y9.7945 F90.00
G01 X37.5361 Y9.7877 F90.00
G01 X37.5119 Y9.7797 F90.00
G01 X37.4426 Y9.7549 F90.00
G01 X37.4188 Y9.7457 F90.00
G01 X37.4070 Y9.7407 F90.00
G01 X37.3289 Y9.7039 F90.00
G01 X37.3061 Y9.6924 F90.00
G01 X37.2839 Y9.6799 F90.00
G01 X37.2208 Y9.6420 F90.00
G01 X37.1992 Y9.6284 F90.00
G01 X37.1887 Y9.6211 F90.00
G01 X37.1192 Y9.5698 F90.00
G01 X37.0991 Y9.5541 F90.00
G01 X37.0894 Y9.5459 F90.00
G01 X37.0159 Y9.4793 F90.00
G01 X36.9979 Y9.4613 F90.00
G01 X36.9627 Y9.4227 F90.00
G01 X36.4893 Y9.4227 F90.00
G01 X36.4788 Y9.4451 F90.00
G01 X36.4672 Y9.4669 F90.00
G01 X36.4610 Y9.4776 F90.00
G01 X36.4479 Y9.4986 F90.00
G01 X36.4338 Y9.5189 F90.00
G01 X36.3866 Y9.5806 F90.00
G01 X36.3711 Y9.5999 F90.00
G01 X36.3547 Y9.6184 F90.00
G01 X36.3461 Y9.6274 F90.00
G01 X36.3284 Y9.6447 F90.00
G01 X36.3099 Y9.6611 F90.00
G01 X36.3004 Y9.6690 F90.00
G01 X36.2389 Y9.7164 F90.00
G01 X36.2189 Y9.7310 F90.00
G01 X36.1983 Y9.7446 F90.00
G01 X36.1877 Y9.7510 F90.00
G01 X36.1662 Y9.7631 F90.00
G01 X36.1552 Y9.7688 F90.00
G01 X36.1328 Y9.7793 F90.00
G01 X36.0496 Y9.8138 F90.00
G01 X36.0263 Y9.8222 F90.00
G01 X36.0145 Y9.8260 F90.00
G01 X36.0026 Y9.8295 F90.00
G01 X35.9786 Y9.8356 F90.00
G01 X35.9665 Y9.8382 F90.00
G01 X35.9421 Y9.8426 F90.00
G01 X35.8652 Y9.8529 F90.00
G01 X35.8381 Y9.8557 F90.00
G01 X35.8110 Y9.8571 F90.00
G01 X34.5274 Y9.8574 F90.00
G01 X34.5002 Y9.8567 F90.00
G01 X34.4867 Y9.8558 F90.00
G01 X34.4596 Y9.8530 F90.00
G01 X34.3826 Y9.8427 F90.00
G01 X34.3583 Y9.8383 F90.00
G01 X34.3342 Y9.8328 F90.00
G01 X34.3103 Y9.8261 F90.00
G01 X34.2869 Y9.8183 F90.00
G01 X34.2638 Y9.8094 F90.00
G01 X34.2035 Y9.7844 F90.00
G01 X34.1808 Y9.7744 F90.00
G01 X34.1587 Y9.7633 F90.00
G01 X34.1371 Y9.7512 F90.00
G01 X34.1161 Y9.7380 F90.00
G01 X34.0958 Y9.7239 F90.00
G01 X34.0341 Y9.6768 F90.00
G01 X34.0148 Y9.6613 F90.00
G01 X33.9963 Y9.6448 F90.00
G01 X33.9787 Y9.6276 F90.00
G01 X33.9618 Y9.6095 F90.00
G01 X33.9458 Y9.5906 F90.00
G01 X33.8910 Y9.5192 F90.00
G01 X33.8769 Y9.4989 F90.00
G01 X33.8638 Y9.4779 F90.00
G01 X33.8516 Y9.4563 F90.00
G01 X33.8406 Y9.4342 F90.00
G01 X33.8354 Y9.4229 F90.00
G01 X33.8010 Y9.3398 F90.00
G01 X33.7926 Y9.3165 F90.00
G01 X33.7888 Y9.3047 F90.00
G01 X33.7822 Y9.2809 F90.00
G01 X33.7766 Y9.2568 F90.00
G01 X33.7722 Y9.2325 F90.00
G01 X33.7619 Y9.1555 F90.00
G01 X33.7591 Y9.1284 F90.00
G01 X33.7576 Y9.1012 F90.00
G01 X33.7576 Y8.4440 F90.00
G01 X33.7590 Y8.4168 F90.00
G01 X33.7603 Y8.4033 F90.00
G01 X33.7704 Y8.3251 F90.00
G01 X33.7742 Y8.3006 F90.00
G01 X33.7792 Y8.2764 F90.00
G01 X33.7853 Y8.2524 F90.00
G01 X33.7925 Y8.2288 F90.00
G01 X33.7966 Y8.2171 F90.00
G01 X33.8055 Y8.1940 F90.00
G01 X33.8305 Y8.1337 F90.00
G01 X33.8405 Y8.1111 F90.00
G01 X33.8515 Y8.0889 F90.00
G01 X33.8575 Y8.0781 F90.00
G01 X33.8701 Y8.0568 F90.00
G01 X33.8768 Y8.0464 F90.00
G01 X33.8909 Y8.0261 F90.00
G01 X33.9457 Y7.9546 F90.00
G01 X33.9616 Y7.9357 F90.00
G01 X33.9700 Y7.9266 F90.00
G01 X33.9873 Y7.9089 F90.00
G01 X34.0054 Y7.8920 F90.00
G01 X34.0243 Y7.8760 F90.00
G01 X34.0340 Y7.8684 F90.00
G01 X34.0957 Y7.8212 F90.00
G01 X34.1160 Y7.8071 F90.00
G01 X34.1369 Y7.7940 F90.00
G01 X34.1476 Y7.7878 F90.00
G01 X34.1695 Y7.7762 F90.00
G01 X34.1919 Y7.7657 F90.00
G01 X34.2750 Y7.7312 F90.00
G01 X34.2983 Y7.7228 F90.00
G01 X34.3101 Y7.7190 F90.00
G01 X34.3220 Y7.7155 F90.00
G01 X34.3460 Y7.7094 F90.00
G01 X34.3581 Y7.7068 F90.00
G01 X34.3825 Y7.7024 F90.00
G01 X34.4730 Y7.6905 F90.00
G01 X34.4865 Y7.6893 F90.00
G01 X34.5136 Y7.6879 F90.00
G01 X35.7972 Y7.6876 F90.00
G01 X35.8244 Y7.6883 F90.00
G01 X35.8515 Y7.6904 F90.00
G01 X35.9420 Y7.7023 F90.00
G01 X35.9542 Y7.7043 F90.00
G01 X35.9785 Y7.7093 F90.00
G01 X36.0024 Y7.7154 F90.00
G01 X36.0213 Y7.7211 F90.00
G01 X36.9629 Y7.7220 F90.00
G01 X36.9979 Y7.6837 F90.00
G01 X37.0159 Y7.6657 F90.00
G01 X37.0798 Y7.6075 F90.00
G01 X37.0894 Y7.5991 F90.00
G01 X37.1091 Y7.5829 F90.00
G01 X37.1784 Y7.5313 F90.00
G01 X37.1992 Y7.5166 F90.00
G01 X37.2208 Y7.5030 F90.00
G01 X37.2839 Y7.4651 F90.00
G01 X37.3061 Y7.4526 F90.00
G01 X37.3174 Y7.4467 F90.00
G01 X37.3954 Y7.4096 F90.00
G01 X37.4188 Y7.3993 F90.00
G01 X37.4426 Y7.3901 F90.00
G01 X37.5119 Y7.3653 F90.00
G01 X37.5361 Y7.3573 F90.00
G01 X37.5607 Y7.3505 F90.00
G01 X37.6321 Y7.3326 F90.00
G01 X37.6570 Y7.3270 F90.00
G01 X37.6821 Y7.3227 F90.00
G01 X37.7676 Y7.3101 F90.00
G01 X37.7930 Y7.3076 F90.00
G01 X37.8057 Y7.3069 F90.00
G01 X37.8792 Y7.3033 F90.00
G01 X37.9047 Y7.3026 F90.00
G01 X39.4175 Y7.3028 F90.00
G01 X39.5165 Y7.3076 F90.00
G01 X39.5292 Y7.3087 F90.00
G01 X39.5545 Y7.3119 F90.00
G01 X39.6273 Y7.3227 F90.00
G01 X39.6525 Y7.3270 F90.00
G01 X39.6774 Y7.3326 F90.00
G01 X39.7611 Y7.3538 F90.00
G01 X39.7855 Y7.3612 F90.00
G01 X39.8669 Y7.3901 F90.00
G01 X39.8907 Y7.3993 F90.00
G01 X39.9140 Y7.4096 F90.00
G01 X39.9805 Y7.4411 F90.00
G01 X40.0033 Y7.4526 F90.00
G01 X40.0255 Y7.4651 F90.00
G01 X40.0995 Y7.5097 F90.00
G01 X40.1207 Y7.5239 F90.00
G01 X40.1902 Y7.5752 F90.00
G01 X40.2004 Y7.5829 F90.00
G01 X40.2201 Y7.5991 F90.00
G01 X40.2935 Y7.6657 F90.00
G01 X40.3116 Y7.6837 F90.00
G01 X40.3467 Y7.7223 F90.00
G01 X40.5075 Y7.7224 F90.00
G01 X40.5653 Y7.7253 F90.00
G01 X40.5907 Y7.7278 F90.00
G01 X40.6354 Y7.7342 F90.00
G01 X40.6606 Y7.7386 F90.00
G01 X40.6855 Y7.7442 F90.00
G01 X40.7293 Y7.7553 F90.00
G01 X40.7537 Y7.7627 F90.00
G01 X40.8082 Y7.7822 F90.00
G01 X40.8318 Y7.7920 F90.00
G01 X40.8842 Y7.8168 F90.00
G01 X40.9067 Y7.8288 F90.00
G01 X40.9564 Y7.8586 F90.00
G01 X40.9776 Y7.8728 F90.00
G01 X41.0140 Y7.8996 F90.00
G01 X41.0341 Y7.9153 F90.00
G01 X41.0534 Y7.9319 F90.00
G01 X41.0774 Y7.9537 F90.00
G01 X41.0959 Y7.9713 F90.00
G01 X41.8048 Y8.6804 F90.00
G01 X41.8353 Y8.7138 F90.00
G01 X41.8520 Y8.7331 F90.00
G01 X41.8677 Y8.7533 F90.00
G01 X41.8870 Y8.7793 F90.00
G01 X41.9017 Y8.8002 F90.00
G01 X41.9153 Y8.8217 F90.00
G01 X41.9384 Y8.8605 F90.00
G01 X41.9504 Y8.8830 F90.00
G01 X41.9699 Y8.9238 F90.00
G01 X41.9802 Y8.9472 F90.00
G01 X41.9850 Y8.9590 F90.00
G01 X42.0045 Y9.0135 F90.00
G01 X42.0119 Y9.0380 F90.00
G01 X42.0260 Y9.0942 F90.00
G01 X42.0310 Y9.1192 F90.00
G01 X42.0395 Y9.1765 F90.00
G01 X42.0420 Y9.2019 F90.00
G01 X42.0448 Y9.2598 F90.00
G01 X42.0450 Y12.0650 F90.00
G01 X42.0443 Y12.0905 F90.00
G01 X42.0427 Y12.1229 F90.00
G01 X42.0409 Y12.1483 F90.00
G01 X42.0377 Y12.1737 F90.00
G01 X42.0310 Y12.2183 F90.00
G01 X42.0260 Y12.2434 F90.00
G01 X42.0230 Y12.2558 F90.00
G01 X42.0119 Y12.2996 F90.00
G01 X42.0045 Y12.3240 F90.00
G01 X41.9894 Y12.3666 F90.00
G01 X41.9802 Y12.3904 F90.00
G01 X41.9699 Y12.4137 F90.00
G01 X41.9560 Y12.4430 F90.00
G01 X41.9504 Y12.4545 F90.00
G01 X41.9384 Y12.4770 F90.00
G01 X41.9153 Y12.5158 F90.00
G01 X41.9017 Y12.5374 F90.00
G01 X41.8870 Y12.5582 F90.00
G01 X41.8677 Y12.5843 F90.00
G01 X41.8520 Y12.6044 F90.00
G01 X41.8438 Y12.6142 F90.00
G01 X41.8135 Y12.6477 F90.00
G01 X41.7959 Y12.6662 F90.00
G01 X40.8343 Y13.6276 F90.00
G01 X40.8009 Y13.6581 F90.00
G01 X40.7816 Y13.6747 F90.00
G01 X40.7615 Y13.6904 F90.00
G01 X40.7355 Y13.7098 F90.00
G01 X40.7146 Y13.7245 F90.00
G01 X40.6930 Y13.7381 F90.00
G01 X40.6652 Y13.7548 F90.00
G01 X40.6430 Y13.7673 F90.00
G01 X40.6202 Y13.7788 F90.00
G01 X40.5793 Y13.7980 F90.00
G01 X40.5557 Y13.8078 F90.00
G01 X40.5012 Y13.8273 F90.00
G01 X40.4768 Y13.8347 F90.00
G01 X40.4330 Y13.8458 F90.00
G01 X40.4081 Y13.8514 F90.00
G01 X40.3830 Y13.8558 F90.00
G01 X40.3382 Y13.8622 F90.00
G01 X40.3128 Y13.8647 F90.00
G01 X40.2677 Y13.8671 F90.00
G01 X40.2422 Y13.8677 F90.00
G01 X19.9222 Y13.8677 F90.00
G01 X19.8967 Y13.8671 F90.00
G01 X19.8643 Y13.8655 F90.00
G01 X19.8389 Y13.8636 F90.00
G01 X19.8136 Y13.8605 F90.00
G01 X19.7689 Y13.8537 F90.00
G01 X19.7439 Y13.8488 F90.00
G01 X19.7000 Y13.8379 F90.00
G01 X19.6754 Y13.8311 F90.00
G01 X19.6632 Y13.8273 F90.00
G01 X19.6207 Y13.8122 F90.00
G01 X19.5968 Y13.8030 F90.00
G01 X19.5735 Y13.7927 F90.00
G01 X19.5327 Y13.7732 F90.00
G01 X19.5102 Y13.7612 F90.00
G01 X19.4714 Y13.7381 F90.00
G01 X19.4605 Y13.7314 F90.00
G01 X19.4393 Y13.7172 F90.00
G01 X19.4030 Y13.6904 F90.00
G01 X19.3828 Y13.6747 F90.00
G01 X19.3635 Y13.6581 F90.00
G01 X19.3301 Y13.6276 F90.00
G01 X15.7600 Y10.0577 F90.00
G01 X11.1733 Y10.0577 F90.00
G01 X11.1261 Y10.1215 F90.00
G01 X11.1104 Y10.1416 F90.00
G01 X11.0937 Y10.1609 F90.00
G01 X11.0310 Y10.2301 F90.00
G01 X11.0134 Y10.2486 F90.00
G01 X11.0042 Y10.2575 F90.00
G01 X10.9161 Y10.3374 F90.00
G01 X10.8963 Y10.3536 F90.00
G01 X10.8862 Y10.3614 F90.00
G01 X10.8111 Y10.4170 F90.00
G01 X10.7902 Y10.4317 F90.00
G01 X10.7687 Y10.4454 F90.00
G01 X10.6885 Y10.4934 F90.00
G01 X10.6663 Y10.5060 F90.00
G01 X10.6435 Y10.5175 F90.00
G01 X10.5590 Y10.5575 F90.00
G01 X10.5357 Y10.5678 F90.00
G01 X10.5119 Y10.5770 F90.00
G01 X10.4239 Y10.6085 F90.00
G01 X10.3996 Y10.6165 F90.00
G01 X10.3750 Y10.6233 F90.00
G01 X10.2844 Y10.6460 F90.00
G01 X10.2595 Y10.6516 F90.00
G01 X10.2343 Y10.6559 F90.00
G01 X10.1419 Y10.6697 F90.00
G01 X10.1165 Y10.6728 F90.00
G01 X10.1038 Y10.6739 F90.00
G01 X9.9977 Y10.6793 F90.00
G01 X9.9850 Y10.6797 F90.00
G01 X9.9595 Y10.6797 F90.00
G01 X9.8534 Y10.6747 F90.00
G01 X9.8279 Y10.6728 F90.00
G01 X9.8026 Y10.6697 F90.00
G01 X9.7101 Y10.6559 F90.00
G01 X9.6850 Y10.6516 F90.00
G01 X9.6601 Y10.6460 F90.00
G01 X9.5694 Y10.6233 F90.00
G01 X9.5448 Y10.6165 F90.00
G01 X9.5327 Y10.6126 F90.00
G01 X9.4326 Y10.5770 F90.00
G01 X9.4088 Y10.5678 F90.00
G01 X9.3854 Y10.5575 F90.00
G01 X9.3009 Y10.5175 F90.00
G01 X9.2782 Y10.5060 F90.00
G01 X9.2560 Y10.4934 F90.00
G01 X9.1758 Y10.4454 F90.00
G01 X9.1542 Y10.4317 F90.00
G01 X9.1334 Y10.4170 F90.00
G01 X9.0481 Y10.3536 F90.00
G01 X9.0284 Y10.3374 F90.00
G01 X9.0188 Y10.3290 F90.00
G01 X8.9496 Y10.2662 F90.00
G01 X8.9311 Y10.2486 F90.00
G01 X8.9135 Y10.2301 F90.00
G01 X8.8507 Y10.1609 F90.00
G01 X8.8341 Y10.1416 F90.00
G01 X8.8184 Y10.1215 F90.00
G01 X8.7627 Y10.0464 F90.00
G01 X8.7480 Y10.0255 F90.00
G01 X8.7343 Y10.0040 F90.00
G01 X8.6863 Y9.9238 F90.00
G01 X8.6737 Y9.9016 F90.00
G01 X8.6622 Y9.8788 F90.00
G01 X8.6223 Y9.7943 F90.00
G01 X8.6119 Y9.7710 F90.00
G01 X8.6027 Y9.7471 F90.00
G01 X8.5713 Y9.6591 F90.00
G01 X8.5633 Y9.6349 F90.00
G01 X8.5564 Y9.6103 F90.00
G01 X8.5337 Y9.5196 F90.00
G01 X8.5281 Y9.4947 F90.00
G01 X8.5238 Y9.4696 F90.00
G01 X8.5101 Y9.3771 F90.00
G01 X8.5069 Y9.3518 F90.00
G01 X8.5051 Y9.3264 F90.00
G01 X8.5005 Y9.2330 F90.00
G01 X8.5000 Y9.2203 F90.00
G01 X8.5000 Y9.1947 F90.00
G01 X8.5058 Y9.0759 F90.00
G01 X8.5069 Y9.0632 F90.00
G01 X8.5101 Y9.0379 F90.00
G01 X8.5238 Y8.9454 F90.00
G01 X8.5281 Y8.9203 F90.00
G01 X8.5337 Y8.8954 F90.00
G01 X8.5564 Y8.8047 F90.00
G01 X8.5633 Y8.7801 F90.00
G01 X8.5713 Y8.7559 F90.00
G01 X8.6027 Y8.6679 F90.00
G01 X8.6119 Y8.6440 F90.00
G01 X8.6223 Y8.6207 F90.00
G01 X8.6622 Y8.5362 F90.00
G01 X8.6737 Y8.5134 F90.00
G01 X8.6799 Y8.5022 F90.00
G01 X8.7410 Y8.4002 F90.00
G01 X8.7480 Y8.3895 F90.00
G01 X8.7627 Y8.3686 F90.00
G01 X8.8184 Y8.2935 F90.00
G01 X8.8341 Y8.2734 F90.00
G01 X8.8507 Y8.2541 F90.00
G01 X8.9135 Y8.1849 F90.00
G01 X8.9311 Y8.1664 F90.00
G01 X8.9402 Y8.1575 F90.00
G01 X9.0284 Y8.0776 F90.00
G01 X9.0481 Y8.0614 F90.00
G01 X9.0583 Y8.0536 F90.00
G01 X9.1334 Y7.9980 F90.00
G01 X9.1542 Y7.9833 F90.00
G01 X9.1758 Y7.9696 F90.00
G01 X9.2294 Y7.9375 F90.00
G01 X9.1758 Y7.9054 F90.00
G01 X9.1542 Y7.8917 F90.00
G01 X9.1334 Y7.8770 F90.00
G01 X9.0481 Y7.8136 F90.00
G01 X9.0284 Y7.7974 F90.00
G01 X9.0188 Y7.7890 F90.00
G01 X8.9496 Y7.7262 F90.00
G01 X8.9402 Y7.7175 F90.00
G01 X8.9222 Y7.6995 F90.00
G01 X8.8507 Y7.6209 F90.00
G01 X8.8341 Y7.6016 F90.00
G01 X8.8184 Y7.5815 F90.00
G01 X8.7627 Y7.5064 F90.00
G01 X8.7480 Y7.4855 F90.00
G01 X8.7410 Y7.4748 F90.00
G01 X8.6799 Y7.3728 F90.00
G01 X8.6737 Y7.3616 F90.00
G01 X8.6622 Y7.3388 F90.00
G01 X8.6223 Y7.2543 F90.00
G01 X8.6119 Y7.2310 F90.00
G01 X8.6027 Y7.2071 F90.00
G01 X8.5713 Y7.1191 F90.00
G01 X8.5633 Y7.0949 F90.00
G01 X8.5564 Y7.0703 F90.00
G01 X8.5337 Y6.9796 F90.00
G01 X8.5281 Y6.9547 F90.00
G01 X8.5238 Y6.9296 F90.00
G01 X8.5101 Y6.8371 F90.00
G01 X8.5069 Y6.8118 F90.00
G01 X8.5051 Y6.7864 F90.00
G01 X8.5005 Y6.6930 F90.00
G01 X8.4999 Y6.6675 F90.00
G01 X8.5005 Y6.6420 F90.00
G01 X8.5051 Y6.5486 F90.00
G01 X8.5069 Y6.5232 F90.00
G01 X8.5101 Y6.4979 F90.00
G01 X8.5238 Y6.4054 F90.00
G01 X8.5281 Y6.3803 F90.00
G01 X8.5337 Y6.3554 F90.00
G01 X8.5564 Y6.2647 F90.00
G01 X8.5633 Y6.2401 F90.00
G01 X8.5713 Y6.2159 F90.00
G01 X8.6027 Y6.1279 F90.00
G01 X8.6072 Y6.1159 F90.00
G01 X8.6170 Y6.0923 F90.00
G01 X8.6678 Y5.9848 F90.00
G01 X8.6799 Y5.9622 F90.00
G01 X8.6863 Y5.9512 F90.00
G01 X8.7343 Y5.8710 F90.00
G01 X8.7480 Y5.8495 F90.00
G01 X8.7627 Y5.8286 F90.00
G01 X8.8184 Y5.7535 F90.00
G01 X8.8341 Y5.7334 F90.00
G01 X8.8507 Y5.7141 F90.00
G01 X8.9135 Y5.6449 F90.00
G01 X8.9311 Y5.6264 F90.00
G01 X8.9402 Y5.6175 F90.00
G01 X9.0284 Y5.5376 F90.00
G01 X9.0481 Y5.5214 F90.00
G01 X9.0664 Y5.5076 F90.00
G01 X8.2191 Y4.6602 F90.00
G01 X6.2253 Y4.6602 F90.00
G01 X5.3780 Y5.5076 F90.00
G01 X5.3963 Y5.5214 F90.00
G01 X5.4160 Y5.5376 F90.00
G01 X5.4949 Y5.6088 F90.00
G01 X5.5133 Y5.6264 F90.00
G01 X5.5309 Y5.6449 F90.00
G01 X5.5937 Y5.7141 F90.00
G01 X5.6022 Y5.7237 F90.00
G01 X5.6184 Y5.7434 F90.00
G01 X5.6818 Y5.8286 F90.00
G01 X5.6965 Y5.8495 F90.00
G01 X5.7101 Y5.8710 F90.00
G01 X5.7582 Y5.9512 F90.00
G01 X5.7707 Y5.9734 F90.00
G01 X5.7766 Y5.9848 F90.00
G01 X5.8275 Y6.0923 F90.00
G01 X5.8325 Y6.1040 F90.00
G01 X5.8417 Y6.1279 F90.00
G01 X5.8732 Y6.2159 F90.00
G01 X5.8812 Y6.2401 F90.00
G01 X5.8880 Y6.2647 F90.00
G01 X5.9107 Y6.3554 F90.00
G01 X5.9163 Y6.3803 F90.00
G01 X5.9207 Y6.4054 F90.00
G01 X5.9344 Y6.4979 F90.00
G01 X5.9375 Y6.5232 F90.00
G01 X5.9394 Y6.5486 F90.00
G01 X5.9440 Y6.6420 F90.00
G01 X5.9444 Y6.6547 F90.00
G01 X5.9444 Y6.6803 F90.00
G01 X5.9386 Y6.7991 F90.00
G01 X5.9361 Y6.8245 F90.00
G01 X5.9344 Y6.8371 F90.00
G01 X5.9207 Y6.9296 F90.00
G01 X5.9163 Y6.9547 F90.00
G01 X5.9107 Y6.9796 F90.00
G01 X5.8880 Y7.0703 F90.00
G01 X5.8812 Y7.0949 F90.00
G01 X5.8732 Y7.1191 F90.00
G01 X5.8417 Y7.2071 F90.00
G01 X5.8325 Y7.2310 F90.00
G01 X5.8222 Y7.2543 F90.00
G01 X5.7822 Y7.3388 F90.00
G01 X5.7766 Y7.3502 F90.00
G01 X5.7646 Y7.3728 F90.00
G01 X5.7034 Y7.4748 F90.00
G01 X5.6892 Y7.4960 F90.00
G01 X5.6818 Y7.5064 F90.00
G01 X5.6261 Y7.5815 F90.00
G01 X5.6104 Y7.6016 F90.00
G01 X5.5937 Y7.6209 F90.00
G01 X5.5309 Y7.6901 F90.00
G01 X5.5223 Y7.6995 F90.00
G01 X5.5042 Y7.7175 F90.00
G01 X5.4160 Y7.7974 F90.00
G01 X5.3963 Y7.8136 F90.00
G01 X5.3862 Y7.8214 F90.00
G01 X5.3111 Y7.8770 F90.00
G01 X5.2902 Y7.8917 F90.00
G01 X5.2687 Y7.9054 F90.00
G01 X5.2151 Y7.9375 F90.00
G01 X5.2687 Y7.9696 F90.00
G01 X5.2902 Y7.9833 F90.00
G01 X5.3111 Y7.9980 F90.00
G01 X5.3963 Y8.0614 F90.00
G01 X5.4063 Y8.0693 F90.00
G01 X5.4256 Y8.0860 F90.00
G01 X5.4949 Y8.1488 F90.00
G01 X5.5042 Y8.1575 F90.00
G01 X5.5223 Y8.1755 F90.00
G01 X5.5937 Y8.2541 F90.00
G01 X5.6104 Y8.2734 F90.00
G01 X5.6261 Y8.2935 F90.00
G01 X5.6818 Y8.3686 F90.00
G01 X5.6892 Y8.3790 F90.00
G01 X5.7034 Y8.4002 F90.00
G01 X5.7646 Y8.5022 F90.00
G01 X5.7766 Y8.5248 F90.00
G01 X5.7822 Y8.5362 F90.00
G01 X5.8222 Y8.6207 F90.00
G01 X5.8275 Y8.6323 F90.00
G01 X5.8373 Y8.6559 F90.00
G01 X5.8732 Y8.7559 F90.00
G01 X5.8812 Y8.7801 F90.00
G01 X5.8880 Y8.8047 F90.00
G01 X5.9107 Y8.8954 F90.00
G01 X5.9163 Y8.9203 F90.00
G01 X5.9207 Y8.9454 F90.00
G01 X5.9344 Y9.0379 F90.00
G01 X5.9375 Y9.0632 F90.00
G01 X5.9394 Y9.0886 F90.00
G01 X5.9440 Y9.1820 F90.00
G01 X5.9444 Y9.1947 F90.00
G01 X5.9444 Y9.2203 F90.00
G01 X5.9386 Y9.3391 F90.00
G01 X5.9361 Y9.3645 F90.00
G01 X5.9344 Y9.3771 F90.00
G01 X5.9207 Y9.4696 F90.00
G01 X5.9163 Y9.4947 F90.00
G01 X5.9107 Y9.5196 F90.00
G01 X5.8880 Y9.6103 F90.00
G01 X5.8812 Y9.6349 F90.00
G01 X5.8732 Y9.6591 F90.00
G01 X5.8417 Y9.7471 F90.00
G01 X5.8325 Y9.7710 F90.00
G01 X5.8222 Y9.7943 F90.00
G01 X5.7822 Y9.8788 F90.00
G01 X5.7707 Y9.9016 F90.00
G01 X5.7582 Y9.9238 F90.00
G01 X5.7101 Y10.0040 F90.00
G01 X5.6965 Y10.0255 F90.00
G01 X5.6818 Y10.0464 F90.00
G01 X5.6261 Y10.1215 F90.00
G01 X5.6104 Y10.1416 F90.00
G01 X5.5937 Y10.1609 F90.00
G01 X5.5223 Y10.2395 F90.00
G01 X5.5042 Y10.2575 F90.00
G01 X5.4949 Y10.2662 F90.00
G01 X5.4256 Y10.3290 F90.00
G01 X5.4063 Y10.3457 F90.00
G01 X5.3862 Y10.3614 F90.00
G01 X5.3111 Y10.4170 F90.00
G01 X5.2902 Y10.4317 F90.00
G01 X5.2687 Y10.4454 F90.00
G01 X5.1775 Y10.4999 F90.00
G01 X5.1663 Y10.5060 F90.00
G01 X5.1435 Y10.5175 F90.00
G01 X5.0590 Y10.5575 F90.00
G01 X5.0357 Y10.5678 F90.00
G01 X5.0119 Y10.5770 F90.00
G01 X4.9239 Y10.6085 F90.00
G01 X4.9118 Y10.6126 F90.00
G01 X4.8874 Y10.6200 F90.00
G01 X4.7844 Y10.6460 F90.00
G01 X4.7595 Y10.6516 F90.00
G01 X4.7343 Y10.6559 F90.00
G01 X4.6419 Y10.6697 F90.00
G01 X4.6165 Y10.6728 F90.00
G01 X4.5911 Y10.6747 F90.00
G01 X4.4977 Y10.6793 F90.00
G01 X4.4722 Y10.6799 F90.00
G01 X4.4467 Y10.6793 F90.00
G01 X4.3406 Y10.6739 F90.00
G01 X4.3152 Y10.6714 F90.00
G01 X4.3026 Y10.6697 F90.00
G01 X4.2101 Y10.6559 F90.00
G01 X4.1850 Y10.6516 F90.00
G01 X4.1601 Y10.6460 F90.00
G01 X4.0694 Y10.6233 F90.00
G01 X4.0448 Y10.6165 F90.00
G01 X4.0206 Y10.6085 F90.00
G01 X3.9326 Y10.5770 F90.00
G01 X3.9088 Y10.5678 F90.00
G01 X3.8854 Y10.5575 F90.00
G01 X3.8009 Y10.5175 F90.00
G01 X3.7895 Y10.5119 F90.00
G01 X3.7670 Y10.4999 F90.00
G01 X3.6758 Y10.4454 F90.00
G01 X3.6542 Y10.4317 F90.00
G01 X3.6437 Y10.4245 F90.00
G01 X3.5481 Y10.3536 F90.00
G01 X3.5284 Y10.3374 F90.00
G01 X3.5188 Y10.3290 F90.00
G01 X3.4402 Y10.2575 F90.00
G01 X3.4222 Y10.2395 F90.00
G01 X3.4135 Y10.2301 F90.00
G01 X3.3507 Y10.1609 F90.00
G01 X3.3341 Y10.1416 F90.00
G01 X3.3184 Y10.1215 F90.00
G01 X3.2711 Y10.0577 F90.00
G01 X2.8675 Y10.0577 F90.00
G01 X2.8502 Y10.0685 F90.00
G01 X2.8286 Y10.0806 F90.00
G01 X2.8065 Y10.0917 F90.00
G01 X2.7953 Y10.0968 F90.00
G01 X2.7121 Y10.1313 F90.00
G01 X2.7005 Y10.1356 F90.00
G01 X2.6770 Y10.1435 F90.00
G01 X2.6651 Y10.1470 F90.00
G01 X2.6411 Y10.1531 F90.00
G01 X2.6290 Y10.1557 F90.00
G01 X2.6046 Y10.1601 F90.00
G01 X2.5141 Y10.1720 F90.00
G01 X2.5006 Y10.1732 F90.00
G01 X2.4735 Y10.1746 F90.00
G01 X1.1899 Y10.1749 F90.00
G01 X1.1627 Y10.1742 F90.00
G01 X1.1491 Y10.1733 F90.00
G01 X1.1221 Y10.1705 F90.00
G01 X1.0451 Y10.1602 F90.00
G01 X1.0208 Y10.1558 F90.00
G01 X0.9966 Y10.1503 F90.00
G01 X0.9728 Y10.1436 F90.00
G01 X0.9493 Y10.1358 F90.00
G01 X0.9377 Y10.1315 F90.00
G01 X0.8659 Y10.1019 F90.00
G01 X0.8433 Y10.0919 F90.00
G01 X0.8212 Y10.0808 F90.00
G01 X0.8103 Y10.0749 F90.00
G01 X0.7890 Y10.0622 F90.00
G01 X0.7683 Y10.0486 F90.00
G01 X0.7483 Y10.0340 F90.00
G01 X0.6868 Y9.9866 F90.00
G01 X0.6680 Y9.9707 F90.00
G01 X0.6588 Y9.9623 F90.00
G01 X0.6499 Y9.9538 F90.00
G01 X0.6326 Y9.9361 F90.00
G01 X0.6243 Y9.9270 F90.00
G01 X0.6083 Y9.9081 F90.00
G01 X0.5535 Y9.8367 F90.00
G01 X0.5394 Y9.8164 F90.00
G01 X0.5327 Y9.8059 F90.00
G01 X0.5262 Y9.7954 F90.00
G01 X0.5141 Y9.7738 F90.00
G01 X0.5030 Y9.7517 F90.00
G01 X0.4979 Y9.7404 F90.00
G01 X0.4635 Y9.6573 F90.00
G01 X0.4551 Y9.6340 F90.00
G01 X0.4513 Y9.6222 F90.00
G01 X0.4478 Y9.6104 F90.00
G01 X0.4417 Y9.5864 F90.00
G01 X0.4391 Y9.5743 F90.00
G01 X0.4347 Y9.5500 F90.00
G01 X0.4244 Y9.4730 F90.00
G01 X0.4215 Y9.4459 F90.00
G01 X0.4207 Y9.4323 F90.00
G01 X0.4199 Y9.4051 F90.00
G01 X0.4201 Y8.7615 F90.00
G01 X0.4206 Y8.7479 F90.00
G01 X0.4228 Y8.7208 F90.00
G01 X0.4329 Y8.6426 F90.00
G01 X0.4346 Y8.6303 F90.00
G01 X0.4390 Y8.6060 F90.00
G01 X0.4446 Y8.5819 F90.00
G01 X0.4512 Y8.5580 F90.00
G01 X0.4550 Y8.5463 F90.00
G01 X0.4634 Y8.5230 F90.00
G01 X0.4978 Y8.4398 F90.00
G01 X0.5083 Y8.4174 F90.00
G01 X0.5199 Y8.3956 F90.00
G01 X0.5326 Y8.3743 F90.00
G01 X0.5462 Y8.3536 F90.00
G01 X0.5608 Y8.3337 F90.00
G01 X0.6081 Y8.2721 F90.00
G01 X0.6241 Y8.2532 F90.00
G01 X0.6410 Y8.2351 F90.00
G01 X0.6497 Y8.2264 F90.00
G01 X0.6679 Y8.2095 F90.00
G01 X0.6868 Y8.1935 F90.00
G01 X0.7581 Y8.1387 F90.00
G01 X0.7785 Y8.1246 F90.00
G01 X0.7994 Y8.1115 F90.00
G01 X0.8210 Y8.0994 F90.00
G01 X0.8431 Y8.0883 F90.00
G01 X0.8657 Y8.0783 F90.00
G01 X0.9260 Y8.0533 F90.00
G01 X0.9491 Y8.0444 F90.00
G01 X0.9608 Y8.0403 F90.00
G01 X0.9845 Y8.0330 F90.00
G01 X0.9965 Y8.0298 F90.00
G01 X1.0085 Y8.0269 F90.00
G01 X1.0328 Y8.0219 F90.00
G01 X1.0573 Y8.0181 F90.00
G01 X1.1220 Y8.0096 F90.00
G01 X1.1490 Y8.0068 F90.00
G01 X1.1761 Y8.0054 F90.00
G01 X1.1897 Y8.0052 F90.00
G01 X2.4597 Y8.0051 F90.00
G01 X2.4733 Y8.0053 F90.00
G01 X2.5005 Y8.0067 F90.00
G01 X2.5275 Y8.0095 F90.00
G01 X2.5922 Y8.0180 F90.00
G01 X2.6167 Y8.0218 F90.00
G01 X2.6409 Y8.0268 F90.00
G01 X2.6649 Y8.0329 F90.00
G01 X2.6768 Y8.0364 F90.00
G01 X2.7003 Y8.0442 F90.00
G01 X2.7119 Y8.0485 F90.00
G01 X2.7950 Y8.0830 F90.00
G01 X2.8063 Y8.0881 F90.00
G01 X2.8284 Y8.0992 F90.00
G01 X2.8500 Y8.1113 F90.00
G01 X2.8606 Y8.1178 F90.00
G01 X2.8813 Y8.1314 F90.00
G01 X2.9013 Y8.1460 F90.00
G01 X2.9628 Y8.1934 F90.00
G01 X2.9816 Y8.2093 F90.00
G01 X2.9997 Y8.2262 F90.00
G01 X3.0085 Y8.2349 F90.00
G01 X3.0253 Y8.2530 F90.00
G01 X3.0413 Y8.2719 F90.00
G01 X3.0887 Y8.3334 F90.00
G01 X3.1059 Y8.3573 F90.00
G01 X3.2711 Y8.3573 F90.00
G01 X3.3184 Y8.2935 F90.00
G01 X3.3341 Y8.2734 F90.00
G01 X3.3423 Y8.2637 F90.00
G01 X3.4222 Y8.1755 F90.00
G01 X3.4402 Y8.1575 F90.00
G01 X3.4496 Y8.1488 F90.00
G01 X3.5284 Y8.0776 F90.00
G01 X3.5381 Y8.0693 F90.00
G01 X3.5583 Y8.0536 F90.00
G01 X3.6333 Y7.9980 F90.00
G01 X3.6542 Y7.9833 F90.00
G01 X3.6758 Y7.9696 F90.00
G01 X3.7293 Y7.9375 F90.00
G01 X3.6758 Y7.9054 F90.00
G01 X3.6542 Y7.8917 F90.00
G01 X3.6333 Y7.8770 F90.00
G01 X3.5583 Y7.8214 F90.00
G01 X3.5481 Y7.8136 F90.00
G01 X3.5284 Y7.7974 F90.00
G01 X3.4496 Y7.7262 F90.00
G01 X3.4311 Y7.7086 F90.00
G01 X3.4222 Y7.6995 F90.00
G01 X3.3423 Y7.6113 F90.00
G01 X3.3341 Y7.6016 F90.00
G01 X3.3184 Y7.5815 F90.00
G01 X3.2627 Y7.5064 F90.00
G01 X3.2480 Y7.4855 F90.00
G01 X3.2410 Y7.4748 F90.00
G01 X3.1798 Y7.3728 F90.00
G01 X3.1678 Y7.3502 F90.00
G01 X3.1622 Y7.3388 F90.00
G01 X3.1169 Y7.2427 F90.00
G01 X3.1119 Y7.2310 F90.00
G01 X3.1027 Y7.2071 F90.00
G01 X3.0712 Y7.1191 F90.00
G01 X3.0632 Y7.0949 F90.00
G01 X3.0564 Y7.0703 F90.00
G01 X3.0332 Y6.9776 F90.00
G01 X3.0170 Y6.9959 F90.00
G01 X3.0085 Y7.0049 F90.00
G01 X2.9997 Y7.0136 F90.00
G01 X2.9816 Y7.0305 F90.00
G01 X2.9627 Y7.0465 F90.00
G01 X2.9012 Y7.0939 F90.00
G01 X2.8812 Y7.1085 F90.00
G01 X2.8710 Y7.1154 F90.00
G01 X2.8500 Y7.1285 F90.00
G01 X2.8285 Y7.1406 F90.00
G01 X2.8064 Y7.1517 F90.00
G01 X2.7951 Y7.1568 F90.00
G01 X2.7235 Y7.1867 F90.00
G01 X2.7003 Y7.1956 F90.00
G01 X2.6886 Y7.1997 F90.00
G01 X2.6649 Y7.2070 F90.00
G01 X2.6409 Y7.2131 F90.00
G01 X2.6288 Y7.2157 F90.00
G01 X2.6044 Y7.2201 F90.00
G01 X2.5275 Y7.2304 F90.00
G01 X2.5005 Y7.2332 F90.00
G01 X2.4733 Y7.2346 F90.00
G01 X2.4597 Y7.2348 F90.00
G01 X1.1897 Y7.2349 F90.00
G01 X1.1626 Y7.2342 F90.00
G01 X1.1490 Y7.2333 F90.00
G01 X1.1219 Y7.2305 F90.00
G01 X1.0572 Y7.2220 F90.00
G01 X1.0328 Y7.2182 F90.00
G01 X1.0085 Y7.2132 F90.00
G01 X0.9845 Y7.2071 F90.00
G01 X0.9609 Y7.1998 F90.00
G01 X0.9376 Y7.1915 F90.00
G01 X0.8658 Y7.1619 F90.00
G01 X0.8431 Y7.1519 F90.00
G01 X0.8210 Y7.1408 F90.00
G01 X0.7994 Y7.1287 F90.00
G01 X0.7784 Y7.1155 F90.00
G01 X0.7581 Y7.1014 F90.00
G01 X0.6867 Y7.0466 F90.00
G01 X0.6678 Y7.0307 F90.00
G01 X0.6497 Y7.0138 F90.00
G01 X0.6410 Y7.0051 F90.00
G01 X0.6241 Y6.9870 F90.00
G01 X0.6082 Y6.9681 F90.00
G01 X0.5533 Y6.8967 F90.00
G01 X0.5392 Y6.8764 F90.00
G01 X0.5325 Y6.8659 F90.00
G01 X0.5261 Y6.8554 F90.00
G01 X0.5140 Y6.8338 F90.00
G01 X0.5083 Y6.8228 F90.00
G01 X0.4977 Y6.8004 F90.00
G01 X0.4679 Y6.7287 F90.00
G01 X0.4590 Y6.7057 F90.00
G01 X0.4512 Y6.6822 F90.00
G01 X0.4445 Y6.6584 F90.00
G01 X0.4389 Y6.6343 F90.00
G01 X0.4345 Y6.6100 F90.00
G01 X0.4226 Y6.5195 F90.00
G01 X0.4205 Y6.4923 F90.00
G01 X0.4200 Y6.4787 F90.00
G01 X0.4198 Y5.8351 F90.00
G01 X0.4205 Y5.8079 F90.00
G01 X0.4226 Y5.7808 F90.00
G01 X0.4327 Y5.7026 F90.00
G01 X0.4365 Y5.6781 F90.00
G01 X0.4415 Y5.6539 F90.00
G01 X0.4444 Y5.6419 F90.00
G01 X0.4511 Y5.6180 F90.00
G01 X0.4589 Y5.5946 F90.00
G01 X0.4678 Y5.5715 F90.00
G01 X0.4977 Y5.4998 F90.00
G01 X0.5028 Y5.4886 F90.00
G01 X0.5139 Y5.4664 F90.00
G01 X0.5260 Y5.4449 F90.00
G01 X0.5324 Y5.4343 F90.00
G01 X0.5391 Y5.4239 F90.00
G01 X0.5532 Y5.4036 F90.00
G01 X0.6080 Y5.3321 F90.00
G01 X0.6159 Y5.3226 F90.00
G01 X0.6323 Y5.3041 F90.00
G01 X0.6408 Y5.2951 F90.00
G01 X0.6585 Y5.2778 F90.00
G01 X0.6677 Y5.2695 F90.00
G01 X0.6866 Y5.2535 F90.00
G01 X0.7580 Y5.1987 F90.00
G01 X0.7783 Y5.1846 F90.00
G01 X0.7993 Y5.1715 F90.00
G01 X0.8208 Y5.1594 F90.00
G01 X0.8318 Y5.1537 F90.00
G01 X0.8542 Y5.1432 F90.00
G01 X0.9373 Y5.1087 F90.00
G01 X0.9607 Y5.1003 F90.00
G01 X0.9744 Y5.0960 F90.00
G00 Z2.0000
G00 X1.0885 Y5.1891
G01 F60.00
G01 Z-0.0500
G01 F90.00
G01 X1.0885 Y3.8101 F90.00
G01 X1.0890 Y3.7902 F90.00
G01 X1.0912 Y3.7478 F90.00
G01 X1.0945 Y3.7182 F90.00
G01 X1.0993 Y3.6861 F90.00
G01 X1.1027 Y3.6665 F90.00
G01 X1.1070 Y3.6470 F90.00
G01 X1.1174 Y3.6060 F90.00
G01 X1.1265 Y3.5775 F90.00
G01 X1.1374 Y3.5470 F90.00
G01 X1.1446 Y3.5284 F90.00
G01 X1.1526 Y3.5102 F90.00
G01 X1.1709 Y3.4719 F90.00
G01 X1.1853 Y3.4457 F90.00
G01 X1.2019 Y3.4179 F90.00
G01 X1.2126 Y3.4011 F90.00
G01 X1.2241 Y3.3848 F90.00
G01 X1.2434 Y3.3588 F90.00
G01 X1.2556 Y3.3431 F90.00
G01 X1.2686 Y3.3280 F90.00
G01 X1.2904 Y3.3040 F90.00
G01 X1.3041 Y3.2896 F90.00
G01 X3.5267 Y1.0670 F90.00
G01 X3.5411 Y1.0533 F90.00
G01 X3.5652 Y1.0315 F90.00
G01 X3.5802 Y1.0185 F90.00
G01 X3.5959 Y1.0062 F90.00
G01 X3.6220 Y0.9869 F90.00
G01 X3.6383 Y0.9754 F90.00
G01 X3.6551 Y0.9648 F90.00
G01 X3.6829 Y0.9481 F90.00
G01 X3.7002 Y0.9383 F90.00
G01 X3.7180 Y0.9293 F90.00
G01 X3.7564 Y0.9113 F90.00
G01 X3.7748 Y0.9037 F90.00
G01 X3.8146 Y0.8893 F90.00
G01 X3.8335 Y0.8831 F90.00
G01 X3.8527 Y0.8778 F90.00
G01 X3.8842 Y0.8699 F90.00
G01 X3.9036 Y0.8655 F90.00
G01 X3.9232 Y0.8621 F90.00
G01 X3.9553 Y0.8574 F90.00
G01 X3.9751 Y0.8549 F90.00
G01 X3.9949 Y0.8535 F90.00
G01 X4.0273 Y0.8519 F90.00
G01 X4.0472 Y0.8514 F90.00
G01 X40.2422 Y0.8514 F90.00
G01 X40.2621 Y0.8519 F90.00
G01 X40.2945 Y0.8535 F90.00
G01 X40.3144 Y0.8549 F90.00
G01 X40.3341 Y0.8574 F90.00
G01 X40.3760 Y0.8637 F90.00
G01 X40.4053 Y0.8699 F90.00
G01 X40.4463 Y0.8803 F90.00
G01 X40.4654 Y0.8861 F90.00
G01 X40.5053 Y0.9002 F90.00
G01 X40.5239 Y0.9074 F90.00
G01 X40.5421 Y0.9155 F90.00
G01 X40.5714 Y0.9293 F90.00
G01 X40.5980 Y0.9431 F90.00
G01 X40.6344 Y0.9648 F90.00
G01 X40.6512 Y0.9754 F90.00
G01 X40.6675 Y0.9869 F90.00
G01 X40.6935 Y1.0062 F90.00
G01 X40.7168 Y1.0249 F90.00
G01 X40.7483 Y1.0533 F90.00
G01 X40.7627 Y1.0670 F90.00
G01 X41.7222 Y2.0266 F90.00
G01 X41.7507 Y2.0579 F90.00
G01 X41.7638 Y2.0730 F90.00
G01 X41.7760 Y2.0887 F90.00
G01 X41.8012 Y2.1228 F90.00
G01 X41.8122 Y2.1394 F90.00
G01 X41.8341 Y2.1757 F90.00
G01 X41.8439 Y2.1930 F90.00
G01 X41.8529 Y2.2108 F90.00
G01 X41.8667 Y2.2401 F90.00
G01 X41.8748 Y2.2583 F90.00
G01 X41.8820 Y2.2769 F90.00
G01 X41.8929 Y2.3074 F90.00
G01 X41.8991 Y2.3263 F90.00
G01 X41.9045 Y2.3455 F90.00
G01 X41.9123 Y2.3770 F90.00
G01 X41.9167 Y2.3964 F90.00
G01 X41.9201 Y2.4160 F90.00
G01 X41.9262 Y2.4579 F90.00
G01 X41.9288 Y2.4877 F90.00
G01 X41.9304 Y2.5201 F90.00
G01 X41.9308 Y2.5400 F90.00
G01 X41.9308 Y5.3975 F90.00
G01 X41.9304 Y5.4174 F90.00
G01 X41.9288 Y5.4498 F90.00
G01 X41.9273 Y5.4697 F90.00
G01 X41.9249 Y5.4894 F90.00
G01 X41.9201 Y5.5215 F90.00
G01 X41.9146 Y5.5509 F90.00
G01 X41.9045 Y5.5920 F90.00
G01 X41.8991 Y5.6112 F90.00
G01 X41.8929 Y5.6301 F90.00
G01 X41.8820 Y5.6606 F90.00
G01 X41.8709 Y5.6884 F90.00
G01 X41.8485 Y5.7357 F90.00
G01 X41.8341 Y5.7618 F90.00
G01 X41.8174 Y5.7896 F90.00
G01 X41.8068 Y5.8065 F90.00
G01 X41.7953 Y5.8228 F90.00
G01 X41.7760 Y5.8488 F90.00
G01 X41.7573 Y5.8721 F90.00
G01 X41.7290 Y5.9036 F90.00
G01 X41.7152 Y5.9180 F90.00
G01 X41.0802 Y6.5530 F90.00
G01 X41.0658 Y6.5667 F90.00
G01 X41.0343 Y6.5951 F90.00
G01 X41.0110 Y6.6138 F90.00
G01 X40.9850 Y6.6331 F90.00
G01 X40.9687 Y6.6446 F90.00
G01 X40.9519 Y6.6552 F90.00
G01 X40.9241 Y6.6719 F90.00
G01 X40.8979 Y6.6863 F90.00
G01 X40.8506 Y6.7087 F90.00
G01 X40.8228 Y6.7198 F90.00
G01 X40.7923 Y6.7307 F90.00
G01 X40.7734 Y6.7369 F90.00
G01 X40.7542 Y6.7422 F90.00
G01 X40.7131 Y6.7524 F90.00
G01 X40.6935 Y6.7563 F90.00
G01 X40.6418 Y6.7640 F90.00
G01 X40.6220 Y6.7659 F90.00
G01 X40.5796 Y6.7681 F90.00
G01 X40.5597 Y6.7686 F90.00
G01 X40.2957 Y6.7686 F90.00
G01 X40.2851 Y6.7808 F90.00
G01 X40.2357 Y6.8353 F90.00
G01 X40.2220 Y6.8497 F90.00
G01 X40.2075 Y6.8635 F90.00
G01 X40.1530 Y6.9129 F90.00
G01 X40.1379 Y6.9259 F90.00
G01 X40.1222 Y6.9382 F90.00
G01 X40.0631 Y6.9820 F90.00
G01 X40.0468 Y6.9935 F90.00
G01 X40.0300 Y7.0041 F90.00
G01 X39.9669 Y7.0420 F90.00
G01 X39.9495 Y7.0518 F90.00
G01 X39.9318 Y7.0607 F90.00
G01 X39.8562 Y7.0964 F90.00
G01 X39.8284 Y7.1074 F90.00
G01 X39.7591 Y7.1322 F90.00
G01 X39.7402 Y7.1385 F90.00
G01 X39.7210 Y7.1438 F90.00
G01 X39.6496 Y7.1617 F90.00
G01 X39.6204 Y7.1679 F90.00
G01 X39.5279 Y7.1816 F90.00
G01 X39.4981 Y7.1842 F90.00
G01 X39.4147 Y7.1881 F90.00
G01 X37.9047 Y7.1883 F90.00
G01 X37.8848 Y7.1878 F90.00
G01 X37.8113 Y7.1842 F90.00
G01 X37.7914 Y7.1827 F90.00
G01 X37.7717 Y7.1803 F90.00
G01 X37.6890 Y7.1679 F90.00
G01 X37.6598 Y7.1617 F90.00
G01 X37.5884 Y7.1438 F90.00
G01 X37.5692 Y7.1385 F90.00
G01 X37.5503 Y7.1322 F90.00
G01 X37.4810 Y7.1074 F90.00
G01 X37.4624 Y7.1003 F90.00
G01 X37.4442 Y7.0922 F90.00
G01 X37.3687 Y7.0564 F90.00
G01 X37.3426 Y7.0420 F90.00
G01 X37.2794 Y7.0041 F90.00
G01 X37.2626 Y6.9935 F90.00
G01 X37.2463 Y6.9820 F90.00
G01 X37.1872 Y6.9382 F90.00
G01 X37.1715 Y6.9259 F90.00
G01 X37.1564 Y6.9129 F90.00
G01 X37.1019 Y6.8635 F90.00
G01 X37.0875 Y6.8497 F90.00
G01 X37.0737 Y6.8353 F90.00
G01 X37.0243 Y6.7808 F90.00
G01 X37.0138 Y6.7686 F90.00
G01 X36.0049 Y6.7686 F90.00
G01 X35.9808 Y6.7769 F90.00
G01 X35.9622 Y6.7821 F90.00
G01 X35.9434 Y6.7864 F90.00
G01 X35.9244 Y6.7899 F90.00
G01 X35.8396 Y6.8010 F90.00
G01 X35.8184 Y6.8026 F90.00
G01 X35.7972 Y6.8032 F90.00
G01 X34.5272 Y6.8033 F90.00
G01 X34.5060 Y6.8028 F90.00
G01 X34.4824 Y6.8008 F90.00
G01 X34.0881 Y7.1950 F90.00
G01 X34.0493 Y7.2301 F90.00
G01 X34.0339 Y7.2428 F90.00
G01 X33.9919 Y7.2739 F90.00
G01 X33.9753 Y7.2850 F90.00
G01 X33.9391 Y7.3069 F90.00
G01 X33.9217 Y7.3167 F90.00
G01 X33.9039 Y7.3257 F90.00
G01 X33.8656 Y7.3437 F90.00
G01 X33.8472 Y7.3513 F90.00
G01 X33.8073 Y7.3657 F90.00
G01 X33.7884 Y7.3719 F90.00
G01 X33.7692 Y7.3772 F90.00
G01 X33.7378 Y7.3851 F90.00
G01 X33.7183 Y7.3895 F90.00
G01 X33.6987 Y7.3929 F90.00
G01 X33.6666 Y7.3976 F90.00
G01 X33.6469 Y7.4001 F90.00
G01 X33.6270 Y7.4015 F90.00
G01 X33.5847 Y7.4035 F90.00
G01 X33.5064 Y7.4036 F90.00
G01 X33.4994 Y7.4312 F90.00
G01 X33.4936 Y7.4502 F90.00
G01 X33.4701 Y7.5159 F90.00
G01 X33.4584 Y7.5434 F90.00
G01 X33.4327 Y7.5974 F90.00
G01 X33.4233 Y7.6150 F90.00
G01 X33.3874 Y7.6748 F90.00
G01 X33.3705 Y7.6994 F90.00
G01 X33.3408 Y7.7395 F90.00
G01 X33.3286 Y7.7552 F90.00
G01 X33.3156 Y7.7703 F90.00
G01 X33.2753 Y7.8145 F90.00
G01 X33.2539 Y7.8354 F90.00
G01 X33.2170 Y7.8688 F90.00
G01 X33.2019 Y7.8818 F90.00
G01 X33.1862 Y7.8941 F90.00
G01 X33.1381 Y7.9296 F90.00
G01 X33.1131 Y7.9459 F90.00
G01 X33.0703 Y7.9715 F90.00
G01 X33.0530 Y7.9814 F90.00
G01 X33.0352 Y7.9903 F90.00
G01 X32.9901 Y8.0116 F90.00
G01 X32.9627 Y8.0234 F90.00
G01 X32.9064 Y8.0437 F90.00
G01 X32.8875 Y8.0499 F90.00
G01 X32.8683 Y8.0552 F90.00
G01 X32.8102 Y8.0696 F90.00
G01 X32.7809 Y8.0751 F90.00
G01 X32.7316 Y8.0824 F90.00
G01 X32.7118 Y8.0849 F90.00
G01 X32.6919 Y8.0863 F90.00
G01 X32.6421 Y8.0888 F90.00
G01 X32.6123 Y8.0891 F90.00
G01 X32.5525 Y8.0863 F90.00
G01 X32.5327 Y8.0849 F90.00
G01 X32.5129 Y8.0824 F90.00
G01 X32.4537 Y8.0735 F90.00
G01 X32.4245 Y8.0673 F90.00
G01 X32.3762 Y8.0552 F90.00
G01 X32.3570 Y8.0499 F90.00
G01 X32.3381 Y8.0437 F90.00
G01 X32.2911 Y8.0269 F90.00
G01 X32.2634 Y8.0158 F90.00
G01 X32.2093 Y7.9903 F90.00
G01 X32.1915 Y7.9814 F90.00
G01 X32.1742 Y7.9715 F90.00
G01 X32.1229 Y7.9407 F90.00
G01 X32.0983 Y7.9238 F90.00
G01 X32.0582 Y7.8941 F90.00
G01 X32.0425 Y7.8818 F90.00
G01 X32.0275 Y7.8688 F90.00
G01 X31.9872 Y7.8323 F90.00
G01 X31.9470 Y7.8688 F90.00
G01 X31.9319 Y7.8818 F90.00
G01 X31.9162 Y7.8941 F90.00
G01 X31.8762 Y7.9238 F90.00
G01 X31.8599 Y7.9353 F90.00
G01 X31.8431 Y7.9459 F90.00
G01 X31.8003 Y7.9715 F90.00
G01 X31.7830 Y7.9814 F90.00
G01 X31.7652 Y7.9903 F90.00
G01 X31.7111 Y8.0158 F90.00
G01 X31.6927 Y8.0234 F90.00
G01 X31.6364 Y8.0437 F90.00
G01 X31.6175 Y8.0499 F90.00
G01 X31.5983 Y8.0552 F90.00
G01 X31.5402 Y8.0696 F90.00
G01 X31.5207 Y8.0735 F90.00
G01 X31.4616 Y8.0824 F90.00
G01 X31.4319 Y8.0857 F90.00
G01 X31.3721 Y8.0888 F90.00
G01 X31.3522 Y8.0893 F90.00
G01 X31.3323 Y8.0888 F90.00
G01 X31.2825 Y8.0863 F90.00
G01 X31.2627 Y8.0849 F90.00
G01 X31.2429 Y8.0824 F90.00
G01 X31.1936 Y8.0751 F90.00
G01 X31.1740 Y8.0717 F90.00
G01 X31.1545 Y8.0673 F90.00
G01 X31.0965 Y8.0527 F90.00
G01 X31.0681 Y8.0437 F90.00
G01 X31.0211 Y8.0269 F90.00
G01 X31.0025 Y8.0197 F90.00
G01 X30.9843 Y8.0116 F90.00
G01 X30.9303 Y7.9859 F90.00
G01 X30.9042 Y7.9715 F90.00
G01 X30.8529 Y7.9407 F90.00
G01 X30.8364 Y7.9296 F90.00
G01 X30.8183 Y7.9164 F90.00
G01 X30.8183 Y9.2201 F90.00
G01 X31.9746 Y10.3764 F90.00
G01 X37.0138 Y10.3764 F90.00
G01 X37.0243 Y10.3642 F90.00
G01 X37.0737 Y10.3097 F90.00
G01 X37.0875 Y10.2953 F90.00
G01 X37.1019 Y10.2815 F90.00
G01 X37.1564 Y10.2321 F90.00
G01 X37.1715 Y10.2191 F90.00
G01 X37.1872 Y10.2068 F90.00
G01 X37.2463 Y10.1630 F90.00
G01 X37.2626 Y10.1515 F90.00
G01 X37.2794 Y10.1409 F90.00
G01 X37.3426 Y10.1030 F90.00
G01 X37.3599 Y10.0932 F90.00
G01 X37.3777 Y10.0843 F90.00
G01 X37.4533 Y10.0486 F90.00
G01 X37.4810 Y10.0376 F90.00
G01 X37.5503 Y10.0128 F90.00
G01 X37.5692 Y10.0065 F90.00
G01 X37.5884 Y10.0012 F90.00
G01 X37.6598 Y9.9833 F90.00
G01 X37.6890 Y9.9771 F90.00
G01 X37.7717 Y9.9647 F90.00
G01 X37.7914 Y9.9623 F90.00
G01 X37.8113 Y9.9608 F90.00
G01 X37.8848 Y9.9572 F90.00
G01 X37.9047 Y9.9567 F90.00
G01 X39.4147 Y9.9569 F90.00
G01 X39.4981 Y9.9608 F90.00
G01 X39.5180 Y9.9623 F90.00
G01 X39.5378 Y9.9647 F90.00
G01 X39.6106 Y9.9755 F90.00
G01 X39.6302 Y9.9790 F90.00
G01 X39.6496 Y9.9833 F90.00
G01 X39.7210 Y10.0012 F90.00
G01 X39.7402 Y10.0065 F90.00
G01 X39.7591 Y10.0128 F90.00
G01 X39.8284 Y10.0376 F90.00
G01 X39.8470 Y10.0447 F90.00
G01 X39.8652 Y10.0528 F90.00
G01 X39.9318 Y10.0843 F90.00
G01 X39.9495 Y10.0932 F90.00
G01 X39.9669 Y10.1030 F90.00
G01 X40.0300 Y10.1409 F90.00
G01 X40.0468 Y10.1515 F90.00
G01 X40.0631 Y10.1630 F90.00
G01 X40.1222 Y10.2068 F90.00
G01 X40.1379 Y10.2191 F90.00
G01 X40.1530 Y10.2321 F90.00
G01 X40.2075 Y10.2815 F90.00
G01 X40.2220 Y10.2953 F90.00
G01 X40.2357 Y10.3097 F90.00
G01 X40.2917 Y10.3717 F90.00
G01 X40.3104 Y10.3950 F90.00
G01 X40.3542 Y10.4541 F90.00
G01 X40.3711 Y10.4787 F90.00
G01 X40.4142 Y10.5504 F90.00
G01 X40.4240 Y10.5677 F90.00
G01 X40.4330 Y10.5855 F90.00
G01 X40.4586 Y10.6397 F90.00
G01 X40.4586 Y9.5774 F90.00
G01 X40.2456 Y9.3644 F90.00
G01 X40.2289 Y9.3826 F90.00
G01 X40.2075 Y9.4035 F90.00
G01 X40.1455 Y9.4595 F90.00
G01 X40.1222 Y9.4782 F90.00
G01 X40.0631 Y9.5220 F90.00
G01 X40.0385 Y9.5389 F90.00
G01 X39.9583 Y9.5870 F90.00
G01 X39.9318 Y9.6007 F90.00
G01 X39.8652 Y9.6322 F90.00
G01 X39.8470 Y9.6403 F90.00
G01 X39.8284 Y9.6474 F90.00
G01 X39.7591 Y9.6722 F90.00
G01 X39.7307 Y9.6813 F90.00
G01 X39.6496 Y9.7017 F90.00
G01 X39.6302 Y9.7060 F90.00
G01 X39.6106 Y9.7095 F90.00
G01 X39.5378 Y9.7203 F90.00
G01 X39.5081 Y9.7235 F90.00
G01 X39.4246 Y9.7278 F90.00
G01 X39.4047 Y9.7283 F90.00
G01 X37.9047 Y9.7283 F90.00
G01 X37.8848 Y9.7278 F90.00
G01 X37.8113 Y9.7242 F90.00
G01 X37.7815 Y9.7216 F90.00
G01 X37.6989 Y9.7095 F90.00
G01 X37.6792 Y9.7060 F90.00
G01 X37.6598 Y9.7017 F90.00
G01 X37.5884 Y9.6838 F90.00
G01 X37.5692 Y9.6785 F90.00
G01 X37.5503 Y9.6722 F90.00
G01 X37.4810 Y9.6474 F90.00
G01 X37.4624 Y9.6403 F90.00
G01 X37.4442 Y9.6322 F90.00
G01 X37.3777 Y9.6007 F90.00
G01 X37.3599 Y9.5918 F90.00
G01 X37.3426 Y9.5820 F90.00
G01 X37.2794 Y9.5441 F90.00
G01 X37.2626 Y9.5335 F90.00
G01 X37.2463 Y9.5220 F90.00
G01 X37.1872 Y9.4782 F90.00
G01 X37.1715 Y9.4659 F90.00
G01 X37.1564 Y9.4529 F90.00
G01 X37.1019 Y9.4035 F90.00
G01 X37.0875 Y9.3897 F90.00
G01 X37.0737 Y9.3753 F90.00
G01 X37.0243 Y9.3208 F90.00
G01 X37.0138 Y9.3086 F90.00
G01 X36.4132 Y9.3086 F90.00
G01 X36.3888 Y9.3677 F90.00
G01 X36.3809 Y9.3853 F90.00
G01 X36.3677 Y9.4111 F90.00
G01 X36.3526 Y9.4358 F90.00
G01 X36.3358 Y9.4594 F90.00
G01 X36.2961 Y9.5112 F90.00
G01 X36.2840 Y9.5262 F90.00
G01 X36.2645 Y9.5477 F90.00
G01 X36.2435 Y9.5677 F90.00
G01 X36.2212 Y9.5861 F90.00
G01 X36.1617 Y9.6316 F90.00
G01 X36.1377 Y9.6478 F90.00
G01 X36.1126 Y9.6623 F90.00
G01 X36.0866 Y9.6750 F90.00
G01 X36.0085 Y9.7074 F90.00
G01 X35.9811 Y9.7169 F90.00
G01 X35.9530 Y9.7244 F90.00
G01 X35.9246 Y9.7299 F90.00
G01 X35.8503 Y9.7397 F90.00
G01 X35.8292 Y9.7420 F90.00
G01 X35.8080 Y9.7431 F90.00
G01 X35.7974 Y9.7432 F90.00
G01 X34.5168 Y9.7432 F90.00
G01 X34.4956 Y9.7421 F90.00
G01 X34.4850 Y9.7411 F90.00
G01 X34.4098 Y9.7313 F90.00
G01 X34.3907 Y9.7284 F90.00
G01 X34.3718 Y9.7245 F90.00
G01 X34.3530 Y9.7197 F90.00
G01 X34.3346 Y9.7140 F90.00
G01 X34.3164 Y9.7075 F90.00
G01 X34.2382 Y9.6752 F90.00
G01 X34.2208 Y9.6669 F90.00
G01 X34.2037 Y9.6579 F90.00
G01 X34.1871 Y9.6480 F90.00
G01 X34.1631 Y9.6318 F90.00
G01 X34.0960 Y9.5803 F90.00
G01 X34.0812 Y9.5678 F90.00
G01 X34.0671 Y9.5547 F90.00
G01 X34.0536 Y9.5409 F90.00
G01 X34.0408 Y9.5264 F90.00
G01 X34.0287 Y9.5114 F90.00
G01 X33.9890 Y9.4596 F90.00
G01 X33.9776 Y9.4440 F90.00
G01 X33.9669 Y9.4279 F90.00
G01 X33.9571 Y9.4113 F90.00
G01 X33.9480 Y9.3942 F90.00
G01 X33.9360 Y9.3678 F90.00
G01 X33.9110 Y9.3076 F90.00
G01 X33.9040 Y9.2896 F90.00
G01 X33.8952 Y9.2620 F90.00
G01 X33.8905 Y9.2433 F90.00
G01 X33.8850 Y9.2149 F90.00
G01 X33.8751 Y9.1406 F90.00
G01 X33.8728 Y9.1195 F90.00
G01 X33.8717 Y9.0982 F90.00
G01 X33.8716 Y8.4576 F90.00
G01 X33.8721 Y8.4364 F90.00
G01 X33.8738 Y8.4152 F90.00
G01 X33.8849 Y8.3304 F90.00
G01 X33.8883 Y8.3114 F90.00
G01 X33.8927 Y8.2926 F90.00
G01 X33.9008 Y8.2648 F90.00
G01 X33.9109 Y8.2376 F90.00
G01 X33.9397 Y8.1685 F90.00
G01 X33.9523 Y8.1424 F90.00
G01 X33.9618 Y8.1256 F90.00
G01 X33.9720 Y8.1092 F90.00
G01 X33.9831 Y8.0933 F90.00
G01 X34.0286 Y8.0338 F90.00
G01 X34.0470 Y8.0115 F90.00
G01 X34.0670 Y7.9905 F90.00
G01 X34.0811 Y7.9773 F90.00
G01 X34.1035 Y7.9589 F90.00
G01 X34.1630 Y7.9134 F90.00
G01 X34.1788 Y7.9024 F90.00
G01 X34.1952 Y7.8921 F90.00
G01 X34.2206 Y7.8783 F90.00
G01 X34.2380 Y7.8700 F90.00
G01 X34.3162 Y7.8376 F90.00
G01 X34.3436 Y7.8281 F90.00
G01 X34.3716 Y7.8206 F90.00
G01 X34.4001 Y7.8151 F90.00
G01 X34.4849 Y7.8040 F90.00
G01 X34.4955 Y7.8030 F90.00
G01 X34.5166 Y7.8019 F90.00
G01 X35.7972 Y7.8017 F90.00
G01 X35.8185 Y7.8022 F90.00
G01 X35.8396 Y7.8039 F90.00
G01 X35.9244 Y7.8150 F90.00
G01 X35.9435 Y7.8185 F90.00
G01 X35.9623 Y7.8228 F90.00
G01 X35.9809 Y7.8280 F90.00
G01 X36.0023 Y7.8352 F90.00
G01 X37.0139 Y7.8362 F90.00
G01 X37.0243 Y7.8242 F90.00
G01 X37.0737 Y7.7697 F90.00
G01 X37.0875 Y7.7553 F90.00
G01 X37.1019 Y7.7415 F90.00
G01 X37.1564 Y7.6921 F90.00
G01 X37.1715 Y7.6791 F90.00
G01 X37.1872 Y7.6668 F90.00
G01 X37.2463 Y7.6230 F90.00
G01 X37.2626 Y7.6115 F90.00
G01 X37.2794 Y7.6009 F90.00
G01 X37.3426 Y7.5630 F90.00
G01 X37.3599 Y7.5532 F90.00
G01 X37.3777 Y7.5443 F90.00
G01 X37.4442 Y7.5128 F90.00
G01 X37.4624 Y7.5047 F90.00
G01 X37.4810 Y7.4976 F90.00
G01 X37.5503 Y7.4728 F90.00
G01 X37.5692 Y7.4665 F90.00
G01 X37.5884 Y7.4612 F90.00
G01 X37.6598 Y7.4433 F90.00
G01 X37.6792 Y7.4390 F90.00
G01 X37.6989 Y7.4355 F90.00
G01 X37.7717 Y7.4247 F90.00
G01 X37.7914 Y7.4223 F90.00
G01 X37.8113 Y7.4208 F90.00
G01 X37.8848 Y7.4172 F90.00
G01 X37.9047 Y7.4167 F90.00
G01 X39.4147 Y7.4169 F90.00
G01 X39.5081 Y7.4215 F90.00
G01 X39.5378 Y7.4247 F90.00
G01 X39.6106 Y7.4355 F90.00
G01 X39.6302 Y7.4390 F90.00
G01 X39.6496 Y7.4433 F90.00
G01 X39.7307 Y7.4637 F90.00
G01 X39.7591 Y7.4728 F90.00
G01 X39.8284 Y7.4976 F90.00
G01 X39.8470 Y7.5047 F90.00
G01 X39.8652 Y7.5128 F90.00
G01 X39.9318 Y7.5443 F90.00
G01 X39.9495 Y7.5532 F90.00
G01 X39.9669 Y7.5630 F90.00
G01 X40.0300 Y7.6009 F90.00
G01 X40.0468 Y7.6115 F90.00
G01 X40.0631 Y7.6230 F90.00
G01 X40.1222 Y7.6668 F90.00
G01 X40.1379 Y7.6791 F90.00
G01 X40.1530 Y7.6921 F90.00
G01 X40.2075 Y7.7415 F90.00
G01 X40.2220 Y7.7553 F90.00
G01 X40.2357 Y7.7697 F90.00
G01 X40.2851 Y7.8242 F90.00
G01 X40.2957 Y7.8364 F90.00
G01 X40.4947 Y7.8364 F90.00
G01 X40.5146 Y7.8369 F90.00
G01 X40.5470 Y7.8385 F90.00
G01 X40.5669 Y7.8399 F90.00
G01 X40.5866 Y7.8424 F90.00
G01 X40.6187 Y7.8471 F90.00
G01 X40.6383 Y7.8505 F90.00
G01 X40.6577 Y7.8549 F90.00
G01 X40.6892 Y7.8628 F90.00
G01 X40.7084 Y7.8681 F90.00
G01 X40.7273 Y7.8743 F90.00
G01 X40.7578 Y7.8852 F90.00
G01 X40.7764 Y7.8924 F90.00
G01 X40.7946 Y7.9005 F90.00
G01 X40.8239 Y7.9143 F90.00
G01 X40.8417 Y7.9233 F90.00
G01 X40.8590 Y7.9331 F90.00
G01 X40.8868 Y7.9498 F90.00
G01 X40.9119 Y7.9661 F90.00
G01 X40.9460 Y7.9912 F90.00
G01 X40.9617 Y8.0035 F90.00
G01 X40.9768 Y8.0165 F90.00
G01 X41.0008 Y8.0383 F90.00
G01 X41.0152 Y8.0520 F90.00
G01 X41.7222 Y8.7591 F90.00
G01 X41.7507 Y8.7905 F90.00
G01 X41.7638 Y8.8055 F90.00
G01 X41.7760 Y8.8212 F90.00
G01 X41.7953 Y8.8473 F90.00
G01 X41.8068 Y8.8636 F90.00
G01 X41.8174 Y8.8804 F90.00
G01 X41.8341 Y8.9082 F90.00
G01 X41.8439 Y8.9255 F90.00
G01 X41.8529 Y8.9433 F90.00
G01 X41.8667 Y8.9726 F90.00
G01 X41.8785 Y9.0001 F90.00
G01 X41.8961 Y9.0493 F90.00
G01 X41.9019 Y9.0684 F90.00
G01 X41.9146 Y9.1192 F90.00
G01 X41.9185 Y9.1387 F90.00
G01 X41.9262 Y9.1905 F90.00
G01 X41.9282 Y9.2103 F90.00
G01 X41.9307 Y9.2626 F90.00
G01 X41.9308 Y12.0650 F90.00
G01 X41.9304 Y12.0849 F90.00
G01 X41.9288 Y12.1173 F90.00
G01 X41.9273 Y12.1372 F90.00
G01 X41.9249 Y12.1569 F90.00
G01 X41.9185 Y12.1988 F90.00
G01 X41.9123 Y12.2280 F90.00
G01 X41.9019 Y12.2691 F90.00
G01 X41.8961 Y12.2882 F90.00
G01 X41.8820 Y12.3281 F90.00
G01 X41.8748 Y12.3467 F90.00
G01 X41.8667 Y12.3649 F90.00
G01 X41.8529 Y12.3942 F90.00
G01 X41.8391 Y12.4207 F90.00
G01 X41.8174 Y12.4571 F90.00
G01 X41.8068 Y12.4740 F90.00
G01 X41.7953 Y12.4903 F90.00
G01 X41.7760 Y12.5163 F90.00
G01 X41.7573 Y12.5396 F90.00
G01 X41.7290 Y12.5711 F90.00
G01 X41.7152 Y12.5855 F90.00
G01 X40.7556 Y13.5450 F90.00
G01 X40.7243 Y13.5735 F90.00
G01 X40.7092 Y13.5865 F90.00
G01 X40.6935 Y13.5988 F90.00
G01 X40.6675 Y13.6181 F90.00
G01 X40.6512 Y13.6296 F90.00
G01 X40.6344 Y13.6402 F90.00
G01 X40.6066 Y13.6569 F90.00
G01 X40.5892 Y13.6667 F90.00
G01 X40.5714 Y13.6757 F90.00
G01 X40.5331 Y13.6937 F90.00
G01 X40.5147 Y13.7013 F90.00
G01 X40.4654 Y13.7189 F90.00
G01 X40.4463 Y13.7247 F90.00
G01 X40.4053 Y13.7351 F90.00
G01 X40.3858 Y13.7395 F90.00
G01 X40.3662 Y13.7429 F90.00
G01 X40.3243 Y13.7490 F90.00
G01 X40.3045 Y13.7509 F90.00
G01 X40.2621 Y13.7531 F90.00
G01 X40.2422 Y13.7536 F90.00
G01 X19.9222 Y13.7536 F90.00
G01 X19.9023 Y13.7531 F90.00
G01 X19.8699 Y13.7515 F90.00
G01 X19.8501 Y13.7501 F90.00
G01 X19.8303 Y13.7476 F90.00
G01 X19.7982 Y13.7429 F90.00
G01 X19.7689 Y13.7374 F90.00
G01 X19.7277 Y13.7272 F90.00
G01 X19.7085 Y13.7219 F90.00
G01 X19.6896 Y13.7157 F90.00
G01 X19.6591 Y13.7048 F90.00
G01 X19.6314 Y13.6937 F90.00
G01 X19.5930 Y13.6757 F90.00
G01 X19.5752 Y13.6667 F90.00
G01 X19.5579 Y13.6569 F90.00
G01 X19.5216 Y13.6350 F90.00
G01 X19.4970 Y13.6181 F90.00
G01 X19.4709 Y13.5988 F90.00
G01 X19.4552 Y13.5865 F90.00
G01 X19.4402 Y13.5735 F90.00
G01 X19.4088 Y13.5450 F90.00
G01 X15.8073 Y9.9436 F90.00
G01 X11.1132 Y9.9436 F90.00
G01 X11.1016 Y9.9621 F90.00
G01 X11.0901 Y9.9784 F90.00
G01 X11.0344 Y10.0535 F90.00
G01 X11.0222 Y10.0692 F90.00
G01 X11.0092 Y10.0842 F90.00
G01 X10.9464 Y10.1535 F90.00
G01 X10.9327 Y10.1679 F90.00
G01 X10.9182 Y10.1817 F90.00
G01 X10.8490 Y10.2444 F90.00
G01 X10.8339 Y10.2574 F90.00
G01 X10.8182 Y10.2697 F90.00
G01 X10.7431 Y10.3254 F90.00
G01 X10.7185 Y10.3423 F90.00
G01 X10.6212 Y10.4006 F90.00
G01 X10.5947 Y10.4143 F90.00
G01 X10.5102 Y10.4543 F90.00
G01 X10.4920 Y10.4624 F90.00
G01 X10.4734 Y10.4695 F90.00
G01 X10.3854 Y10.5010 F90.00
G01 X10.3665 Y10.5073 F90.00
G01 X10.3473 Y10.5126 F90.00
G01 X10.2566 Y10.5353 F90.00
G01 X10.2372 Y10.5397 F90.00
G01 X10.2176 Y10.5431 F90.00
G01 X10.1251 Y10.5568 F90.00
G01 X10.0954 Y10.5601 F90.00
G01 X9.9921 Y10.5653 F90.00
G01 X9.9623 Y10.5656 F90.00
G01 X9.8490 Y10.5601 F90.00
G01 X9.8193 Y10.5568 F90.00
G01 X9.7269 Y10.5431 F90.00
G01 X9.6975 Y10.5376 F90.00
G01 X9.5971 Y10.5126 F90.00
G01 X9.5779 Y10.5073 F90.00
G01 X9.5590 Y10.5010 F90.00
G01 X9.4710 Y10.4695 F90.00
G01 X9.4524 Y10.4624 F90.00
G01 X9.4342 Y10.4543 F90.00
G01 X9.3497 Y10.4143 F90.00
G01 X9.3320 Y10.4054 F90.00
G01 X9.3146 Y10.3956 F90.00
G01 X9.2344 Y10.3475 F90.00
G01 X9.2176 Y10.3368 F90.00
G01 X9.2013 Y10.3254 F90.00
G01 X9.1183 Y10.2637 F90.00
G01 X9.0955 Y10.2444 F90.00
G01 X9.0262 Y10.1817 F90.00
G01 X9.0118 Y10.1679 F90.00
G01 X8.9981 Y10.1535 F90.00
G01 X8.9353 Y10.0842 F90.00
G01 X8.9223 Y10.0692 F90.00
G01 X8.9100 Y10.0535 F90.00
G01 X8.8543 Y9.9784 F90.00
G01 X8.8429 Y9.9621 F90.00
G01 X8.8322 Y9.9453 F90.00
G01 X8.7842 Y9.8651 F90.00
G01 X8.7744 Y9.8478 F90.00
G01 X8.7654 Y9.8300 F90.00
G01 X8.7254 Y9.7455 F90.00
G01 X8.7174 Y9.7273 F90.00
G01 X8.7102 Y9.7087 F90.00
G01 X8.6787 Y9.6207 F90.00
G01 X8.6725 Y9.6018 F90.00
G01 X8.6671 Y9.5826 F90.00
G01 X8.6444 Y9.4919 F90.00
G01 X8.6401 Y9.4725 F90.00
G01 X8.6367 Y9.4529 F90.00
G01 X8.6230 Y9.3604 F90.00
G01 X8.6205 Y9.3406 F90.00
G01 X8.6190 Y9.3208 F90.00
G01 X8.6145 Y9.2274 F90.00
G01 X8.6140 Y9.2075 F90.00
G01 X8.6145 Y9.1876 F90.00
G01 X8.6190 Y9.0942 F90.00
G01 X8.6205 Y9.0744 F90.00
G01 X8.6230 Y9.0546 F90.00
G01 X8.6382 Y8.9523 F90.00
G01 X8.6444 Y8.9231 F90.00
G01 X8.6671 Y8.8324 F90.00
G01 X8.6725 Y8.8132 F90.00
G01 X8.6787 Y8.7943 F90.00
G01 X8.7102 Y8.7063 F90.00
G01 X8.7174 Y8.6877 F90.00
G01 X8.7254 Y8.6695 F90.00
G01 X8.7654 Y8.5850 F90.00
G01 X8.7744 Y8.5672 F90.00
G01 X8.7842 Y8.5499 F90.00
G01 X8.8322 Y8.4697 F90.00
G01 X8.8429 Y8.4529 F90.00
G01 X8.8543 Y8.4366 F90.00
G01 X8.9100 Y8.3615 F90.00
G01 X8.9287 Y8.3382 F90.00
G01 X8.9981 Y8.2615 F90.00
G01 X9.0118 Y8.2471 F90.00
G01 X9.0262 Y8.2333 F90.00
G01 X9.0955 Y8.1706 F90.00
G01 X9.1183 Y8.1513 F90.00
G01 X9.2094 Y8.0838 F90.00
G01 X9.2344 Y8.0675 F90.00
G01 X9.3146 Y8.0194 F90.00
G01 X9.3408 Y8.0050 F90.00
G01 X9.4433 Y7.9566 F90.00
G01 X9.4617 Y7.9489 F90.00
G01 X9.4933 Y7.9375 F90.00
G01 X9.4617 Y7.9261 F90.00
G01 X9.4433 Y7.9184 F90.00
G01 X9.3497 Y7.8743 F90.00
G01 X9.3232 Y7.8606 F90.00
G01 X9.2344 Y7.8075 F90.00
G01 X9.2176 Y7.7968 F90.00
G01 X9.2013 Y7.7854 F90.00
G01 X9.1183 Y7.7237 F90.00
G01 X9.0955 Y7.7044 F90.00
G01 X9.0262 Y7.6417 F90.00
G01 X9.0118 Y7.6279 F90.00
G01 X8.9981 Y7.6135 F90.00
G01 X8.9353 Y7.5442 F90.00
G01 X8.9223 Y7.5292 F90.00
G01 X8.9100 Y7.5135 F90.00
G01 X8.8485 Y7.4303 F90.00
G01 X8.8322 Y7.4053 F90.00
G01 X8.7842 Y7.3251 F90.00
G01 X8.7744 Y7.3078 F90.00
G01 X8.7654 Y7.2900 F90.00
G01 X8.7254 Y7.2055 F90.00
G01 X8.7174 Y7.1873 F90.00
G01 X8.7102 Y7.1687 F90.00
G01 X8.6787 Y7.0807 F90.00
G01 X8.6725 Y7.0618 F90.00
G01 X8.6671 Y7.0426 F90.00
G01 X8.6444 Y6.9519 F90.00
G01 X8.6401 Y6.9325 F90.00
G01 X8.6367 Y6.9129 F90.00
G01 X8.6230 Y6.8204 F90.00
G01 X8.6205 Y6.8006 F90.00
G01 X8.6190 Y6.7808 F90.00
G01 X8.6145 Y6.6874 F90.00
G01 X8.6141 Y6.6575 F90.00
G01 X8.6197 Y6.5443 F90.00
G01 X8.6230 Y6.5146 F90.00
G01 X8.6367 Y6.4221 F90.00
G01 X8.6401 Y6.4025 F90.00
G01 X8.6444 Y6.3831 F90.00
G01 X8.6671 Y6.2924 F90.00
G01 X8.6725 Y6.2732 F90.00
G01 X8.6787 Y6.2543 F90.00
G01 X8.7102 Y6.1663 F90.00
G01 X8.7174 Y6.1477 F90.00
G01 X8.7254 Y6.1295 F90.00
G01 X8.7654 Y6.0450 F90.00
G01 X8.7744 Y6.0272 F90.00
G01 X8.7842 Y6.0099 F90.00
G01 X8.8322 Y5.9297 F90.00
G01 X8.8429 Y5.9129 F90.00
G01 X8.8543 Y5.8966 F90.00
G01 X8.9100 Y5.8215 F90.00
G01 X8.9223 Y5.8058 F90.00
G01 X8.9353 Y5.7908 F90.00
G01 X9.0048 Y5.7142 F90.00
G01 X9.0262 Y5.6933 F90.00
G01 X9.0955 Y5.6306 F90.00
G01 X9.1183 Y5.6113 F90.00
G01 X9.2094 Y5.5438 F90.00
G01 X9.2260 Y5.5327 F90.00
G01 X9.2361 Y5.5265 F90.00
G01 X9.2361 Y5.5158 F90.00
G01 X8.2664 Y4.5461 F90.00
G01 X6.1781 Y4.5461 F90.00
G01 X5.2083 Y5.5158 F90.00
G01 X5.2083 Y5.5265 F90.00
G01 X5.2185 Y5.5327 F90.00
G01 X5.2350 Y5.5438 F90.00
G01 X5.3261 Y5.6113 F90.00
G01 X5.3490 Y5.6306 F90.00
G01 X5.4182 Y5.6933 F90.00
G01 X5.4396 Y5.7142 F90.00
G01 X5.5092 Y5.7908 F90.00
G01 X5.5222 Y5.8058 F90.00
G01 X5.5344 Y5.8215 F90.00
G01 X5.5901 Y5.8966 F90.00
G01 X5.6016 Y5.9129 F90.00
G01 X5.6122 Y5.9297 F90.00
G01 X5.6603 Y6.0099 F90.00
G01 X5.6701 Y6.0272 F90.00
G01 X5.6790 Y6.0450 F90.00
G01 X5.7190 Y6.1295 F90.00
G01 X5.7271 Y6.1477 F90.00
G01 X5.7342 Y6.1663 F90.00
G01 X5.7657 Y6.2543 F90.00
G01 X5.7720 Y6.2732 F90.00
G01 X5.7773 Y6.2924 F90.00
G01 X5.8000 Y6.3831 F90.00
G01 X5.8044 Y6.4025 F90.00
G01 X5.8078 Y6.4221 F90.00
G01 X5.8215 Y6.5146 F90.00
G01 X5.8239 Y6.5344 F90.00
G01 X5.8254 Y6.5542 F90.00
G01 X5.8300 Y6.6476 F90.00
G01 X5.8305 Y6.6675 F90.00
G01 X5.8300 Y6.6874 F90.00
G01 X5.8254 Y6.7808 F90.00
G01 X5.8239 Y6.8006 F90.00
G01 X5.8215 Y6.8204 F90.00
G01 X5.8078 Y6.9129 F90.00
G01 X5.8044 Y6.9325 F90.00
G01 X5.8000 Y6.9519 F90.00
G01 X5.7773 Y7.0426 F90.00
G01 X5.7720 Y7.0618 F90.00
G01 X5.7657 Y7.0807 F90.00
G01 X5.7342 Y7.1687 F90.00
G01 X5.7271 Y7.1873 F90.00
G01 X5.7190 Y7.2055 F90.00
G01 X5.6790 Y7.2900 F90.00
G01 X5.6701 Y7.3078 F90.00
G01 X5.6603 Y7.3251 F90.00
G01 X5.6122 Y7.4053 F90.00
G01 X5.5959 Y7.4303 F90.00
G01 X5.5344 Y7.5135 F90.00
G01 X5.5222 Y7.5292 F90.00
G01 X5.5092 Y7.5442 F90.00
G01 X5.4464 Y7.6135 F90.00
G01 X5.4326 Y7.6279 F90.00
G01 X5.4182 Y7.6417 F90.00
G01 X5.3490 Y7.7044 F90.00
G01 X5.3261 Y7.7237 F90.00
G01 X5.2431 Y7.7854 F90.00
G01 X5.2268 Y7.7968 F90.00
G01 X5.2100 Y7.8075 F90.00
G01 X5.1212 Y7.8606 F90.00
G01 X5.0947 Y7.8743 F90.00
G01 X5.0012 Y7.9184 F90.00
G01 X4.9828 Y7.9261 F90.00
G01 X4.9512 Y7.9375 F90.00
G01 X4.9828 Y7.9489 F90.00
G01 X5.0012 Y7.9566 F90.00
G01 X5.1037 Y8.0050 F90.00
G01 X5.1298 Y8.0194 F90.00
G01 X5.2100 Y8.0675 F90.00
G01 X5.2350 Y8.0838 F90.00
G01 X5.3182 Y8.1453 F90.00
G01 X5.3339 Y8.1576 F90.00
G01 X5.3490 Y8.1706 F90.00
G01 X5.4182 Y8.2333 F90.00
G01 X5.4326 Y8.2471 F90.00
G01 X5.4464 Y8.2615 F90.00
G01 X5.5092 Y8.3308 F90.00
G01 X5.5284 Y8.3536 F90.00
G01 X5.5901 Y8.4366 F90.00
G01 X5.6016 Y8.4529 F90.00
G01 X5.6122 Y8.4697 F90.00
G01 X5.6603 Y8.5499 F90.00
G01 X5.6701 Y8.5672 F90.00
G01 X5.6790 Y8.5850 F90.00
G01 X5.7190 Y8.6695 F90.00
G01 X5.7271 Y8.6877 F90.00
G01 X5.7342 Y8.7063 F90.00
G01 X5.7657 Y8.7943 F90.00
G01 X5.7720 Y8.8132 F90.00
G01 X5.7773 Y8.8324 F90.00
G01 X5.8000 Y8.9231 F90.00
G01 X5.8044 Y8.9425 F90.00
G01 X5.8078 Y8.9621 F90.00
G01 X5.8228 Y9.0645 F90.00
G01 X5.8254 Y9.0942 F90.00
G01 X5.8300 Y9.1876 F90.00
G01 X5.8305 Y9.2075 F90.00
G01 X5.8300 Y9.2274 F90.00
G01 X5.8254 Y9.3208 F90.00
G01 X5.8239 Y9.3406 F90.00
G01 X5.8215 Y9.3604 F90.00
G01 X5.8078 Y9.4529 F90.00
G01 X5.8044 Y9.4725 F90.00
G01 X5.8000 Y9.4919 F90.00
G01 X5.7773 Y9.5826 F90.00
G01 X5.7720 Y9.6018 F90.00
G01 X5.7657 Y9.6207 F90.00
G01 X5.7342 Y9.7087 F90.00
G01 X5.7271 Y9.7273 F90.00
G01 X5.7190 Y9.7455 F90.00
G01 X5.6790 Y9.8300 F90.00
G01 X5.6701 Y9.8478 F90.00
G01 X5.6603 Y9.8651 F90.00
G01 X5.6122 Y9.9453 F90.00
G01 X5.6016 Y9.9621 F90.00
G01 X5.5901 Y9.9784 F90.00
G01 X5.5344 Y10.0535 F90.00
G01 X5.5222 Y10.0692 F90.00
G01 X5.5092 Y10.0842 F90.00
G01 X5.4464 Y10.1535 F90.00
G01 X5.4326 Y10.1679 F90.00
G01 X5.4182 Y10.1817 F90.00
G01 X5.3490 Y10.2444 F90.00
G01 X5.3339 Y10.2574 F90.00
G01 X5.3182 Y10.2697 F90.00
G01 X5.2431 Y10.3254 F90.00
G01 X5.2185 Y10.3423 F90.00
G01 X5.1298 Y10.3956 F90.00
G01 X5.1125 Y10.4054 F90.00
G01 X5.0947 Y10.4143 F90.00
G01 X5.0102 Y10.4543 F90.00
G01 X4.9920 Y10.4624 F90.00
G01 X4.9734 Y10.4695 F90.00
G01 X4.8854 Y10.5010 F90.00
G01 X4.8665 Y10.5073 F90.00
G01 X4.8473 Y10.5126 F90.00
G01 X4.7566 Y10.5353 F90.00
G01 X4.7274 Y10.5415 F90.00
G01 X4.6251 Y10.5568 F90.00
G01 X4.6053 Y10.5592 F90.00
G01 X4.5855 Y10.5607 F90.00
G01 X4.4921 Y10.5653 F90.00
G01 X4.4722 Y10.5658 F90.00
G01 X4.4523 Y10.5653 F90.00
G01 X4.3490 Y10.5601 F90.00
G01 X4.3193 Y10.5568 F90.00
G01 X4.2269 Y10.5431 F90.00
G01 X4.2072 Y10.5397 F90.00
G01 X4.1878 Y10.5353 F90.00
G01 X4.0971 Y10.5126 F90.00
G01 X4.0779 Y10.5073 F90.00
G01 X4.0590 Y10.5010 F90.00
G01 X3.9617 Y10.4661 F90.00
G01 X3.9342 Y10.4543 F90.00
G01 X3.8497 Y10.4143 F90.00
G01 X3.8319 Y10.4054 F90.00
G01 X3.8146 Y10.3956 F90.00
G01 X3.7344 Y10.3475 F90.00
G01 X3.7176 Y10.3368 F90.00
G01 X3.7013 Y10.3254 F90.00
G01 X3.6262 Y10.2697 F90.00
G01 X3.6105 Y10.2574 F90.00
G01 X3.5955 Y10.2444 F90.00
G01 X3.5262 Y10.1817 F90.00
G01 X3.5118 Y10.1679 F90.00
G01 X3.4981 Y10.1535 F90.00
G01 X3.4353 Y10.0842 F90.00
G01 X3.4223 Y10.0692 F90.00
G01 X3.4100 Y10.0535 F90.00
G01 X3.3543 Y9.9784 F90.00
G01 X3.3429 Y9.9621 F90.00
G01 X3.3312 Y9.9436 F90.00
G01 X2.8315 Y9.9436 F90.00
G01 X2.8163 Y9.9547 F90.00
G01 X2.8002 Y9.9653 F90.00
G01 X2.7836 Y9.9752 F90.00
G01 X2.7665 Y9.9842 F90.00
G01 X2.7402 Y9.9963 F90.00
G01 X2.6799 Y10.0213 F90.00
G01 X2.6527 Y10.0314 F90.00
G01 X2.6342 Y10.0371 F90.00
G01 X2.6155 Y10.0419 F90.00
G01 X2.5870 Y10.0474 F90.00
G01 X2.5128 Y10.0572 F90.00
G01 X2.4917 Y10.0595 F90.00
G01 X2.4811 Y10.0601 F90.00
G01 X2.4599 Y10.0607 F90.00
G01 X1.1899 Y10.0608 F90.00
G01 X1.1687 Y10.0603 F90.00
G01 X1.1475 Y10.0586 F90.00
G01 X1.0722 Y10.0488 F90.00
G01 X1.0532 Y10.0459 F90.00
G01 X1.0342 Y10.0420 F90.00
G01 X1.0155 Y10.0372 F90.00
G01 X0.9879 Y10.0284 F90.00
G01 X0.9699 Y10.0214 F90.00
G01 X0.9096 Y9.9965 F90.00
G01 X0.8919 Y9.9886 F90.00
G01 X0.8746 Y9.9800 F90.00
G01 X0.8495 Y9.9655 F90.00
G01 X0.8255 Y9.9493 F90.00
G01 X0.7585 Y9.8978 F90.00
G01 X0.7437 Y9.8853 F90.00
G01 X0.7296 Y9.8722 F90.00
G01 X0.7161 Y9.8584 F90.00
G01 X0.6972 Y9.8365 F90.00
G01 X0.6514 Y9.7771 F90.00
G01 X0.6346 Y9.7535 F90.00
G01 X0.6195 Y9.7288 F90.00
G01 X0.6105 Y9.7117 F90.00
G01 X0.6023 Y9.6942 F90.00
G01 X0.5699 Y9.6161 F90.00
G01 X0.5634 Y9.5979 F90.00
G01 X0.5577 Y9.5795 F90.00
G01 X0.5529 Y9.5608 F90.00
G01 X0.5490 Y9.5419 F90.00
G01 X0.5461 Y9.5228 F90.00
G01 X0.5363 Y9.4475 F90.00
G01 X0.5353 Y9.4370 F90.00
G01 X0.5342 Y9.4157 F90.00
G01 X0.5340 Y8.7751 F90.00
G01 X0.5346 Y8.7539 F90.00
G01 X0.5362 Y8.7327 F90.00
G01 X0.5375 Y8.7222 F90.00
G01 X0.5474 Y8.6479 F90.00
G01 X0.5508 Y8.6289 F90.00
G01 X0.5551 Y8.6101 F90.00
G01 X0.5603 Y8.5915 F90.00
G01 X0.5698 Y8.5641 F90.00
G01 X0.6022 Y8.4860 F90.00
G01 X0.6148 Y8.4599 F90.00
G01 X0.6243 Y8.4431 F90.00
G01 X0.6399 Y8.4187 F90.00
G01 X0.6513 Y8.4031 F90.00
G01 X0.6970 Y8.3437 F90.00
G01 X0.7160 Y8.3218 F90.00
G01 X0.7295 Y8.3080 F90.00
G01 X0.7436 Y8.2948 F90.00
G01 X0.7660 Y8.2764 F90.00
G01 X0.8177 Y8.2367 F90.00
G01 X0.8413 Y8.2199 F90.00
G01 X0.8660 Y8.2048 F90.00
G01 X0.8917 Y8.1915 F90.00
G01 X0.9094 Y8.1837 F90.00
G01 X0.9787 Y8.1551 F90.00
G01 X0.9969 Y8.1486 F90.00
G01 X1.0247 Y8.1404 F90.00
G01 X1.0530 Y8.1342 F90.00
G01 X1.0721 Y8.1313 F90.00
G01 X1.1368 Y8.1228 F90.00
G01 X1.1579 Y8.1205 F90.00
G01 X1.1685 Y8.1199 F90.00
G01 X1.1897 Y8.1193 F90.00
G01 X2.4597 Y8.1192 F90.00
G01 X2.4809 Y8.1197 F90.00
G01 X2.5021 Y8.1214 F90.00
G01 X2.5774 Y8.1312 F90.00
G01 X2.5964 Y8.1341 F90.00
G01 X2.6248 Y8.1403 F90.00
G01 X2.6526 Y8.1484 F90.00
G01 X2.6797 Y8.1586 F90.00
G01 X2.7400 Y8.1835 F90.00
G01 X2.7577 Y8.1914 F90.00
G01 X2.7834 Y8.2046 F90.00
G01 X2.8082 Y8.2197 F90.00
G01 X2.8318 Y8.2365 F90.00
G01 X2.8911 Y8.2822 F90.00
G01 X2.9130 Y8.3012 F90.00
G01 X2.9335 Y8.3216 F90.00
G01 X2.9524 Y8.3435 F90.00
G01 X3.0040 Y8.4106 F90.00
G01 X3.0150 Y8.4265 F90.00
G01 X3.0252 Y8.4429 F90.00
G01 X3.0347 Y8.4597 F90.00
G01 X3.0406 Y8.4714 F90.00
G01 X3.3312 Y8.4714 F90.00
G01 X3.3429 Y8.4529 F90.00
G01 X3.3543 Y8.4366 F90.00
G01 X3.4160 Y8.3536 F90.00
G01 X3.4353 Y8.3308 F90.00
G01 X3.4981 Y8.2615 F90.00
G01 X3.5118 Y8.2471 F90.00
G01 X3.5262 Y8.2333 F90.00
G01 X3.5955 Y8.1706 F90.00
G01 X3.6105 Y8.1576 F90.00
G01 X3.6262 Y8.1453 F90.00
G01 X3.7013 Y8.0896 F90.00
G01 X3.7176 Y8.0782 F90.00
G01 X3.7344 Y8.0675 F90.00
G01 X3.8232 Y8.0144 F90.00
G01 X3.8497 Y8.0007 F90.00
G01 X3.9433 Y7.9566 F90.00
G01 X3.9617 Y7.9489 F90.00
G01 X3.9933 Y7.9375 F90.00
G01 X3.9617 Y7.9261 F90.00
G01 X3.9433 Y7.9184 F90.00
G01 X3.8408 Y7.8700 F90.00
G01 X3.8146 Y7.8556 F90.00
G01 X3.7260 Y7.8023 F90.00
G01 X3.7013 Y7.7854 F90.00
G01 X3.6262 Y7.7297 F90.00
G01 X3.6105 Y7.7174 F90.00
G01 X3.5955 Y7.7044 F90.00
G01 X3.5189 Y7.6349 F90.00
G01 X3.4981 Y7.6135 F90.00
G01 X3.4353 Y7.5442 F90.00
G01 X3.4223 Y7.5292 F90.00
G01 X3.4100 Y7.5135 F90.00
G01 X3.3543 Y7.4384 F90.00
G01 X3.3429 Y7.4221 F90.00
G01 X3.3322 Y7.4053 F90.00
G01 X3.2842 Y7.3251 F90.00
G01 X3.2743 Y7.3078 F90.00
G01 X3.2654 Y7.2900 F90.00
G01 X3.2213 Y7.1964 F90.00
G01 X3.2102 Y7.1687 F90.00
G01 X3.1787 Y7.0807 F90.00
G01 X3.1724 Y7.0618 F90.00
G01 X3.1671 Y7.0426 F90.00
G01 X3.1444 Y6.9519 F90.00
G01 X3.1401 Y6.9325 F90.00
G01 X3.1367 Y6.9129 F90.00
G01 X3.1229 Y6.8204 F90.00
G01 X3.1205 Y6.8006 F90.00
G01 X3.1190 Y6.7808 F90.00
G01 X3.1144 Y6.6874 F90.00
G01 X3.1140 Y6.6675 F90.00
G01 X3.1144 Y6.6476 F90.00
G01 X3.1190 Y6.5542 F90.00
G01 X3.1205 Y6.5344 F90.00
G01 X3.1229 Y6.5146 F90.00
G01 X3.1367 Y6.4221 F90.00
G01 X3.1401 Y6.4025 F90.00
G01 X3.1444 Y6.3831 F90.00
G01 X3.1671 Y6.2924 F90.00
G01 X3.1724 Y6.2732 F90.00
G01 X3.1787 Y6.2543 F90.00
G01 X3.2102 Y6.1663 F90.00
G01 X3.2213 Y6.1386 F90.00
G01 X3.2654 Y6.0450 F90.00
G01 X3.2743 Y6.0272 F90.00
G01 X3.2842 Y6.0099 F90.00
G01 X3.3322 Y5.9297 F90.00
G01 X3.3429 Y5.9129 F90.00
G01 X3.3543 Y5.8966 F90.00
G01 X3.4100 Y5.8215 F90.00
G01 X3.4223 Y5.8058 F90.00
G01 X3.4353 Y5.7908 F90.00
G01 X3.4981 Y5.7215 F90.00
G01 X3.5118 Y5.7071 F90.00
G01 X3.5262 Y5.6933 F90.00
G01 X3.5955 Y5.6306 F90.00
G01 X3.6183 Y5.6113 F90.00
G01 X3.7013 Y5.5496 F90.00
G01 X3.7176 Y5.5382 F90.00
G01 X3.7361 Y5.5265 F90.00
G01 X3.7362 Y5.2010 F90.00
G01 X3.7388 Y5.1487 F90.00
G01 X3.7407 Y5.1289 F90.00
G01 X3.7484 Y5.0771 F90.00
G01 X3.7523 Y5.0576 F90.00
G01 X3.7650 Y5.0068 F90.00
G01 X3.7740 Y4.9783 F90.00
G01 X3.7850 Y4.9478 F90.00
G01 X3.7921 Y4.9292 F90.00
G01 X3.8002 Y4.9110 F90.00
G01 X3.8141 Y4.8817 F90.00
G01 X3.8278 Y4.8552 F90.00
G01 X3.8547 Y4.8103 F90.00
G01 X3.8716 Y4.7857 F90.00
G01 X3.8909 Y4.7596 F90.00
G01 X3.9032 Y4.7439 F90.00
G01 X3.9162 Y4.7289 F90.00
G01 X3.9380 Y4.7048 F90.00
G01 X3.9517 Y4.6904 F90.00
G01 X5.3526 Y3.2895 F90.00
G01 X5.3671 Y3.2758 F90.00
G01 X5.3911 Y3.2540 F90.00
G01 X5.4139 Y3.2347 F90.00
G01 X5.4479 Y3.2094 F90.00
G01 X5.4642 Y3.1979 F90.00
G01 X5.4810 Y3.1873 F90.00
G01 X5.5174 Y3.1656 F90.00
G01 X5.5439 Y3.1518 F90.00
G01 X5.5732 Y3.1380 F90.00
G01 X5.5915 Y3.1299 F90.00
G01 X5.6100 Y3.1227 F90.00
G01 X5.6500 Y3.1086 F90.00
G01 X5.6690 Y3.1028 F90.00
G01 X5.7101 Y3.0924 F90.00
G01 X5.7393 Y3.0862 F90.00
G01 X5.7812 Y3.0799 F90.00
G01 X5.8010 Y3.0774 F90.00
G01 X5.8209 Y3.0760 F90.00
G01 X5.8532 Y3.0744 F90.00
G01 X5.8732 Y3.0739 F90.00
G01 X8.5813 Y3.0740 F90.00
G01 X8.6335 Y3.0766 F90.00
G01 X8.6632 Y3.0799 F90.00
G01 X8.6953 Y3.0846 F90.00
G01 X8.7149 Y3.0880 F90.00
G01 X8.7343 Y3.0924 F90.00
G01 X8.7658 Y3.1003 F90.00
G01 X8.7945 Y3.1086 F90.00
G01 X8.8437 Y3.1262 F90.00
G01 X8.8712 Y3.1380 F90.00
G01 X8.9005 Y3.1518 F90.00
G01 X8.9183 Y3.1608 F90.00
G01 X8.9356 Y3.1706 F90.00
G01 X8.9634 Y3.1873 F90.00
G01 X8.9803 Y3.1979 F90.00
G01 X8.9965 Y3.2094 F90.00
G01 X9.0226 Y3.2287 F90.00
G01 X9.0459 Y3.2474 F90.00
G01 X9.0774 Y3.2758 F90.00
G01 X9.0918 Y3.2895 F90.00
G01 X10.4927 Y4.6904 F90.00
G01 X10.5065 Y4.7048 F90.00
G01 X10.5283 Y4.7289 F90.00
G01 X10.5475 Y4.7517 F90.00
G01 X10.5787 Y4.7938 F90.00
G01 X10.5949 Y4.8188 F90.00
G01 X10.6116 Y4.8466 F90.00
G01 X10.6214 Y4.8639 F90.00
G01 X10.6304 Y4.8817 F90.00
G01 X10.6442 Y4.9110 F90.00
G01 X10.6560 Y4.9385 F90.00
G01 X10.6736 Y4.9878 F90.00
G01 X10.6820 Y5.0164 F90.00
G01 X10.6898 Y5.0479 F90.00
G01 X10.6942 Y5.0673 F90.00
G01 X10.6976 Y5.0869 F90.00
G01 X10.7024 Y5.1190 F90.00
G01 X10.7048 Y5.1388 F90.00
G01 X10.7063 Y5.1586 F90.00
G01 X10.7082 Y5.2010 F90.00
G01 X10.7084 Y5.5265 F90.00
G01 X10.7268 Y5.5382 F90.00
G01 X10.7431 Y5.5496 F90.00
G01 X10.8182 Y5.6053 F90.00
G01 X10.8339 Y5.6176 F90.00
G01 X10.8490 Y5.6306 F90.00
G01 X10.9182 Y5.6933 F90.00
G01 X10.9327 Y5.7071 F90.00
G01 X10.9464 Y5.7215 F90.00
G01 X11.0092 Y5.7908 F90.00
G01 X11.0222 Y5.8058 F90.00
G01 X11.0344 Y5.8215 F90.00
G01 X11.0901 Y5.8966 F90.00
G01 X11.1016 Y5.9129 F90.00
G01 X11.1132 Y5.9314 F90.00
G01 X15.8073 Y5.9314 F90.00
G01 X18.7738 Y2.9650 F90.00
G01 X18.8052 Y2.9365 F90.00
G01 X18.8202 Y2.9235 F90.00
G01 X18.8359 Y2.9112 F90.00
G01 X18.8700 Y2.8861 F90.00
G01 X18.8951 Y2.8698 F90.00
G01 X18.9315 Y2.8481 F90.00
G01 X18.9491 Y2.8387 F90.00
G01 X18.9873 Y2.8205 F90.00
G01 X19.0055 Y2.8124 F90.00
G01 X19.0241 Y2.8052 F90.00
G01 X19.0640 Y2.7911 F90.00
G01 X19.0831 Y2.7853 F90.00
G01 X19.1242 Y2.7749 F90.00
G01 X19.1436 Y2.7705 F90.00
G01 X19.1632 Y2.7671 F90.00
G01 X19.1953 Y2.7624 F90.00
G01 X19.2151 Y2.7599 F90.00
G01 X19.2349 Y2.7585 F90.00
G01 X19.2673 Y2.7569 F90.00
G01 X19.2872 Y2.7564 F90.00
G01 X37.0138 Y2.7564 F90.00
G01 X37.0243 Y2.7442 F90.00
G01 X37.0737 Y2.6897 F90.00
G01 X37.0875 Y2.6753 F90.00
G01 X37.1019 Y2.6615 F90.00
G01 X37.1564 Y2.6121 F90.00
G01 X37.1715 Y2.5991 F90.00
G01 X37.1872 Y2.5868 F90.00
G01 X37.2463 Y2.5430 F90.00
G01 X37.2626 Y2.5315 F90.00
G01 X37.2794 Y2.5209 F90.00
G01 X37.3426 Y2.4830 F90.00
G01 X37.3687 Y2.4686 F90.00
G01 X37.4442 Y2.4328 F90.00
G01 X37.4624 Y2.4247 F90.00
G01 X37.4810 Y2.4176 F90.00
G01 X37.5503 Y2.3928 F90.00
G01 X37.5692 Y2.3865 F90.00
G01 X37.5884 Y2.3812 F90.00
G01 X37.6598 Y2.3633 F90.00
G01 X37.6890 Y2.3571 F90.00
G01 X37.7717 Y2.3447 F90.00
G01 X37.7914 Y2.3423 F90.00
G01 X37.8113 Y2.3408 F90.00
G01 X37.8848 Y2.3372 F90.00
G01 X37.9047 Y2.3367 F90.00
G01 X39.4047 Y2.3367 F90.00
G01 X39.4246 Y2.3372 F90.00
G01 X39.4981 Y2.3408 F90.00
G01 X39.5180 Y2.3423 F90.00
G01 X39.5378 Y2.3447 F90.00
G01 X39.6106 Y2.3555 F90.00
G01 X39.6302 Y2.3590 F90.00
G01 X39.6496 Y2.3633 F90.00
G01 X39.7210 Y2.3812 F90.00
G01 X39.7402 Y2.3865 F90.00
G01 X39.7591 Y2.3928 F90.00
G01 X39.8284 Y2.4176 F90.00
G01 X39.8470 Y2.4247 F90.00
G01 X39.8652 Y2.4328 F90.00
G01 X39.9318 Y2.4643 F90.00
G01 X39.9495 Y2.4732 F90.00
G01 X39.9669 Y2.4830 F90.00
G01 X40.0385 Y2.5261 F90.00
G01 X40.0631 Y2.5430 F90.00
G01 X40.1222 Y2.5868 F90.00
G01 X40.1379 Y2.5991 F90.00
G01 X40.1530 Y2.6121 F90.00
G01 X40.2075 Y2.6615 F90.00
G01 X40.2220 Y2.6753 F90.00
G01 X40.2357 Y2.6897 F90.00
G01 X40.2917 Y2.7517 F90.00
G01 X40.3104 Y2.7750 F90.00
G01 X40.3542 Y2.8341 F90.00
G01 X40.3711 Y2.8587 F90.00
G01 X40.4142 Y2.9304 F90.00
G01 X40.4240 Y2.9477 F90.00
G01 X40.4330 Y2.9655 F90.00
G01 X40.4586 Y3.0197 F90.00
G01 X40.4586 Y2.8449 F90.00
G01 X39.9373 Y2.3236 F90.00
G01 X4.3521 Y2.3236 F90.00
G01 X2.5608 Y4.1150 F90.00
G01 X2.5608 Y5.1890 F90.00
G01 X2.5868 Y5.1925 F90.00
G01 X2.6058 Y5.1960 F90.00
G01 X2.6339 Y5.2028 F90.00
G01 X2.6524 Y5.2085 F90.00
G01 X2.6795 Y5.2186 F90.00
G01 X2.7398 Y5.2435 F90.00
G01 X2.7575 Y5.2514 F90.00
G01 X2.7748 Y5.2600 F90.00
G01 X2.7917 Y5.2695 F90.00
G01 X2.8080 Y5.2797 F90.00
G01 X2.8316 Y5.2965 F90.00
G01 X2.8834 Y5.3363 F90.00
G01 X2.8984 Y5.3484 F90.00
G01 X2.9129 Y5.3612 F90.00
G01 X2.9333 Y5.3816 F90.00
G01 X2.9461 Y5.3961 F90.00
G01 X2.9583 Y5.4111 F90.00
G01 X2.9980 Y5.4629 F90.00
G01 X3.0094 Y5.4785 F90.00
G01 X3.0200 Y5.4946 F90.00
G01 X3.0299 Y5.5112 F90.00
G01 X3.0390 Y5.5283 F90.00
G01 X3.0472 Y5.5458 F90.00
G01 X3.0796 Y5.6239 F90.00
G01 X3.0861 Y5.6421 F90.00
G01 X3.0917 Y5.6605 F90.00
G01 X3.0965 Y5.6792 F90.00
G01 X3.1020 Y5.7076 F90.00
G01 X3.1119 Y5.7819 F90.00
G01 X3.1132 Y5.7925 F90.00
G01 X3.1148 Y5.8137 F90.00
G01 X3.1154 Y5.8349 F90.00
G01 X3.1153 Y6.4755 F90.00
G01 X3.1142 Y6.4967 F90.00
G01 X3.1132 Y6.5073 F90.00
G01 X3.1034 Y6.5825 F90.00
G01 X3.1005 Y6.6016 F90.00
G01 X3.0966 Y6.6205 F90.00
G01 X3.0918 Y6.6393 F90.00
G01 X3.0862 Y6.6577 F90.00
G01 X3.0796 Y6.6759 F90.00
G01 X3.0473 Y6.7540 F90.00
G01 X3.0390 Y6.7715 F90.00
G01 X3.0300 Y6.7886 F90.00
G01 X3.0201 Y6.8052 F90.00
G01 X3.0039 Y6.8292 F90.00
G01 X2.9524 Y6.8963 F90.00
G01 X2.9400 Y6.9110 F90.00
G01 X2.9268 Y6.9252 F90.00
G01 X2.9058 Y6.9452 F90.00
G01 X2.8835 Y6.9636 F90.00
G01 X2.8317 Y7.0033 F90.00
G01 X2.8161 Y7.0147 F90.00
G01 X2.8000 Y7.0253 F90.00
G01 X2.7834 Y7.0352 F90.00
G01 X2.7664 Y7.0442 F90.00
G01 X2.7489 Y7.0525 F90.00
G01 X2.6708 Y7.0849 F90.00
G01 X2.6526 Y7.0914 F90.00
G01 X2.6248 Y7.0996 F90.00
G01 X2.6059 Y7.1039 F90.00
G01 X2.5869 Y7.1074 F90.00
G01 X2.5021 Y7.1185 F90.00
G01 X2.4809 Y7.1201 F90.00
G01 X2.4597 Y7.1207 F90.00
G01 X1.1897 Y7.1208 F90.00
G01 X1.1685 Y7.1203 F90.00
G01 X1.1473 Y7.1186 F90.00
G01 X1.0721 Y7.1088 F90.00
G01 X1.0530 Y7.1059 F90.00
G01 X1.0341 Y7.1020 F90.00
G01 X1.0154 Y7.0972 F90.00
G01 X0.9878 Y7.0884 F90.00
G01 X0.9697 Y7.0814 F90.00
G01 X0.9094 Y7.0565 F90.00
G01 X0.8918 Y7.0486 F90.00
G01 X0.8745 Y7.0400 F90.00
G01 X0.8494 Y7.0255 F90.00
G01 X0.8254 Y7.0093 F90.00
G01 X0.7659 Y6.9637 F90.00
G01 X0.7436 Y6.9453 F90.00
G01 X0.7294 Y6.9322 F90.00
G01 X0.7095 Y6.9112 F90.00
G01 X0.6970 Y6.8965 F90.00
G01 X0.6513 Y6.8371 F90.00
G01 X0.6345 Y6.8135 F90.00
G01 X0.6242 Y6.7971 F90.00
G01 X0.6148 Y6.7803 F90.00
G01 X0.6061 Y6.7630 F90.00
G01 X0.5983 Y6.7453 F90.00
G01 X0.5733 Y6.6851 F90.00
G01 X0.5664 Y6.6671 F90.00
G01 X0.5603 Y6.6488 F90.00
G01 X0.5551 Y6.6302 F90.00
G01 X0.5507 Y6.6114 F90.00
G01 X0.5459 Y6.5828 F90.00
G01 X0.5361 Y6.5075 F90.00
G01 X0.5352 Y6.4970 F90.00
G01 X0.5340 Y6.4757 F90.00
G01 X0.5339 Y5.8351 F90.00
G01 X0.5344 Y5.8139 F90.00
G01 X0.5361 Y5.7927 F90.00
G01 X0.5459 Y5.7175 F90.00
G01 X0.5507 Y5.6889 F90.00
G01 X0.5550 Y5.6701 F90.00
G01 X0.5602 Y5.6515 F90.00
G01 X0.5697 Y5.6241 F90.00
G01 X0.6020 Y5.5460 F90.00
G01 X0.6102 Y5.5285 F90.00
G01 X0.6193 Y5.5114 F90.00
G01 X0.6291 Y5.4948 F90.00
G01 X0.6454 Y5.4709 F90.00
G01 X0.6909 Y5.4113 F90.00
G01 X0.7093 Y5.3890 F90.00
G01 X0.7225 Y5.3748 F90.00
G01 X0.7363 Y5.3613 F90.00
G01 X0.7582 Y5.3424 F90.00
G01 X0.8253 Y5.2909 F90.00
G01 X0.8412 Y5.2799 F90.00
G01 X0.8575 Y5.2696 F90.00
G01 X0.8829 Y5.2558 F90.00
G01 X0.9092 Y5.2437 F90.00
G01 X0.9695 Y5.2187 F90.00
G01 X0.9967 Y5.2086 F90.00
G01 X1.0245 Y5.2004 F90.00
G01 X1.0434 Y5.1961 F90.00
G01 X1.0624 Y5.1926 F90.00
G01 X1.0885 Y5.1891 F90.00
G00 Z2.0000
G00 X3.2295 Y5.8791
G01 F60.00
G01 Z-0.0500
G01 F90.00
G01 X3.2293 Y5.8213 F90.00
G01 X3.2288 Y5.8077 F90.00
G01 X3.2267 Y5.7805 F90.00
G01 X3.2148 Y5.6900 F90.00
G01 X3.2104 Y5.6657 F90.00
G01 X3.2077 Y5.6536 F90.00
G01 X3.2016 Y5.6296 F90.00
G01 X3.1944 Y5.6060 F90.00
G01 X3.1860 Y5.5827 F90.00
G01 X3.1516 Y5.4996 F90.00
G01 X3.1410 Y5.4772 F90.00
G01 X3.1294 Y5.4553 F90.00
G01 X3.1168 Y5.4341 F90.00
G01 X3.1031 Y5.4134 F90.00
G01 X3.0885 Y5.3934 F90.00
G01 X3.0411 Y5.3319 F90.00
G01 X3.0252 Y5.3130 F90.00
G01 X3.0083 Y5.2949 F90.00
G01 X2.9906 Y5.2777 F90.00
G01 X2.9721 Y5.2612 F90.00
G01 X2.9626 Y5.2534 F90.00
G01 X2.8912 Y5.1986 F90.00
G01 X2.8709 Y5.1845 F90.00
G01 X2.8499 Y5.1713 F90.00
G01 X2.8283 Y5.1592 F90.00
G01 X2.8061 Y5.1481 F90.00
G01 X2.7835 Y5.1381 F90.00
G01 X2.7117 Y5.1085 F90.00
G01 X2.6884 Y5.1002 F90.00
G01 X2.6749 Y5.0959 F90.00
G01 X2.6749 Y4.1623 F90.00
G01 X4.3994 Y2.4377 F90.00
G01 X37.1976 Y2.4377 F90.00
G01 X37.1784 Y2.4513 F90.00
G01 X37.1192 Y2.4952 F90.00
G01 X37.1091 Y2.5029 F90.00
G01 X37.0894 Y2.5191 F90.00
G01 X37.0159 Y2.5857 F90.00
G01 X36.9979 Y2.6037 F90.00
G01 X36.9627 Y2.6423 F90.00
G01 X19.2872 Y2.6423 F90.00
G01 X19.2617 Y2.6429 F90.00
G01 X19.2166 Y2.6453 F90.00
G01 X19.1912 Y2.6478 F90.00
G01 X19.1465 Y2.6542 F90.00
G01 X19.1213 Y2.6586 F90.00
G01 X19.0965 Y2.6642 F90.00
G01 X19.0527 Y2.6753 F90.00
G01 X19.0282 Y2.6827 F90.00
G01 X18.9857 Y2.6978 F90.00
G01 X18.9618 Y2.7070 F90.00
G01 X18.9385 Y2.7173 F90.00
G01 X18.8977 Y2.7368 F90.00
G01 X18.8752 Y2.7488 F90.00
G01 X18.8364 Y2.7719 F90.00
G01 X18.8255 Y2.7786 F90.00
G01 X18.8043 Y2.7928 F90.00
G01 X18.7680 Y2.8196 F90.00
G01 X18.7478 Y2.8353 F90.00
G01 X18.7285 Y2.8519 F90.00
G01 X18.6951 Y2.8824 F90.00
G01 X15.7600 Y5.8173 F90.00
G01 X11.1733 Y5.8173 F90.00
G01 X11.1261 Y5.7535 F90.00
G01 X11.1104 Y5.7334 F90.00
G01 X11.0937 Y5.7141 F90.00
G01 X11.0310 Y5.6449 F90.00
G01 X11.0134 Y5.6264 F90.00
G01 X10.9949 Y5.6088 F90.00
G01 X10.9256 Y5.5460 F90.00
G01 X10.9063 Y5.5293 F90.00
G01 X10.8862 Y5.5136 F90.00
G01 X10.8225 Y5.4664 F90.00
G01 X10.8225 Y5.2109 F90.00
G01 X10.8218 Y5.1854 F90.00
G01 X10.8195 Y5.1403 F90.00
G01 X10.8170 Y5.1149 F90.00
G01 X10.8085 Y5.0576 F90.00
G01 X10.8035 Y5.0326 F90.00
G01 X10.7894 Y4.9764 F90.00
G01 X10.7820 Y4.9520 F90.00
G01 X10.7625 Y4.8974 F90.00
G01 X10.7578 Y4.8856 F90.00
G01 X10.7474 Y4.8622 F90.00
G01 X10.7336 Y4.8329 F90.00
G01 X10.7221 Y4.8101 F90.00
G01 X10.7095 Y4.7879 F90.00
G01 X10.6928 Y4.7601 F90.00
G01 X10.6792 Y4.7386 F90.00
G01 X10.6720 Y4.7280 F90.00
G01 X10.6374 Y4.6815 F90.00
G01 X10.6213 Y4.6618 F90.00
G01 X10.6128 Y4.6522 F90.00
G01 X10.5910 Y4.6282 F90.00
G01 X10.5734 Y4.6097 F90.00
G01 X9.1634 Y3.1999 F90.00
G01 X9.1300 Y3.1694 F90.00
G01 X9.1107 Y3.1528 F90.00
G01 X9.0906 Y3.1371 F90.00
G01 X9.0645 Y3.1177 F90.00
G01 X9.0542 Y3.1103 F90.00
G01 X9.0330 Y3.0961 F90.00
G01 X8.9943 Y3.0727 F90.00
G01 X8.9721 Y3.0602 F90.00
G01 X8.9493 Y3.0487 F90.00
G01 X8.9200 Y3.0348 F90.00
G01 X8.9084 Y3.0295 F90.00
G01 X8.8848 Y3.0197 F90.00
G01 X8.8303 Y3.0002 F90.00
G01 X8.8059 Y2.9928 F90.00
G01 X8.7935 Y2.9896 F90.00
G01 X8.7621 Y2.9817 F90.00
G01 X8.7372 Y2.9761 F90.00
G01 X8.7120 Y2.9717 F90.00
G01 X8.6800 Y2.9670 F90.00
G01 X8.6546 Y2.9639 F90.00
G01 X8.6419 Y2.9628 F90.00
G01 X8.5841 Y2.9599 F90.00
G01 X5.8732 Y2.9598 F90.00
G01 X5.8476 Y2.9604 F90.00
G01 X5.8153 Y2.9620 F90.00
G01 X5.7898 Y2.9639 F90.00
G01 X5.7645 Y2.9670 F90.00
G01 X5.7198 Y2.9738 F90.00
G01 X5.7073 Y2.9761 F90.00
G01 X5.6824 Y2.9817 F90.00
G01 X5.6386 Y2.9928 F90.00
G01 X5.6142 Y3.0002 F90.00
G01 X5.5716 Y3.0153 F90.00
G01 X5.5478 Y3.0245 F90.00
G01 X5.5245 Y3.0348 F90.00
G01 X5.4837 Y3.0543 F90.00
G01 X5.4612 Y3.0663 F90.00
G01 X5.4223 Y3.0894 F90.00
G01 X5.4008 Y3.1030 F90.00
G01 X5.3799 Y3.1177 F90.00
G01 X5.3437 Y3.1448 F90.00
G01 X5.3240 Y3.1610 F90.00
G01 X5.2904 Y3.1912 F90.00
G01 X5.2719 Y3.2088 F90.00
G01 X3.8710 Y4.6097 F90.00
G01 X3.8534 Y4.6282 F90.00
G01 X3.8232 Y4.6618 F90.00
G01 X3.8070 Y4.6815 F90.00
G01 X3.7993 Y4.6917 F90.00
G01 X3.7800 Y4.7177 F90.00
G01 X3.7653 Y4.7386 F90.00
G01 X3.7516 Y4.7601 F90.00
G01 X3.7349 Y4.7879 F90.00
G01 X3.7285 Y4.7990 F90.00
G01 X3.7165 Y4.8215 F90.00
G01 X3.6917 Y4.8738 F90.00
G01 X3.6820 Y4.8974 F90.00
G01 X3.6775 Y4.9094 F90.00
G01 X3.6666 Y4.9399 F90.00
G01 X3.6586 Y4.9641 F90.00
G01 X3.6518 Y4.9887 F90.00
G01 X3.6439 Y5.0202 F90.00
G01 X3.6383 Y5.0451 F90.00
G01 X3.6339 Y5.0702 F90.00
G01 X3.6275 Y5.1149 F90.00
G01 X3.6261 Y5.1276 F90.00
G01 X3.6242 Y5.1530 F90.00
G01 X3.6226 Y5.1854 F90.00
G01 X3.6220 Y5.2109 F90.00
G01 X3.6220 Y5.4664 F90.00
G01 X3.5583 Y5.5136 F90.00
G01 X3.5381 Y5.5293 F90.00
G01 X3.5284 Y5.5376 F90.00
G01 X3.4496 Y5.6088 F90.00
G01 X3.4311 Y5.6264 F90.00
G01 X3.4222 Y5.6355 F90.00
G01 X3.3507 Y5.7141 F90.00
G01 X3.3423 Y5.7237 F90.00
G01 X3.3261 Y5.7434 F90.00
G01 X3.2552 Y5.8390 F90.00
G01 X3.2410 Y5.8602 F90.00
G01 X3.2295 Y5.8791 F90.00
G00 Z2.0000
G00 X4.0785 Y5.7312
G01 F60.00
G01 Z-0.0500
G01 F90.00
G01 X4.0785 Y5.2109 F90.00
G01 X4.0805 Y5.1708 F90.00
G01 X4.0860 Y5.1341 F90.00
G01 X4.0946 Y5.0996 F90.00
G01 X4.0964 Y5.0937 F90.00
G01 X4.1084 Y5.0603 F90.00
G01 X4.1235 Y5.0281 F90.00
G01 X4.1265 Y5.0226 F90.00
G01 X4.1448 Y4.9922 F90.00
G01 X4.1659 Y4.9636 F90.00
G01 X4.1699 Y4.9588 F90.00
G01 X4.1938 Y4.9325 F90.00
G01 X5.5970 Y3.5294 F90.00
G01 X5.6234 Y3.5056 F90.00
G01 X5.6544 Y3.4826 F90.00
G01 X5.6875 Y3.4627 F90.00
G01 X5.7196 Y3.4475 F90.00
G01 X5.7254 Y3.4451 F90.00
G01 X5.7559 Y3.4342 F90.00
G01 X5.7618 Y3.4324 F90.00
G01 X5.7963 Y3.4238 F90.00
G01 X5.8361 Y3.4180 F90.00
G01 X5.8732 Y3.4162 F90.00
G01 X8.5728 Y3.4163 F90.00
G01 X8.6068 Y3.4179 F90.00
G01 X8.6130 Y3.4185 F90.00
G01 X8.6481 Y3.4238 F90.00
G01 X8.6826 Y3.4324 F90.00
G01 X8.6886 Y3.4342 F90.00
G01 X8.7220 Y3.4462 F90.00
G01 X8.7583 Y3.4635 F90.00
G01 X8.7901 Y3.4826 F90.00
G01 X8.8186 Y3.5037 F90.00
G01 X8.8235 Y3.5076 F90.00
G01 X8.8497 Y3.5316 F90.00
G01 X10.2507 Y4.9325 F90.00
G01 X10.2776 Y4.9624 F90.00
G01 X10.2996 Y4.9922 F90.00
G01 X10.3180 Y5.0226 F90.00
G01 X10.3209 Y5.0281 F90.00
G01 X10.3360 Y5.0603 F90.00
G01 X10.3481 Y5.0937 F90.00
G01 X10.3499 Y5.0996 F90.00
G01 X10.3584 Y5.1341 F90.00
G01 X10.3639 Y5.1708 F90.00
G01 X10.3660 Y5.2109 F90.00
G01 X10.3660 Y5.7312 F90.00
G01 X10.4511 Y5.7716 F90.00
G01 X10.5366 Y5.8228 F90.00
G01 X10.6167 Y5.8822 F90.00
G01 X10.6906 Y5.9492 F90.00
G01 X10.7575 Y6.0230 F90.00
G01 X10.8169 Y6.1031 F90.00
G01 X10.8682 Y6.1886 F90.00
G01 X10.9085 Y6.2737 F90.00
G01 X15.9491 Y6.2737 F90.00
G01 X19.0099 Y3.2130 F90.00
G01 X19.0374 Y3.1881 F90.00
G01 X19.0659 Y3.1669 F90.00
G01 X19.0711 Y3.1634 F90.00
G01 X19.0989 Y3.1468 F90.00
G01 X19.1044 Y3.1438 F90.00
G01 X19.1365 Y3.1287 F90.00
G01 X19.1729 Y3.1157 F90.00
G01 X19.2104 Y3.1063 F90.00
G01 X19.2471 Y3.1008 F90.00
G01 X19.2872 Y3.0987 F90.00
G01 X37.1935 Y3.0987 F90.00
G01 X37.2284 Y3.0406 F90.00
G01 X37.2740 Y2.9789 F90.00
G01 X37.2780 Y2.9741 F90.00
G01 X37.3274 Y2.9196 F90.00
G01 X37.3318 Y2.9152 F90.00
G01 X37.3887 Y2.8637 F90.00
G01 X37.4503 Y2.8180 F90.00
G01 X37.4555 Y2.8145 F90.00
G01 X37.5213 Y2.7751 F90.00
G01 X37.5935 Y2.7410 F90.00
G01 X37.6686 Y2.7141 F90.00
G01 X37.7460 Y2.6947 F90.00
G01 X37.8250 Y2.6830 F90.00
G01 X37.9047 Y2.6791 F90.00
G01 X39.4063 Y2.6791 F90.00
G01 X39.4844 Y2.6830 F90.00
G01 X39.5634 Y2.6947 F90.00
G01 X39.6408 Y2.7141 F90.00
G01 X39.7160 Y2.7410 F90.00
G01 X39.7882 Y2.7751 F90.00
G01 X39.8566 Y2.8162 F90.00
G01 X39.9207 Y2.8637 F90.00
G01 X39.9776 Y2.9152 F90.00
G01 X39.9820 Y2.9196 F90.00
G01 X40.0315 Y2.9741 F90.00
G01 X40.0354 Y2.9789 F90.00
G01 X40.0810 Y3.0406 F90.00
G01 X40.1205 Y3.1064 F90.00
G01 X40.1235 Y3.1118 F90.00
G01 X40.1562 Y3.1812 F90.00
G01 X40.1831 Y3.2564 F90.00
G01 X40.2025 Y3.3338 F90.00
G01 X40.2143 Y3.4143 F90.00
G01 X40.2181 Y3.4925 F90.00
G01 X40.2142 Y3.5722 F90.00
G01 X40.2025 Y3.6512 F90.00
G01 X40.1831 Y3.7286 F90.00
G01 X40.1562 Y3.8038 F90.00
G01 X40.1221 Y3.8759 F90.00
G01 X40.0810 Y3.9444 F90.00
G01 X40.0335 Y4.0085 F90.00
G01 X39.9799 Y4.0677 F90.00
G01 X39.9207 Y4.1213 F90.00
G01 X39.8566 Y4.1688 F90.00
G01 X39.7882 Y4.2099 F90.00
G01 X39.7160 Y4.2440 F90.00
G01 X39.6408 Y4.2709 F90.00
G01 X39.5634 Y4.2903 F90.00
G01 X39.4875 Y4.3016 F90.00
G01 X39.4813 Y4.3022 F90.00
G01 X39.4047 Y4.3059 F90.00
G01 X37.9047 Y4.3059 F90.00
G01 X37.8250 Y4.3020 F90.00
G01 X37.7476 Y4.2906 F90.00
G01 X37.6686 Y4.2709 F90.00
G01 X37.5935 Y4.2440 F90.00
G01 X37.5213 Y4.2099 F90.00
G01 X37.4555 Y4.1705 F90.00
G01 X37.4503 Y4.1670 F90.00
G01 X37.3887 Y4.1213 F90.00
G01 X37.3318 Y4.0698 F90.00
G01 X37.3274 Y4.0654 F90.00
G01 X37.2780 Y4.0109 F90.00
G01 X37.2740 Y4.0061 F90.00
G01 X37.2284 Y3.9444 F90.00
G01 X37.1935 Y3.8863 F90.00
G01 X31.7460 Y3.8863 F90.00
G01 X31.7460 Y5.7460 F90.00
G01 X31.7573 Y5.7566 F90.00
G01 X31.7949 Y5.7982 F90.00
G01 X31.8273 Y5.8420 F90.00
G01 X31.8569 Y5.8915 F90.00
G01 X31.8801 Y5.9408 F90.00
G01 X31.8990 Y5.9936 F90.00
G01 X31.9126 Y6.0480 F90.00
G01 X31.9207 Y6.1019 F90.00
G01 X31.9236 Y6.1595 F90.00
G01 X31.9236 Y7.1755 F90.00
G01 X31.9209 Y7.2315 F90.00
G01 X31.9126 Y7.2870 F90.00
G01 X31.8990 Y7.3414 F90.00
G01 X31.8801 Y7.3942 F90.00
G01 X31.8575 Y7.4421 F90.00
G01 X31.8546 Y7.4476 F90.00
G01 X31.8290 Y7.4903 F90.00
G01 X31.8255 Y7.4955 F90.00
G01 X31.7939 Y7.5380 F90.00
G01 X31.7563 Y7.5795 F90.00
G01 X31.7147 Y7.6172 F90.00
G01 X31.6697 Y7.6506 F90.00
G01 X31.6216 Y7.6794 F90.00
G01 X31.5737 Y7.7021 F90.00
G01 X31.5680 Y7.7045 F90.00
G01 X31.5210 Y7.7213 F90.00
G01 X31.5151 Y7.7231 F90.00
G01 X31.4637 Y7.7359 F90.00
G01 X31.4067 Y7.7443 F90.00
G01 X31.3522 Y7.7469 F90.00
G01 X31.2962 Y7.7441 F90.00
G01 X31.2407 Y7.7359 F90.00
G01 X31.1864 Y7.7223 F90.00
G01 X31.1336 Y7.7034 F90.00
G01 X31.0829 Y7.6794 F90.00
G01 X31.0348 Y7.6506 F90.00
G01 X30.9897 Y7.6172 F90.00
G01 X30.9482 Y7.5795 F90.00
G01 X30.9105 Y7.5380 F90.00
G01 X30.8771 Y7.4930 F90.00
G01 X30.8483 Y7.4449 F90.00
G01 X30.8243 Y7.3942 F90.00
G01 X30.8054 Y7.3414 F90.00
G01 X30.7918 Y7.2870 F90.00
G01 X30.7837 Y7.2331 F90.00
G01 X30.7808 Y7.1755 F90.00
G01 X30.7808 Y6.1595 F90.00
G01 X30.7837 Y6.1019 F90.00
G01 X30.7918 Y6.0480 F90.00
G01 X30.8054 Y5.9936 F90.00
G01 X30.8243 Y5.9408 F90.00
G01 X30.8476 Y5.8915 F90.00
G01 X30.8771 Y5.8420 F90.00
G01 X30.9096 Y5.7982 F90.00
G01 X30.9471 Y5.7566 F90.00
G01 X30.9585 Y5.7460 F90.00
G01 X30.9585 Y3.8863 F90.00
G01 X19.4503 Y3.8863 F90.00
G01 X16.3907 Y6.9459 F90.00
G01 X16.3620 Y6.9719 F90.00
G01 X16.3310 Y6.9949 F90.00
G01 X16.2978 Y7.0148 F90.00
G01 X16.2629 Y7.0313 F90.00
G01 X16.2265 Y7.0443 F90.00
G01 X16.1890 Y7.0537 F90.00
G01 X16.1508 Y7.0594 F90.00
G01 X16.1122 Y7.0613 F90.00
G01 X10.9085 Y7.0613 F90.00
G01 X10.8682 Y7.1464 F90.00
G01 X10.8186 Y7.2293 F90.00
G01 X10.8151 Y7.2344 F90.00
G01 X10.7575 Y7.3120 F90.00
G01 X10.6927 Y7.3836 F90.00
G01 X10.6883 Y7.3880 F90.00
G01 X10.6167 Y7.4528 F90.00
G01 X10.5392 Y7.5104 F90.00
G01 X10.5340 Y7.5139 F90.00
G01 X10.4511 Y7.5634 F90.00
G01 X10.3638 Y7.6048 F90.00
G01 X10.3581 Y7.6072 F90.00
G01 X10.2671 Y7.6397 F90.00
G01 X10.1735 Y7.6632 F90.00
G01 X10.1674 Y7.6644 F90.00
G01 X10.0703 Y7.6786 F90.00
G01 X9.9722 Y7.6834 F90.00
G01 X9.8758 Y7.6787 F90.00
G01 X9.8696 Y7.6781 F90.00
G01 X9.7740 Y7.6639 F90.00
G01 X9.6803 Y7.6405 F90.00
G01 X9.6744 Y7.6387 F90.00
G01 X9.5835 Y7.6061 F90.00
G01 X9.4933 Y7.5634 F90.00
G01 X9.4105 Y7.5139 F90.00
G01 X9.4053 Y7.5104 F90.00
G01 X9.3278 Y7.4528 F90.00
G01 X9.2539 Y7.3858 F90.00
G01 X9.1869 Y7.3120 F90.00
G01 X9.1293 Y7.2344 F90.00
G01 X9.1259 Y7.2293 F90.00
G01 X9.0778 Y7.1491 F90.00
G01 X9.0749 Y7.1436 F90.00
G01 X9.0337 Y7.0563 F90.00
G01 X9.0001 Y6.9624 F90.00
G01 X8.9759 Y6.8657 F90.00
G01 X8.9612 Y6.7671 F90.00
G01 X8.9563 Y6.6675 F90.00
G01 X8.9612 Y6.5679 F90.00
G01 X8.9759 Y6.4693 F90.00
G01 X8.9996 Y6.3741 F90.00
G01 X9.0337 Y6.2787 F90.00
G01 X9.0763 Y6.1886 F90.00
G01 X9.1275 Y6.1031 F90.00
G01 X9.1850 Y6.0255 F90.00
G01 X9.1890 Y6.0207 F90.00
G01 X9.2539 Y5.9492 F90.00
G01 X9.3254 Y5.8842 F90.00
G01 X9.3302 Y5.8803 F90.00
G01 X9.4053 Y5.8246 F90.00
G01 X9.4105 Y5.8211 F90.00
G01 X9.4933 Y5.7716 F90.00
G01 X9.5785 Y5.7312 F90.00
G01 X9.5785 Y5.3740 F90.00
G01 X8.4082 Y4.2038 F90.00
G01 X6.0363 Y4.2038 F90.00
G01 X4.8660 Y5.3740 F90.00
G01 X4.8660 Y5.7312 F90.00
G01 X4.9511 Y5.7716 F90.00
G01 X5.0340 Y5.8211 F90.00
G01 X5.0392 Y5.8246 F90.00
G01 X5.1167 Y5.8822 F90.00
G01 X5.1883 Y5.9470 F90.00
G01 X5.1927 Y5.9514 F90.00
G01 X5.2575 Y6.0230 F90.00
G01 X5.3169 Y6.1031 F90.00
G01 X5.3666 Y6.1859 F90.00
G01 X5.3696 Y6.1914 F90.00
G01 X5.4108 Y6.2787 F90.00
G01 X5.4444 Y6.3726 F90.00
G01 X5.4686 Y6.4693 F90.00
G01 X5.4828 Y6.5648 F90.00
G01 X5.4835 Y6.5710 F90.00
G01 X5.4880 Y6.6644 F90.00
G01 X5.4880 Y6.6706 F90.00
G01 X5.4832 Y6.7671 F90.00
G01 X5.4691 Y6.8626 F90.00
G01 X5.4679 Y6.8687 F90.00
G01 X5.4444 Y6.9624 F90.00
G01 X5.4108 Y7.0563 F90.00
G01 X5.3696 Y7.1436 F90.00
G01 X5.3666 Y7.1491 F90.00
G01 X5.3186 Y7.2293 F90.00
G01 X5.3151 Y7.2344 F90.00
G01 X5.2575 Y7.3120 F90.00
G01 X5.1906 Y7.3858 F90.00
G01 X5.1167 Y7.4528 F90.00
G01 X5.0392 Y7.5104 F90.00
G01 X5.0340 Y7.5139 F90.00
G01 X4.9538 Y7.5619 F90.00
G01 X4.9483 Y7.5648 F90.00
G01 X4.8610 Y7.6061 F90.00
G01 X4.7701 Y7.6387 F90.00
G01 X4.7641 Y7.6405 F90.00
G01 X4.6704 Y7.6639 F90.00
G01 X4.5718 Y7.6785 F90.00
G01 X4.4722 Y7.6834 F90.00
G01 X4.3757 Y7.6787 F90.00
G01 X4.3696 Y7.6781 F90.00
G01 X4.2740 Y7.6639 F90.00
G01 X4.1803 Y7.6405 F90.00
G01 X4.1744 Y7.6387 F90.00
G01 X4.0864 Y7.6072 F90.00
G01 X4.0806 Y7.6048 F90.00
G01 X3.9933 Y7.5634 F90.00
G01 X3.9078 Y7.5122 F90.00
G01 X3.8277 Y7.4528 F90.00
G01 X3.7539 Y7.3858 F90.00
G01 X3.6869 Y7.3120 F90.00
G01 X3.6275 Y7.2319 F90.00
G01 X3.5763 Y7.1464 F90.00
G01 X3.5349 Y7.0591 F90.00
G01 X3.5325 Y7.0534 F90.00
G01 X3.5001 Y6.9624 F90.00
G01 X3.4758 Y6.8657 F90.00
G01 X3.4612 Y6.7671 F90.00
G01 X3.4563 Y6.6675 F90.00
G01 X3.4612 Y6.5679 F90.00
G01 X3.4758 Y6.4693 F90.00
G01 X3.5001 Y6.3726 F90.00
G01 X3.5336 Y6.2787 F90.00
G01 X3.5763 Y6.1886 F90.00
G01 X3.6275 Y6.1031 F90.00
G01 X3.6869 Y6.0230 F90.00
G01 X3.7539 Y5.9492 F90.00
G01 X3.8277 Y5.8822 F90.00
G01 X3.9078 Y5.8228 F90.00
G01 X3.9933 Y5.7716 F90.00
G01 X4.0785 Y5.7312 F90.00
G00 Z2.0000
G00 X3.5359 Y8.8137
G01 F60.00
G01 Z-0.0500
G01 F90.00
G01 X3.5763 Y8.7286 F90.00
G01 X3.6275 Y8.6431 F90.00
G01 X3.6869 Y8.5630 F90.00
G01 X3.7539 Y8.4892 F90.00
G01 X3.8277 Y8.4222 F90.00
G01 X3.9078 Y8.3628 F90.00
G01 X3.9933 Y8.3116 F90.00
G01 X4.0834 Y8.2689 F90.00
G01 X4.1773 Y8.2353 F90.00
G01 X4.2740 Y8.2111 F90.00
G01 X4.3726 Y8.1965 F90.00
G01 X4.4722 Y8.1916 F90.00
G01 X4.5718 Y8.1965 F90.00
G01 X4.6704 Y8.2111 F90.00
G01 X4.7671 Y8.2353 F90.00
G01 X4.8610 Y8.2689 F90.00
G01 X4.9511 Y8.3116 F90.00
G01 X5.0366 Y8.3628 F90.00
G01 X5.1167 Y8.4222 F90.00
G01 X5.1906 Y8.4892 F90.00
G01 X5.2575 Y8.5630 F90.00
G01 X5.3169 Y8.6431 F90.00
G01 X5.3682 Y8.7286 F90.00
G01 X5.4108 Y8.8187 F90.00
G01 X5.4444 Y8.9126 F90.00
G01 X5.4686 Y9.0093 F90.00
G01 X5.4832 Y9.1079 F90.00
G01 X5.4881 Y9.2075 F90.00
G01 X5.4832 Y9.3071 F90.00
G01 X5.4686 Y9.4057 F90.00
G01 X5.4444 Y9.5024 F90.00
G01 X5.4108 Y9.5963 F90.00
G01 X5.3682 Y9.6864 F90.00
G01 X5.3186 Y9.7693 F90.00
G01 X5.3151 Y9.7744 F90.00
G01 X5.2575 Y9.8520 F90.00
G01 X5.1927 Y9.9236 F90.00
G01 X5.1883 Y9.9280 F90.00
G01 X5.1167 Y9.9928 F90.00
G01 X5.0366 Y10.0522 F90.00
G01 X4.9511 Y10.1034 F90.00
G01 X4.8638 Y10.1448 F90.00
G01 X4.8581 Y10.1472 F90.00
G01 X4.7671 Y10.1797 F90.00
G01 X4.6704 Y10.2039 F90.00
G01 X4.5749 Y10.2181 F90.00
G01 X4.5687 Y10.2187 F90.00
G01 X4.4707 Y10.2234 F90.00
G01 X4.3726 Y10.2185 F90.00
G01 X4.2771 Y10.2044 F90.00
G01 X4.2710 Y10.2032 F90.00
G01 X4.1773 Y10.1797 F90.00
G01 X4.0864 Y10.1472 F90.00
G01 X4.0806 Y10.1448 F90.00
G01 X3.9933 Y10.1034 F90.00
G01 X3.9078 Y10.0522 F90.00
G01 X3.8277 Y9.9928 F90.00
G01 X3.7561 Y9.9280 F90.00
G01 X3.7517 Y9.9236 F90.00
G01 X3.6869 Y9.8520 F90.00
G01 X3.6293 Y9.7744 F90.00
G01 X3.6259 Y9.7693 F90.00
G01 X3.5763 Y9.6864 F90.00
G01 X3.5359 Y9.6013 F90.00
G01 X2.7015 Y9.6013 F90.00
G01 X2.6860 Y9.6215 F90.00
G01 X2.6787 Y9.6291 F90.00
G01 X2.6222 Y9.6726 F90.00
G01 X2.6132 Y9.6781 F90.00
G01 X2.5488 Y9.7050 F90.00
G01 X2.5402 Y9.7079 F90.00
G01 X2.5328 Y9.7093 F90.00
G01 X2.4632 Y9.7183 F90.00
G01 X1.1865 Y9.7184 F90.00
G01 X1.1154 Y9.7092 F90.00
G01 X1.1080 Y9.7076 F90.00
G01 X1.1009 Y9.7051 F90.00
G01 X1.0406 Y9.6801 F90.00
G01 X1.0338 Y9.6768 F90.00
G01 X1.0262 Y9.6719 F90.00
G01 X0.9745 Y9.6321 F90.00
G01 X0.9688 Y9.6272 F90.00
G01 X0.9637 Y9.6216 F90.00
G01 X0.9230 Y9.5687 F90.00
G01 X0.9188 Y9.5624 F90.00
G01 X0.9147 Y9.5543 F90.00
G01 X0.8898 Y9.4940 F90.00
G01 X0.8869 Y9.4855 F90.00
G01 X0.8855 Y9.4781 F90.00
G01 X0.8770 Y9.4133 F90.00
G01 X0.8764 Y9.4051 F90.00
G01 X0.8764 Y8.7734 F90.00
G01 X0.8769 Y8.7668 F90.00
G01 X0.8854 Y8.7021 F90.00
G01 X0.8865 Y8.6962 F90.00
G01 X0.8897 Y8.6861 F90.00
G01 X0.9147 Y8.6258 F90.00
G01 X0.9180 Y8.6190 F90.00
G01 X0.9230 Y8.6115 F90.00
G01 X0.9627 Y8.5597 F90.00
G01 X0.9676 Y8.5540 F90.00
G01 X0.9744 Y8.5480 F90.00
G01 X1.0262 Y8.5083 F90.00
G01 X1.0337 Y8.5033 F90.00
G01 X1.0405 Y8.5000 F90.00
G01 X1.1008 Y8.4750 F90.00
G01 X1.1094 Y8.4721 F90.00
G01 X1.1168 Y8.4707 F90.00
G01 X1.1815 Y8.4622 F90.00
G01 X1.1897 Y8.4617 F90.00
G01 X2.4597 Y8.4616 F90.00
G01 X2.4680 Y8.4621 F90.00
G01 X2.5327 Y8.4706 F90.00
G01 X2.5401 Y8.4720 F90.00
G01 X2.5487 Y8.4749 F90.00
G01 X2.6104 Y8.5004 F90.00
G01 X2.6158 Y8.5032 F90.00
G01 X2.6222 Y8.5072 F90.00
G01 X2.6751 Y8.5479 F90.00
G01 X2.6819 Y8.5539 F90.00
G01 X2.6868 Y8.5596 F90.00
G01 X2.7284 Y8.6138 F90.00
G01 X2.7316 Y8.6189 F90.00
G01 X2.7349 Y8.6257 F90.00
G01 X2.7598 Y8.6860 F90.00
G01 X2.7630 Y8.6960 F90.00
G01 X2.7641 Y8.7019 F90.00
G01 X2.7730 Y8.7700 F90.00
G01 X2.7732 Y8.8137 F90.00
G01 X3.5359 Y8.8137 F90.00
G00 Z2.0000
G00 X2.7534 Y9.7154
G01 F60.00
G01 Z-0.0500
G01 F90.00
G01 X2.7447 Y9.7225 F90.00
G01 X2.6929 Y9.7623 F90.00
G01 X2.6826 Y9.7696 F90.00
G01 X2.6754 Y9.7741 F90.00
G01 X2.6681 Y9.7782 F90.00
G01 X2.6567 Y9.7838 F90.00
G01 X2.5925 Y9.8104 F90.00
G01 X2.5766 Y9.8162 F90.00
G01 X2.5643 Y9.8194 F90.00
G01 X2.5561 Y9.8211 F90.00
G01 X2.4830 Y9.8309 F90.00
G01 X2.4645 Y9.8324 F90.00
G01 X1.1852 Y9.8325 F90.00
G01 X1.1667 Y9.8311 F90.00
G01 X1.1020 Y9.8225 F90.00
G01 X1.0895 Y9.8204 F90.00
G01 X1.0772 Y9.8175 F90.00
G01 X1.0611 Y9.8121 F90.00
G01 X0.9969 Y9.7856 F90.00
G01 X0.9854 Y9.7803 F90.00
G01 X0.9743 Y9.7742 F90.00
G01 X0.9601 Y9.7649 F90.00
G01 X0.9050 Y9.7227 F90.00
G01 X0.8952 Y9.7146 F90.00
G01 X0.8861 Y9.7059 F90.00
G01 X0.8749 Y9.6932 F90.00
G01 X0.8325 Y9.6381 F90.00
G01 X0.8275 Y9.6313 F90.00
G01 X0.8207 Y9.6206 F90.00
G01 X0.8146 Y9.6095 F90.00
G01 X0.8093 Y9.5980 F90.00
G01 X0.7843 Y9.5377 F90.00
G01 X0.7786 Y9.5218 F90.00
G01 X0.7754 Y9.5096 F90.00
G01 X0.7730 Y9.4972 F90.00
G01 X0.7638 Y9.4283 F90.00
G01 X0.7625 Y9.4144 F90.00
G01 X0.7623 Y9.4051 F90.00
G01 X0.7625 Y8.7658 F90.00
G01 X0.7638 Y8.7519 F90.00
G01 X0.7729 Y8.6830 F90.00
G01 X0.7753 Y8.6706 F90.00
G01 X0.7774 Y8.6624 F90.00
G01 X0.7827 Y8.6464 F90.00
G01 X0.8093 Y8.5822 F90.00
G01 X0.8145 Y8.5706 F90.00
G01 X0.8206 Y8.5595 F90.00
G01 X0.8299 Y8.5454 F90.00
G01 X0.8721 Y8.4902 F90.00
G01 X0.8774 Y8.4837 F90.00
G01 X0.8860 Y8.4743 F90.00
G01 X0.8951 Y8.4655 F90.00
G01 X0.9049 Y8.4575 F90.00
G01 X0.9601 Y8.4152 F90.00
G01 X0.9742 Y8.4059 F90.00
G01 X0.9853 Y8.3998 F90.00
G01 X0.9968 Y8.3946 F90.00
G01 X1.0571 Y8.3696 F90.00
G01 X1.0730 Y8.3638 F90.00
G01 X1.0853 Y8.3606 F90.00
G01 X1.0977 Y8.3582 F90.00
G01 X1.1666 Y8.3491 F90.00
G01 X1.1758 Y8.3481 F90.00
G01 X1.1897 Y8.3475 F90.00
G01 X2.4690 Y8.3477 F90.00
G01 X2.4829 Y8.3489 F90.00
G01 X2.5560 Y8.3588 F90.00
G01 X2.5724 Y8.3625 F90.00
G01 X2.5845 Y8.3664 F90.00
G01 X2.5924 Y8.3694 F90.00
G01 X2.6566 Y8.3961 F90.00
G01 X2.6642 Y8.3997 F90.00
G01 X2.6753 Y8.4058 F90.00
G01 X2.6860 Y8.4126 F90.00
G01 X2.6928 Y8.4176 F90.00
G01 X2.7512 Y8.4626 F90.00
G01 X2.7635 Y8.4741 F90.00
G01 X2.7747 Y8.4868 F90.00
G01 X2.8196 Y8.5452 F90.00
G01 X2.8267 Y8.5557 F90.00
G01 X2.8331 Y8.5667 F90.00
G01 X2.8403 Y8.5820 F90.00
G01 X2.8653 Y8.6423 F90.00
G01 X2.8697 Y8.6541 F90.00
G01 X2.8722 Y8.6622 F90.00
G01 X2.8751 Y8.6745 F90.00
G01 X2.8766 Y8.6828 F90.00
G01 X2.8789 Y8.6996 F90.00
G01 X3.4637 Y8.6996 F90.00
G01 X3.4736 Y8.6787 F90.00
G01 X3.4777 Y8.6710 F90.00
G01 X3.5280 Y8.5871 F90.00
G01 X3.5351 Y8.5761 F90.00
G01 X3.5987 Y8.4906 F90.00
G01 X3.6701 Y8.4116 F90.00
G01 X3.6795 Y8.4024 F90.00
G01 X3.7487 Y8.3397 F90.00
G01 X3.7622 Y8.3286 F90.00
G01 X3.8444 Y8.2679 F90.00
G01 X3.9357 Y8.2130 F90.00
G01 X3.9473 Y8.2070 F90.00
G01 X4.0318 Y8.1670 F90.00
G01 X4.0479 Y8.1604 F90.00
G01 X4.1442 Y8.1261 F90.00
G01 X4.2518 Y8.0992 F90.00
G01 X4.3528 Y8.0840 F90.00
G01 X4.3701 Y8.0823 F90.00
G01 X4.4722 Y8.0775 F90.00
G01 X4.5786 Y8.0826 F90.00
G01 X4.5916 Y8.0840 F90.00
G01 X4.6841 Y8.0977 F90.00
G01 X4.7012 Y8.1011 F90.00
G01 X4.8002 Y8.1261 F90.00
G01 X4.9047 Y8.1635 F90.00
G01 X4.9971 Y8.2070 F90.00
G01 X5.0125 Y8.2152 F90.00
G01 X5.1000 Y8.2679 F90.00
G01 X5.1891 Y8.3340 F90.00
G01 X5.2649 Y8.4024 F90.00
G01 X5.2773 Y8.4148 F90.00
G01 X5.3457 Y8.4906 F90.00
G01 X5.4118 Y8.5797 F90.00
G01 X5.4688 Y8.6748 F90.00
G01 X5.5127 Y8.7671 F90.00
G01 X5.5194 Y8.7832 F90.00
G01 X5.5536 Y8.8795 F90.00
G01 X5.5805 Y8.9870 F90.00
G01 X5.5968 Y9.0967 F90.00
G01 X5.6022 Y9.2075 F90.00
G01 X5.5968 Y9.3183 F90.00
G01 X5.5805 Y9.4280 F90.00
G01 X5.5536 Y9.5355 F90.00
G01 X5.5162 Y9.6399 F90.00
G01 X5.4688 Y9.7402 F90.00
G01 X5.4118 Y9.8353 F90.00
G01 X5.3457 Y9.9244 F90.00
G01 X5.2713 Y10.0065 F90.00
G01 X5.1891 Y10.0810 F90.00
G01 X5.1000 Y10.1471 F90.00
G01 X5.0049 Y10.2041 F90.00
G01 X4.9047 Y10.2515 F90.00
G01 X4.8002 Y10.2889 F90.00
G01 X4.6927 Y10.3158 F90.00
G01 X4.5830 Y10.3321 F90.00
G01 X4.4722 Y10.3375 F90.00
G01 X4.3701 Y10.3327 F90.00
G01 X4.3528 Y10.3310 F90.00
G01 X4.2603 Y10.3173 F90.00
G01 X4.2433 Y10.3139 F90.00
G01 X4.1442 Y10.2889 F90.00
G01 X4.0479 Y10.2546 F90.00
G01 X4.0358 Y10.2498 F90.00
G01 X3.9395 Y10.2041 F90.00
G01 X3.8444 Y10.1471 F90.00
G01 X3.7553 Y10.0810 F90.00
G01 X3.6763 Y10.0096 F90.00
G01 X3.6672 Y10.0002 F90.00
G01 X3.5987 Y9.9244 F90.00
