(G-CODE GENERATED BY FLATCAM v8.994 - www.flatcam.org - Version Date: 2020/11/7)

(Name: Board.gbr_cutout_cnc)
(Type: G-code from Geometry)
(Units: MM)

(Created on Wednesday, 24 November 2021 at 13:48)

(This preprocessor is used with a motion controller loaded with GRBL firmware.)
(It is configured to be compatible with almost any version of GRBL firmware.)

(TOOL DIAMETER: 1.5 mm)
(Feedrate_XY: 120.0 mm/min)
(Feedrate_Z: 60.0 mm/min)
(Feedrate rapids 1500.0 mm/min)

(Z_Cut: -1.8 mm)
(DepthPerCut: 0.6 mm <=>3 passes)
(Z_Move: 2.0 mm)
(Z Start: None mm)
(Z End: 15.0 mm)
(X,Y End: 0.0000, 0.0000 mm)
(Steps per circle: 64)
(Steps per circle: 64)
(Preprocessor Geometry: GRBL_11_no_M6)

(X range:   -0.8500 ...   44.0300  mm)
(Y range:   -0.8500 ...   16.0900  mm)

(Spindle Speed: 10000.0 RPM)
G21
G90
G17
G94


G01 F120.00

M5             
G00 Z15.0000
G00 X0.0000 Y0.0000                
T1
(MSG, Change to Tool Dia = 1.5000)
M0
G00 Z15.0000
        
M03 S10000.0
G01 F120.00
G00 X-0.8500 Y15.2400
G01 F60.00
G01 Z-0.6000
G01 F120.00
G01 X-0.8459 Y15.3233 F120.00
G01 X-0.8337 Y15.4058 F120.00
G01 X-0.8134 Y15.4867 F120.00
G01 X-0.7853 Y15.5653 F120.00
G01 X-0.7496 Y15.6407 F120.00
G01 X-0.7067 Y15.7122 F120.00
G01 X-0.6571 Y15.7792 F120.00
G01 X-0.6010 Y15.8410 F120.00
G01 X-0.5392 Y15.8971 F120.00
G01 X-0.4722 Y15.9467 F120.00
G01 X-0.4007 Y15.9896 F120.00
G01 X-0.3253 Y16.0253 F120.00
G01 X-0.2467 Y16.0534 F120.00
G01 X-0.1658 Y16.0737 F120.00
G01 X-0.0833 Y16.0859 F120.00
G01 X0.0000 Y16.0900 F120.00
G01 X43.1800 Y16.0900 F120.00
G01 X43.2633 Y16.0859 F120.00
G01 X43.3458 Y16.0737 F120.00
G01 X43.4267 Y16.0534 F120.00
G01 X43.5053 Y16.0253 F120.00
G01 X43.5807 Y15.9896 F120.00
G01 X43.6522 Y15.9467 F120.00
G01 X43.7192 Y15.8971 F120.00
G01 X43.7810 Y15.8410 F120.00
G01 X43.8371 Y15.7792 F120.00
G01 X43.8867 Y15.7122 F120.00
G01 X43.9296 Y15.6407 F120.00
G01 X43.9653 Y15.5653 F120.00
G01 X43.9934 Y15.4867 F120.00
G01 X44.0137 Y15.4058 F120.00
G01 X44.0259 Y15.3233 F120.00
G01 X44.0300 Y15.2400 F120.00
G01 X44.0300 Y0.0000 F120.00
G01 X44.0259 Y-0.0833 F120.00
G01 X44.0137 Y-0.1658 F120.00
G01 X43.9934 Y-0.2467 F120.00
G01 X43.9653 Y-0.3253 F120.00
G01 X43.9296 Y-0.4007 F120.00
G01 X43.8867 Y-0.4722 F120.00
G01 X43.8371 Y-0.5392 F120.00
G01 X43.7810 Y-0.6010 F120.00
G01 X43.7192 Y-0.6571 F120.00
G01 X43.6522 Y-0.7067 F120.00
G01 X43.5807 Y-0.7496 F120.00
G01 X43.5053 Y-0.7853 F120.00
G01 X43.4267 Y-0.8134 F120.00
G01 X43.3458 Y-0.8337 F120.00
G01 X43.2633 Y-0.8459 F120.00
G01 X43.1800 Y-0.8500 F120.00
G01 X0.0000 Y-0.8500 F120.00
G01 X-0.0833 Y-0.8459 F120.00
G01 X-0.1658 Y-0.8337 F120.00
G01 X-0.2467 Y-0.8134 F120.00
G01 X-0.3253 Y-0.7853 F120.00
G01 X-0.4007 Y-0.7496 F120.00
G01 X-0.4722 Y-0.7067 F120.00
G01 X-0.5392 Y-0.6571 F120.00
G01 X-0.6010 Y-0.6010 F120.00
G01 X-0.6571 Y-0.5392 F120.00
G01 X-0.7067 Y-0.4722 F120.00
G01 X-0.7496 Y-0.4007 F120.00
G01 X-0.7853 Y-0.3253 F120.00
G01 X-0.8134 Y-0.2467 F120.00
G01 X-0.8337 Y-0.1658 F120.00
G01 X-0.8459 Y-0.0833 F120.00
G01 X-0.8500 Y0.0000 F120.00
G01 X-0.8500 Y15.2400 F120.00
G00 X-0.8500 Y15.2400
G01 F60.00
G01 Z-1.2000
G01 F120.00
G01 X-0.8500 Y0.0000 F120.00
G01 X-0.8459 Y-0.0833 F120.00
G01 X-0.8337 Y-0.1658 F120.00
G01 X-0.8134 Y-0.2467 F120.00
G01 X-0.7853 Y-0.3253 F120.00
G01 X-0.7496 Y-0.4007 F120.00
G01 X-0.7067 Y-0.4722 F120.00
G01 X-0.6571 Y-0.5392 F120.00
G01 X-0.6010 Y-0.6010 F120.00
G01 X-0.5392 Y-0.6571 F120.00
G01 X-0.4722 Y-0.7067 F120.00
G01 X-0.4007 Y-0.7496 F120.00
G01 X-0.3253 Y-0.7853 F120.00
G01 X-0.2467 Y-0.8134 F120.00
G01 X-0.1658 Y-0.8337 F120.00
G01 X-0.0833 Y-0.8459 F120.00
G01 X0.0000 Y-0.8500 F120.00
G01 X43.1800 Y-0.8500 F120.00
G01 X43.2633 Y-0.8459 F120.00
G01 X43.3458 Y-0.8337 F120.00
G01 X43.4267 Y-0.8134 F120.00
G01 X43.5053 Y-0.7853 F120.00
G01 X43.5807 Y-0.7496 F120.00
G01 X43.6522 Y-0.7067 F120.00
G01 X43.7192 Y-0.6571 F120.00
G01 X43.7810 Y-0.6010 F120.00
G01 X43.8371 Y-0.5392 F120.00
G01 X43.8867 Y-0.4722 F120.00
G01 X43.9296 Y-0.4007 F120.00
G01 X43.9653 Y-0.3253 F120.00
G01 X43.9934 Y-0.2467 F120.00
G01 X44.0137 Y-0.1658 F120.00
G01 X44.0259 Y-0.0833 F120.00
G01 X44.0300 Y0.0000 F120.00
G01 X44.0300 Y15.2400 F120.00
G01 X44.0259 Y15.3233 F120.00
G01 X44.0137 Y15.4058 F120.00
G01 X43.9934 Y15.4867 F120.00
G01 X43.9653 Y15.5653 F120.00
G01 X43.9296 Y15.6407 F120.00
G01 X43.8867 Y15.7122 F120.00
G01 X43.8371 Y15.7792 F120.00
G01 X43.7810 Y15.8410 F120.00
G01 X43.7192 Y15.8971 F120.00
G01 X43.6522 Y15.9467 F120.00
G01 X43.5807 Y15.9896 F120.00
G01 X43.5053 Y16.0253 F120.00
G01 X43.4267 Y16.0534 F120.00
G01 X43.3458 Y16.0737 F120.00
G01 X43.2633 Y16.0859 F120.00
G01 X43.1800 Y16.0900 F120.00
G01 X0.0000 Y16.0900 F120.00
G01 X-0.0833 Y16.0859 F120.00
G01 X-0.1658 Y16.0737 F120.00
G01 X-0.2467 Y16.0534 F120.00
G01 X-0.3253 Y16.0253 F120.00
G01 X-0.4007 Y15.9896 F120.00
G01 X-0.4722 Y15.9467 F120.00
G01 X-0.5392 Y15.8971 F120.00
G01 X-0.6010 Y15.8410 F120.00
G01 X-0.6571 Y15.7792 F120.00
G01 X-0.7067 Y15.7122 F120.00
G01 X-0.7496 Y15.6407 F120.00
G01 X-0.7853 Y15.5653 F120.00
G01 X-0.8134 Y15.4867 F120.00
G01 X-0.8337 Y15.4058 F120.00
G01 X-0.8459 Y15.3233 F120.00
G01 X-0.8500 Y15.2400 F120.00
G00 X-0.8500 Y15.2400
G01 F60.00
G01 Z-1.8000
G01 F120.00
G01 X-0.8459 Y15.3233 F120.00
G01 X-0.8337 Y15.4058 F120.00
G01 X-0.8134 Y15.4867 F120.00
G01 X-0.7853 Y15.5653 F120.00
G01 X-0.7496 Y15.6407 F120.00
G01 X-0.7067 Y15.7122 F120.00
G01 X-0.6571 Y15.7792 F120.00
G01 X-0.6010 Y15.8410 F120.00
G01 X-0.5392 Y15.8971 F120.00
G01 X-0.4722 Y15.9467 F120.00
G01 X-0.4007 Y15.9896 F120.00
G01 X-0.3253 Y16.0253 F120.00
G01 X-0.2467 Y16.0534 F120.00
G01 X-0.1658 Y16.0737 F120.00
G01 X-0.0833 Y16.0859 F120.00
G01 X0.0000 Y16.0900 F120.00
G01 X43.1800 Y16.0900 F120.00
G01 X43.2633 Y16.0859 F120.00
G01 X43.3458 Y16.0737 F120.00
G01 X43.4267 Y16.0534 F120.00
G01 X43.5053 Y16.0253 F120.00
G01 X43.5807 Y15.9896 F120.00
G01 X43.6522 Y15.9467 F120.00
G01 X43.7192 Y15.8971 F120.00
G01 X43.7810 Y15.8410 F120.00
G01 X43.8371 Y15.7792 F120.00
G01 X43.8867 Y15.7122 F120.00
G01 X43.9296 Y15.6407 F120.00
G01 X43.9653 Y15.5653 F120.00
G01 X43.9934 Y15.4867 F120.00
G01 X44.0137 Y15.4058 F120.00
G01 X44.0259 Y15.3233 F120.00
G01 X44.0300 Y15.2400 F120.00
G01 X44.0300 Y0.0000 F120.00
G01 X44.0259 Y-0.0833 F120.00
G01 X44.0137 Y-0.1658 F120.00
G01 X43.9934 Y-0.2467 F120.00
G01 X43.9653 Y-0.3253 F120.00
G01 X43.9296 Y-0.4007 F120.00
G01 X43.8867 Y-0.4722 F120.00
G01 X43.8371 Y-0.5392 F120.00
G01 X43.7810 Y-0.6010 F120.00
G01 X43.7192 Y-0.6571 F120.00
G01 X43.6522 Y-0.7067 F120.00
G01 X43.5807 Y-0.7496 F120.00
G01 X43.5053 Y-0.7853 F120.00
G01 X43.4267 Y-0.8134 F120.00
G01 X43.3458 Y-0.8337 F120.00
G01 X43.2633 Y-0.8459 F120.00
G01 X43.1800 Y-0.8500 F120.00
G01 X0.0000 Y-0.8500 F120.00
G01 X-0.0833 Y-0.8459 F120.00
G01 X-0.1658 Y-0.8337 F120.00
G01 X-0.2467 Y-0.8134 F120.00
G01 X-0.3253 Y-0.7853 F120.00
G01 X-0.4007 Y-0.7496 F120.00
G01 X-0.4722 Y-0.7067 F120.00
G01 X-0.5392 Y-0.6571 F120.00
G01 X-0.6010 Y-0.6010 F120.00
G01 X-0.6571 Y-0.5392 F120.00
G01 X-0.7067 Y-0.4722 F120.00
G01 X-0.7496 Y-0.4007 F120.00
G01 X-0.7853 Y-0.3253 F120.00
G01 X-0.8134 Y-0.2467 F120.00
G01 X-0.8337 Y-0.1658 F120.00
G01 X-0.8459 Y-0.0833 F120.00
G01 X-0.8500 Y0.0000 F120.00
G01 X-0.8500 Y15.2400 F120.00
G00 Z2.0000
M05
G00 Z2.0000
G00 Z15.00
G00 X0.0 Y0.0


