(G-CODE GENERATED BY FLATCAM v8.994 - www.flatcam.org - Version Date: 2020/11/7)

(Name: Through.drl_cnc)
(Type: G-code from Geometry)
(Units: MM)

(Created on Sunday, 05 December 2021 at 19:07)

(This preprocessor is used with a motion controller loaded with GRBL firmware.)
(It is configured to be compatible with almost any version of GRBL firmware.)


(TOOLS DIAMETER: )
(Tool: 1 -> Dia: 0.59944)
(Tool: 2 -> Dia: 1.0007599999999999)
(Tool: 3 -> Dia: 2.49936)
(Tool: 4 -> Dia: 2.9972)

(FEEDRATE Z: )
(Tool: 1 -> Feedrate: 250.0)
(Tool: 2 -> Feedrate: 300)
(Tool: 3 -> Feedrate: 300)
(Tool: 4 -> Feedrate: 300)

(FEEDRATE RAPIDS: )
(Tool: 1 -> Feedrate Rapids: 1500)
(Tool: 2 -> Feedrate Rapids: 1500)
(Tool: 3 -> Feedrate Rapids: 1500)
(Tool: 4 -> Feedrate Rapids: 1500)

(Z_CUT: )
(Tool: 1 -> Z_Cut: -1.7)
(Tool: 2 -> Z_Cut: -1.7)
(Tool: 3 -> Z_Cut: -1.7)
(Tool: 4 -> Z_Cut: -1.7)

(Tools Offset: )
(Tool: 1 -> Offset Z: 0.0)

(Z_MOVE: )
(Tool: 1 -> Z_Move: 2)
(Tool: 2 -> Z_Move: 2)
(Tool: 3 -> Z_Move: 2)
(Tool: 4 -> Z_Move: 2)

(Z Toolchange: 15 mm)
(X,Y Toolchange: 0.0000, 0.0000 mm)
(Z Start: None mm)
(Z End: 0.5 mm)
(X,Y End: None mm)
(Steps per circle: 64)
(Steps per circle: 64)
(Preprocessor Excellon: GRBL_11_no_M6)

(X range:    3.9828 ...   32.9337  mm)
(Y range:    4.7879 ...   11.0871  mm)

(Spindle Speed: 10000 RPM)
G21
G90
G17
G94


G01 F250.00

M5             
G00 Z15.0000
G00 X0.0000 Y0.0000                
T1
(MSG, Change to Tool Dia = 0.5994 ||| Total drills for tool T1 = 3)
M0
G00 Z15.0000
        
G01 F250.00
M03 S10000
G00 X31.3640 Y6.6675
G01 Z-1.7000
G01 Z0
G00 Z2.0000
G00 X32.6340 Y6.6675
G01 Z-1.7000
G01 Z0
G00 Z2.0000
G00 X30.0940 Y6.6675
G01 Z-1.7000
G01 Z0
G00 Z2.0000
M05
G00 Z0.50


