(Exported by FreeCAD)
(Post Processor: grbl_post)
(Output Time:2021-11-25 15:44:40.111630)
(Begin preamble)
G17 G90
G21
(Begin operation: Fixture)
(Path: Fixture)
G54
(Finish operation: Fixture)
(Begin operation: TC: 3.175mm Endmill)
(Path: TC: 3.175mm Endmill)
(TC: 3.175mm Endmill)
(Begin toolchange)
( M6 T1.0 )
M3 S10000.0
(Finish operation: TC: 3.175mm Endmill)
(Begin operation: Pocket_Shape001)
(Path: Pocket_Shape001)
(Pocket_Shape001)
G0 Z5.000
G0 X26.454 Y26.454
G0 Z3.000
G1 X26.454 Y26.454 Z-0.500 F180.000
G2 X-0.000 Y-37.412 Z-0.500 I-26.454 J-26.454 K0.000 F180.000
G2 X0.000 Y37.412 Z-0.500 I0.000 J37.412 K0.000 F180.000
G2 X26.454 Y26.454 Z-0.500 I-0.000 J-37.412 K0.000 F180.000
G0 Z5.000
G0 X20.391 Y20.391 Z5.000
G0 X20.391 Y20.391 Z3.000
G1 X20.391 Y20.391 Z-0.500 F180.000
G3 X0.043 Y28.837 Z-0.500 I-20.391 J-20.391 K0.000 F180.000
G3 X-28.837 Y0.021 Z-0.500 I-0.043 J-28.837 K0.000 F180.000
G3 X0.000 Y-28.837 Z-0.500 I28.837 J-0.021 K0.000 F180.000
G3 X20.391 Y20.391 Z-0.500 I0.000 J28.837 K0.000 F180.000
G0 Z5.000
G0 X-1.321 Y37.382 Z5.000
G0 X-1.321 Y37.382 Z3.000
G1 X-1.321 Y37.382 Z-0.500 F180.000
G1 X-12.945 Y25.758 Z-0.500 F180.000
G2 X-8.447 Y27.562 Z-0.500 I12.003 J-23.414 K0.000 F180.000
G1 X1.372 Y37.381 Z-0.500 F180.000
G2 X3.886 Y37.201 Z-0.500 I-0.354 J-22.619 K0.000 F180.000
G1 X-4.902 Y28.413 Z-0.500 F180.000
G2 X-1.849 Y28.772 Z-0.500 I4.067 J-21.388 K0.000 F180.000
G1 X6.257 Y36.878 Z-0.500 F180.000
G2 X8.502 Y36.429 Z-0.500 I-3.423 J-22.984 K0.000 F180.000
G1 X0.887 Y28.814 Z-0.500 F180.000
G2 X3.398 Y28.631 Z-0.500 I-0.284 J-21.196 K0.000 F180.000
G1 X10.628 Y35.861 Z-0.500 F180.000
G2 X12.658 Y35.197 Z-0.500 I-6.378 J-22.933 K0.000 F180.000
G1 X5.718 Y28.256 Z-0.500 F180.000
G2 X7.889 Y27.734 Z-0.500 I-3.611 J-19.770 K0.000 F180.000
G1 X14.599 Y34.444 Z-0.500 F180.000
G2 X16.447 Y33.598 Z-0.500 I-7.442 J-18.703 K0.000 F180.000
G1 X9.917 Y27.068 Z-0.500 F180.000
G2 X11.834 Y26.291 Z-0.500 I-6.368 J-18.462 K0.000 F180.000
G1 X18.213 Y32.670 Z-0.500 F180.000
G2 X19.904 Y31.667 Z-0.500 I-10.322 J-19.328 K0.000 F180.000
G1 X13.641 Y25.404 Z-0.500 F180.000
G2 X15.340 Y24.408 Z-0.500 I-8.583 J-16.596 K0.000 F180.000
G1 X21.523 Y30.591 Z-0.500 F180.000
G2 X23.070 Y29.445 Z-0.500 I-11.989 J-17.805 K0.000 F180.000
G1 X16.947 Y23.321 Z-0.500 F180.000
G2 X18.464 Y22.144 Z-0.500 I-10.377 J-14.950 K0.000 F180.000
G1 X24.549 Y28.229 Z-0.500 F180.000
G2 X25.955 Y26.941 Z-0.500 I-12.601 J-15.160 K0.000 F180.000
G1 X19.891 Y20.877 Z-0.500 F180.000
G2 X21.222 Y19.514 Z-0.500 I-12.330 J-13.365 K0.000 F180.000
G1 X27.290 Y25.582 Z-0.500 F180.000
G2 X28.557 Y24.155 Z-0.500 I-15.248 J-14.825 K0.000 F180.000
G1 X22.466 Y18.064 Z-0.500 F180.000
G2 X23.623 Y16.527 Z-0.500 I-13.936 J-11.688 K0.000 F180.000
G1 X29.757 Y22.661 Z-0.500 F180.000
G2 X30.886 Y21.096 Z-0.500 I-16.851 J-13.360 K0.000 F180.000
G1 X24.690 Y14.900 Z-0.500 F180.000
G2 X25.649 Y13.165 Z-0.500 I-16.839 J-10.445 K0.000 F180.000
G1 X31.945 Y19.461 Z-0.500 F180.000
G2 X32.931 Y17.753 Z-0.500 I-18.525 J-11.830 K0.000 F180.000
G1 X26.508 Y11.330 Z-0.500 F180.000
G2 X27.262 Y9.389 Z-0.500 I-17.935 J-8.086 K0.000 F180.000
G1 X33.831 Y15.959 Z-0.500 F180.000
G2 X34.650 Y14.084 Z-0.500 I-20.468 J-10.054 K0.000 F180.000
G1 X27.885 Y7.319 Z-0.500 F180.000
G2 X28.373 Y5.112 Z-0.500 I-20.505 J-5.683 K0.000 F180.000
G1 X35.384 Y12.124 Z-0.500 F180.000
G2 X36.028 Y10.073 Z-0.500 I-22.506 J-8.191 K0.000 F180.000
G1 X28.699 Y2.745 Z-0.500 F180.000
G2 X28.833 Y0.184 Z-0.500 I-23.951 J-2.534 K0.000 F180.000
G1 X36.559 Y7.910 Z-0.500 F180.000
G2 X36.977 Y5.634 Z-0.500 I-25.136 J-5.787 K0.000 F180.000
G1 X28.708 Y-2.634 Z-0.500 F180.000
G2 X28.241 Y-5.795 Z-0.500 I-21.816 J1.608 K0.000 F180.000
G1 X37.270 Y3.233 Z-0.500 F180.000
G2 X37.397 Y0.666 Z-0.500 I-28.511 J-2.703 K0.000 F180.000
G1 X27.216 Y-9.515 Z-0.500 F180.000
G2 X24.909 Y-14.516 Z-0.500 I-25.896 J8.913 K0.000 F180.000
G1 X37.348 Y-2.077 Z-0.500 F180.000
G2 X37.069 Y-5.050 Z-0.500 I-32.691 J1.563 K0.000 F180.000
G1 X5.050 Y-37.069 Z-0.500 F180.000
G3 X8.344 Y-36.469 Z-0.500 I-4.954 J36.556 K0.000 F180.000
G1 X36.469 Y-8.344 Z-0.500 F180.000
G2 X35.384 Y-12.123 Z-0.500 I-33.875 J7.680 K0.000 F180.000
G1 X12.123 Y-35.384 Z-0.500 F180.000
G3 X16.766 Y-33.435 Z-0.500 I-10.774 J32.171 K0.000 F180.000
G1 X33.435 Y-16.766 Z-0.500 F180.000
G2 X25.854 Y-27.041 Z-0.500 I-33.204 J16.564 K0.000 F180.000
G0 Z5.000
G0 X14.516 Y-24.909 Z5.000
G0 X14.516 Y-24.909 Z3.000
G1 X14.516 Y-24.909 Z-0.500 F180.000
G1 X2.077 Y-37.348 Z-0.500 F180.000
G2 X-0.666 Y-37.397 Z-0.500 I-1.835 J25.587 K0.000 F180.000
G1 X9.515 Y-27.216 Z-0.500 F180.000
G2 X5.795 Y-28.241 Z-0.500 I-8.756 J24.497 K0.000 F180.000
G1 X-3.233 Y-37.270 Z-0.500 F180.000
G2 X-5.634 Y-36.977 Z-0.500 I1.856 J25.192 K0.000 F180.000
G1 X2.634 Y-28.708 Z-0.500 F180.000
G2 X-0.184 Y-28.833 Z-0.500 I-2.347 J21.133 K0.000 F180.000
G1 X-7.910 Y-36.559 Z-0.500 F180.000
G2 X-10.073 Y-36.028 Z-0.500 I3.840 J20.304 K0.000 F180.000
G1 X-2.745 Y-28.699 Z-0.500 F180.000
G2 X-5.112 Y-28.373 Z-0.500 I1.529 J19.802 K0.000 F180.000
G1 X-12.124 Y-35.384 Z-0.500 F180.000
G2 X-14.084 Y-34.650 Z-0.500 I7.191 J22.190 K0.000 F180.000
G1 X-7.319 Y-27.885 Z-0.500 F180.000
G2 X-9.389 Y-27.262 Z-0.500 I4.549 J18.852 K0.000 F180.000
G1 X-15.959 Y-33.831 Z-0.500 F180.000
G2 X-17.753 Y-32.931 Z-0.500 I7.804 J17.786 K0.000 F180.000
G1 X-11.330 Y-26.508 Z-0.500 F180.000
G2 X-13.165 Y-25.649 Z-0.500 I7.180 J17.731 K0.000 F180.000
G1 X-19.461 Y-31.945 Z-0.500 F180.000
G2 X-21.096 Y-30.886 Z-0.500 I10.971 J18.735 K0.000 F180.000
G1 X-14.900 Y-24.690 Z-0.500 F180.000
G2 X-16.527 Y-23.623 Z-0.500 I9.354 J16.036 K0.000 F180.000
G1 X-22.661 Y-29.757 Z-0.500 F180.000
G2 X-24.155 Y-28.557 Z-0.500 I12.603 J17.243 K0.000 F180.000
G1 X-18.064 Y-22.466 Z-0.500 F180.000
G2 X-19.514 Y-21.222 Z-0.500 I11.024 J14.312 K0.000 F180.000
G1 X-25.582 Y-27.290 Z-0.500 F180.000
G2 X-26.941 Y-25.955 Z-0.500 I14.188 J15.795 K0.000 F180.000
G1 X-20.877 Y-19.891 Z-0.500 F180.000
G2 X-22.144 Y-18.464 Z-0.500 I13.801 J13.531 K0.000 F180.000
G1 X-28.229 Y-24.549 Z-0.500 F180.000
G2 X-29.445 Y-23.070 Z-0.500 I15.853 J14.273 K0.000 F180.000
G1 X-23.321 Y-16.947 Z-0.500 F180.000
G2 X-24.408 Y-15.340 Z-0.500 I14.610 J11.059 K0.000 F180.000
G1 X-30.591 Y-21.523 Z-0.500 F180.000
G2 X-31.667 Y-19.904 Z-0.500 I17.480 J12.785 K0.000 F180.000
G1 X-25.404 Y-13.641 Z-0.500 F180.000
G2 X-26.291 Y-11.834 Z-0.500 I16.812 J9.377 K0.000 F180.000
G1 X-32.670 Y-18.213 Z-0.500 F180.000
G2 X-33.598 Y-16.447 Z-0.500 I19.199 J11.214 K0.000 F180.000
G1 X-27.068 Y-9.917 Z-0.500 F180.000
G2 X-27.734 Y-7.889 Z-0.500 I18.795 J7.291 K0.000 F180.000
G1 X-34.444 Y-14.599 Z-0.500 F180.000
G2 X-35.197 Y-12.658 Z-0.500 I21.229 J9.359 K0.000 F180.000
G1 X-28.256 Y-5.718 Z-0.500 F180.000
G2 X-28.631 Y-3.398 Z-0.500 I21.606 J4.679 K0.000 F180.000
G1 X-35.861 Y-10.628 Z-0.500 F180.000
G2 X-36.429 Y-8.502 Z-0.500 I23.383 J7.390 K0.000 F180.000
G1 X-28.814 Y-0.887 Z-0.500 F180.000
G2 X-28.772 Y1.849 Z-0.500 I20.372 J1.058 K0.000 F180.000
G1 X-36.878 Y-6.257 Z-0.500 F180.000
G2 X-37.201 Y-3.886 Z-0.500 I26.230 J4.787 K0.000 F180.000
G1 X-28.413 Y4.902 Z-0.500 F180.000
G2 X-27.562 Y8.447 Z-0.500 I23.554 J-3.778 K0.000 F180.000
G1 X-37.381 Y-1.372 Z-0.500 F180.000
G2 X-37.382 Y1.321 Z-0.500 I29.981 J1.359 K0.000 F180.000
G1 X-25.758 Y12.945 Z-0.500 F180.000
G2 X-12.945 Y25.758 Z-0.500 I25.632 J-12.819 K0.000 F180.000
G1 X-1.321 Y37.382 Z-0.500 F180.000
G3 X-4.235 Y37.162 Z-0.500 I0.628 J-27.702 K0.000 F180.000
G1 X-37.162 Y4.235 Z-0.500 F180.000
G2 X-36.656 Y7.435 Z-0.500 I27.220 J-2.663 K0.000 F180.000
G1 X-7.435 Y36.656 Z-0.500 F180.000
G3 X-11.051 Y35.734 Z-0.500 I5.788 J-30.245 K0.000 F180.000
G1 X-35.734 Y11.051 Z-0.500 F180.000
G2 X-34.090 Y15.389 Z-0.500 I31.948 J-9.627 K0.000 F180.000
G1 X-15.389 Y34.090 Z-0.500 F180.000
G3 X-21.718 Y30.456 Z-0.500 I14.615 J-32.776 K0.000 F180.000
G3 X-30.456 Y21.718 Z-0.500 I21.408 J-30.146 K0.000 F180.000
G1 X-21.718 Y30.456 Z-0.500 F180.000
G0 Z5.000
G0 Z5.000
(Finish operation: Pocket_Shape001)
(Begin operation: Profile)
(Path: Profile)
(Profile)
(Compensated Tool Path. Diameter: 3.175)
G0 Z5.000
G0 X50.194 Y40.262
G0 Z3.000
G1 X50.194 Y40.262 Z-0.500 F180.000
G2 X51.587 Y38.686 Z-0.500 I-0.194 J-1.576 K0.000 F180.000
G1 X51.587 Y-50.000 Z-0.500 F180.000
G2 X50.000 Y-51.587 Z-0.500 I-1.587 J-0.000 K0.000 F180.000
G1 X-50.000 Y-51.587 Z-0.500 F180.000
G2 X-51.587 Y-50.000 Z-0.500 I-0.000 J1.587 K0.000 F180.000
G1 X-51.587 Y50.000 Z-0.500 F180.000
G2 X-50.000 Y51.587 Z-0.500 I1.587 J0.000 K0.000 F180.000
G1 X38.686 Y51.587 Z-0.500 F180.000
G2 X39.809 Y48.877 Z-0.500 I0.000 J-1.587 K0.000 F180.000
G1 X28.408 Y37.477 Z-0.500 F180.000
G1 X37.477 Y28.408 Z-0.500 F180.000
G1 X48.877 Y39.809 Z-0.500 F180.000
G2 X50.194 Y40.262 Z-0.500 I1.123 J-1.123 K0.000 F180.000
G1 X50.194 Y40.262 Z-1.000 F180.000
G2 X51.587 Y38.686 Z-1.000 I-0.194 J-1.576 K0.000 F180.000
G1 X51.587 Y-50.000 Z-1.000 F180.000
G2 X50.000 Y-51.587 Z-1.000 I-1.587 J-0.000 K0.000 F180.000
G1 X-50.000 Y-51.587 Z-1.000 F180.000
G2 X-51.587 Y-50.000 Z-1.000 I-0.000 J1.587 K0.000 F180.000
G1 X-51.587 Y50.000 Z-1.000 F180.000
G2 X-50.000 Y51.587 Z-1.000 I1.587 J0.000 K0.000 F180.000
G1 X38.686 Y51.587 Z-1.000 F180.000
G2 X39.809 Y48.877 Z-1.000 I0.000 J-1.587 K0.000 F180.000
G1 X28.408 Y37.477 Z-1.000 F180.000
G1 X37.477 Y28.408 Z-1.000 F180.000
G1 X48.877 Y39.809 Z-1.000 F180.000
G2 X50.194 Y40.262 Z-1.000 I1.123 J-1.123 K0.000 F180.000
G1 X50.194 Y40.262 Z-1.500 F180.000
G2 X51.587 Y38.686 Z-1.500 I-0.194 J-1.576 K0.000 F180.000
G1 X51.587 Y-50.000 Z-1.500 F180.000
G2 X50.000 Y-51.587 Z-1.500 I-1.587 J-0.000 K0.000 F180.000
G1 X-50.000 Y-51.587 Z-1.500 F180.000
G2 X-51.587 Y-50.000 Z-1.500 I-0.000 J1.587 K0.000 F180.000
G1 X-51.587 Y50.000 Z-1.500 F180.000
G2 X-50.000 Y51.587 Z-1.500 I1.587 J0.000 K0.000 F180.000
G1 X38.686 Y51.587 Z-1.500 F180.000
G2 X39.809 Y48.877 Z-1.500 I0.000 J-1.587 K0.000 F180.000
G1 X28.408 Y37.477 Z-1.500 F180.000
G1 X37.477 Y28.408 Z-1.500 F180.000
G1 X48.877 Y39.809 Z-1.500 F180.000
G2 X50.194 Y40.262 Z-1.500 I1.123 J-1.123 K0.000 F180.000
G1 X50.194 Y40.262 Z-2.000 F180.000
G2 X51.587 Y38.686 Z-2.000 I-0.194 J-1.576 K0.000 F180.000
G1 X51.587 Y-50.000 Z-2.000 F180.000
G2 X50.000 Y-51.587 Z-2.000 I-1.587 J-0.000 K0.000 F180.000
G1 X-50.000 Y-51.587 Z-2.000 F180.000
G2 X-51.587 Y-50.000 Z-2.000 I-0.000 J1.587 K0.000 F180.000
G1 X-51.587 Y50.000 Z-2.000 F180.000
G2 X-50.000 Y51.587 Z-2.000 I1.587 J0.000 K0.000 F180.000
G1 X38.686 Y51.587 Z-2.000 F180.000
G2 X39.809 Y48.877 Z-2.000 I0.000 J-1.587 K0.000 F180.000
G1 X28.408 Y37.477 Z-2.000 F180.000
G1 X37.477 Y28.408 Z-2.000 F180.000
G1 X48.877 Y39.809 Z-2.000 F180.000
G2 X50.194 Y40.262 Z-2.000 I1.123 J-1.123 K0.000 F180.000
G1 X50.194 Y40.262 Z-2.500 F180.000
G2 X51.587 Y38.686 Z-2.500 I-0.194 J-1.576 K0.000 F180.000
G1 X51.587 Y-50.000 Z-2.500 F180.000
G2 X50.000 Y-51.587 Z-2.500 I-1.587 J-0.000 K0.000 F180.000
G1 X-50.000 Y-51.587 Z-2.500 F180.000
G2 X-51.587 Y-50.000 Z-2.500 I-0.000 J1.587 K0.000 F180.000
G1 X-51.587 Y50.000 Z-2.500 F180.000
G2 X-50.000 Y51.587 Z-2.500 I1.587 J0.000 K0.000 F180.000
G1 X38.686 Y51.587 Z-2.500 F180.000
G2 X39.809 Y48.877 Z-2.500 I0.000 J-1.587 K0.000 F180.000
G1 X28.408 Y37.477 Z-2.500 F180.000
G1 X37.477 Y28.408 Z-2.500 F180.000
G1 X48.877 Y39.809 Z-2.500 F180.000
G2 X50.194 Y40.262 Z-2.500 I1.123 J-1.123 K0.000 F180.000
G1 X50.194 Y40.262 Z-3.000 F180.000
G2 X51.587 Y38.686 Z-3.000 I-0.194 J-1.576 K0.000 F180.000
G1 X51.587 Y-50.000 Z-3.000 F180.000
G2 X50.000 Y-51.587 Z-3.000 I-1.587 J-0.000 K0.000 F180.000
G1 X-50.000 Y-51.587 Z-3.000 F180.000
G2 X-51.587 Y-50.000 Z-3.000 I-0.000 J1.587 K0.000 F180.000
G1 X-51.587 Y50.000 Z-3.000 F180.000
G2 X-50.000 Y51.587 Z-3.000 I1.587 J0.000 K0.000 F180.000
G1 X38.686 Y51.587 Z-3.000 F180.000
G2 X39.809 Y48.877 Z-3.000 I0.000 J-1.587 K0.000 F180.000
G1 X28.408 Y37.477 Z-3.000 F180.000
G1 X37.477 Y28.408 Z-3.000 F180.000
G1 X48.877 Y39.809 Z-3.000 F180.000
G2 X50.194 Y40.262 Z-3.000 I1.123 J-1.123 K0.000 F180.000
G1 X50.194 Y40.262 Z-3.500 F180.000
G2 X51.587 Y38.686 Z-3.500 I-0.194 J-1.576 K0.000 F180.000
G1 X51.587 Y-50.000 Z-3.500 F180.000
G2 X50.000 Y-51.587 Z-3.500 I-1.587 J-0.000 K0.000 F180.000
G1 X-50.000 Y-51.587 Z-3.500 F180.000
G2 X-51.587 Y-50.000 Z-3.500 I-0.000 J1.587 K0.000 F180.000
G1 X-51.587 Y50.000 Z-3.500 F180.000
G2 X-50.000 Y51.587 Z-3.500 I1.587 J0.000 K0.000 F180.000
G1 X38.686 Y51.587 Z-3.500 F180.000
G2 X39.809 Y48.877 Z-3.500 I0.000 J-1.587 K0.000 F180.000
G1 X28.408 Y37.477 Z-3.500 F180.000
G1 X37.477 Y28.408 Z-3.500 F180.000
G1 X48.877 Y39.809 Z-3.500 F180.000
G2 X50.194 Y40.262 Z-3.500 I1.123 J-1.123 K0.000 F180.000
G1 X50.194 Y40.262 Z-4.000 F180.000
G2 X51.587 Y38.686 Z-4.000 I-0.194 J-1.576 K0.000 F180.000
G1 X51.587 Y-50.000 Z-4.000 F180.000
G2 X50.000 Y-51.587 Z-4.000 I-1.587 J-0.000 K0.000 F180.000
G1 X-50.000 Y-51.587 Z-4.000 F180.000
G2 X-51.587 Y-50.000 Z-4.000 I-0.000 J1.587 K0.000 F180.000
G1 X-51.587 Y50.000 Z-4.000 F180.000
G2 X-50.000 Y51.587 Z-4.000 I1.587 J0.000 K0.000 F180.000
G1 X38.686 Y51.587 Z-4.000 F180.000
G2 X39.809 Y48.877 Z-4.000 I0.000 J-1.587 K0.000 F180.000
G1 X28.408 Y37.477 Z-4.000 F180.000
G1 X37.477 Y28.408 Z-4.000 F180.000
G1 X48.877 Y39.809 Z-4.000 F180.000
G2 X50.194 Y40.262 Z-4.000 I1.123 J-1.123 K0.000 F180.000
G1 X50.194 Y40.262 Z-4.500 F180.000
G2 X51.587 Y38.686 Z-4.500 I-0.194 J-1.576 K0.000 F180.000
G1 X51.587 Y-50.000 Z-4.500 F180.000
G2 X50.000 Y-51.587 Z-4.500 I-1.587 J-0.000 K0.000 F180.000
G1 X-50.000 Y-51.587 Z-4.500 F180.000
G2 X-51.587 Y-50.000 Z-4.500 I-0.000 J1.587 K0.000 F180.000
G1 X-51.587 Y50.000 Z-4.500 F180.000
G2 X-50.000 Y51.587 Z-4.500 I1.587 J0.000 K0.000 F180.000
G1 X38.686 Y51.587 Z-4.500 F180.000
G2 X39.809 Y48.877 Z-4.500 I0.000 J-1.587 K0.000 F180.000
G1 X28.408 Y37.477 Z-4.500 F180.000
G1 X37.477 Y28.408 Z-4.500 F180.000
G1 X48.877 Y39.809 Z-4.500 F180.000
G2 X50.194 Y40.262 Z-4.500 I1.123 J-1.123 K0.000 F180.000
G1 X50.194 Y40.262 Z-5.000 F180.000
G2 X51.587 Y38.686 Z-5.000 I-0.194 J-1.576 K0.000 F180.000
G1 X51.587 Y-50.000 Z-5.000 F180.000
G2 X50.000 Y-51.587 Z-5.000 I-1.587 J-0.000 K0.000 F180.000
G1 X-50.000 Y-51.587 Z-5.000 F180.000
G2 X-51.587 Y-50.000 Z-5.000 I-0.000 J1.587 K0.000 F180.000
G1 X-51.587 Y50.000 Z-5.000 F180.000
G2 X-50.000 Y51.587 Z-5.000 I1.587 J0.000 K0.000 F180.000
G1 X38.686 Y51.587 Z-5.000 F180.000
G2 X39.809 Y48.877 Z-5.000 I0.000 J-1.587 K0.000 F180.000
G1 X28.408 Y37.477 Z-5.000 F180.000
G1 X37.477 Y28.408 Z-5.000 F180.000
G1 X48.877 Y39.809 Z-5.000 F180.000
G2 X50.194 Y40.262 Z-5.000 I1.123 J-1.123 K0.000 F180.000
G1 X50.194 Y40.262 Z-5.500 F180.000
G2 X51.587 Y38.686 Z-5.500 I-0.194 J-1.576 K0.000 F180.000
G1 X51.587 Y-50.000 Z-5.500 F180.000
G2 X50.000 Y-51.587 Z-5.500 I-1.587 J-0.000 K0.000 F180.000
G1 X-50.000 Y-51.587 Z-5.500 F180.000
G2 X-51.587 Y-50.000 Z-5.500 I-0.000 J1.587 K0.000 F180.000
G1 X-51.587 Y50.000 Z-5.500 F180.000
G2 X-50.000 Y51.587 Z-5.500 I1.587 J0.000 K0.000 F180.000
G1 X38.686 Y51.587 Z-5.500 F180.000
G2 X39.809 Y48.877 Z-5.500 I0.000 J-1.587 K0.000 F180.000
G1 X28.408 Y37.477 Z-5.500 F180.000
G1 X37.477 Y28.408 Z-5.500 F180.000
G1 X48.877 Y39.809 Z-5.500 F180.000
G2 X50.194 Y40.262 Z-5.500 I1.123 J-1.123 K0.000 F180.000
G1 X50.194 Y40.262 Z-6.000 F180.000
G2 X51.587 Y38.686 Z-6.000 I-0.194 J-1.576 K0.000 F180.000
G1 X51.587 Y-50.000 Z-6.000 F180.000
G2 X50.000 Y-51.587 Z-6.000 I-1.587 J-0.000 K0.000 F180.000
G1 X-50.000 Y-51.587 Z-6.000 F180.000
G2 X-51.587 Y-50.000 Z-6.000 I-0.000 J1.587 K0.000 F180.000
G1 X-51.587 Y50.000 Z-6.000 F180.000
G2 X-50.000 Y51.587 Z-6.000 I1.587 J0.000 K0.000 F180.000
G1 X38.686 Y51.587 Z-6.000 F180.000
G2 X39.809 Y48.877 Z-6.000 I0.000 J-1.587 K0.000 F180.000
G1 X28.408 Y37.477 Z-6.000 F180.000
G1 X37.477 Y28.408 Z-6.000 F180.000
G1 X48.877 Y39.809 Z-6.000 F180.000
G2 X50.194 Y40.262 Z-6.000 I1.123 J-1.123 K0.000 F180.000
G1 X50.194 Y40.262 Z-6.500 F180.000
G2 X51.587 Y38.686 Z-6.500 I-0.194 J-1.576 K0.000 F180.000
G1 X51.587 Y-50.000 Z-6.500 F180.000
G2 X50.000 Y-51.587 Z-6.500 I-1.587 J-0.000 K0.000 F180.000
G1 X-50.000 Y-51.587 Z-6.500 F180.000
G2 X-51.587 Y-50.000 Z-6.500 I-0.000 J1.587 K0.000 F180.000
G1 X-51.587 Y50.000 Z-6.500 F180.000
G2 X-50.000 Y51.587 Z-6.500 I1.587 J0.000 K0.000 F180.000
G1 X38.686 Y51.587 Z-6.500 F180.000
G2 X39.809 Y48.877 Z-6.500 I0.000 J-1.587 K0.000 F180.000
G1 X28.408 Y37.477 Z-6.500 F180.000
G1 X37.477 Y28.408 Z-6.500 F180.000
G1 X48.877 Y39.809 Z-6.500 F180.000
G2 X50.194 Y40.262 Z-6.500 I1.123 J-1.123 K0.000 F180.000
G1 X50.194 Y40.262 Z-7.000 F180.000
G2 X51.587 Y38.686 Z-7.000 I-0.194 J-1.576 K0.000 F180.000
G1 X51.587 Y-50.000 Z-7.000 F180.000
G2 X50.000 Y-51.587 Z-7.000 I-1.587 J-0.000 K0.000 F180.000
G1 X-50.000 Y-51.587 Z-7.000 F180.000
G2 X-51.587 Y-50.000 Z-7.000 I-0.000 J1.587 K0.000 F180.000
G1 X-51.587 Y50.000 Z-7.000 F180.000
G2 X-50.000 Y51.587 Z-7.000 I1.587 J0.000 K0.000 F180.000
G1 X38.686 Y51.587 Z-7.000 F180.000
G2 X39.809 Y48.877 Z-7.000 I0.000 J-1.587 K0.000 F180.000
G1 X28.408 Y37.477 Z-7.000 F180.000
G1 X37.477 Y28.408 Z-7.000 F180.000
G1 X48.877 Y39.809 Z-7.000 F180.000
G2 X50.194 Y40.262 Z-7.000 I1.123 J-1.123 K0.000 F180.000
G1 X50.194 Y40.262 Z-7.500 F180.000
G2 X51.587 Y38.686 Z-7.500 I-0.194 J-1.576 K0.000 F180.000
G1 X51.587 Y-50.000 Z-7.500 F180.000
G2 X50.000 Y-51.587 Z-7.500 I-1.587 J-0.000 K0.000 F180.000
G1 X-50.000 Y-51.587 Z-7.500 F180.000
G2 X-51.587 Y-50.000 Z-7.500 I-0.000 J1.587 K0.000 F180.000
G1 X-51.587 Y50.000 Z-7.500 F180.000
G2 X-50.000 Y51.587 Z-7.500 I1.587 J0.000 K0.000 F180.000
G1 X38.686 Y51.587 Z-7.500 F180.000
G2 X39.809 Y48.877 Z-7.500 I0.000 J-1.587 K0.000 F180.000
G1 X28.408 Y37.477 Z-7.500 F180.000
G1 X37.477 Y28.408 Z-7.500 F180.000
G1 X48.877 Y39.809 Z-7.500 F180.000
G2 X50.194 Y40.262 Z-7.500 I1.123 J-1.123 K0.000 F180.000
G1 X50.194 Y40.262 Z-8.000 F180.000
G2 X51.587 Y38.686 Z-8.000 I-0.194 J-1.576 K0.000 F180.000
G1 X51.587 Y-50.000 Z-8.000 F180.000
G2 X50.000 Y-51.587 Z-8.000 I-1.587 J-0.000 K0.000 F180.000
G1 X-50.000 Y-51.587 Z-8.000 F180.000
G2 X-51.587 Y-50.000 Z-8.000 I-0.000 J1.587 K0.000 F180.000
G1 X-51.587 Y50.000 Z-8.000 F180.000
G2 X-50.000 Y51.587 Z-8.000 I1.587 J0.000 K0.000 F180.000
G1 X38.686 Y51.587 Z-8.000 F180.000
G2 X39.809 Y48.877 Z-8.000 I0.000 J-1.587 K0.000 F180.000
G1 X28.408 Y37.477 Z-8.000 F180.000
G1 X37.477 Y28.408 Z-8.000 F180.000
G1 X48.877 Y39.809 Z-8.000 F180.000
G2 X50.194 Y40.262 Z-8.000 I1.123 J-1.123 K0.000 F180.000
G1 X50.194 Y40.262 Z-8.500 F180.000
G2 X51.587 Y38.686 Z-8.500 I-0.194 J-1.576 K0.000 F180.000
G1 X51.587 Y-50.000 Z-8.500 F180.000
G2 X50.000 Y-51.587 Z-8.500 I-1.587 J-0.000 K0.000 F180.000
G1 X-50.000 Y-51.587 Z-8.500 F180.000
G2 X-51.587 Y-50.000 Z-8.500 I-0.000 J1.587 K0.000 F180.000
G1 X-51.587 Y50.000 Z-8.500 F180.000
G2 X-50.000 Y51.587 Z-8.500 I1.587 J0.000 K0.000 F180.000
G1 X38.686 Y51.587 Z-8.500 F180.000
G2 X39.809 Y48.877 Z-8.500 I0.000 J-1.587 K0.000 F180.000
G1 X28.408 Y37.477 Z-8.500 F180.000
G1 X37.477 Y28.408 Z-8.500 F180.000
G1 X48.877 Y39.809 Z-8.500 F180.000
G2 X50.194 Y40.262 Z-8.500 I1.123 J-1.123 K0.000 F180.000
G0 Z5.000
G0 Z5.000
(Finish operation: Profile)
(Begin postamble)
M5
G17 G90
M2
