(Exported by FreeCAD)
(Post Processor: grbl_post)
(Output Time:2021-11-25 15:06:24.222198)
(Begin preamble)
G17 G90
G21
(Begin operation: Fixture)
(Path: Fixture)
G54
(Finish operation: Fixture)
(Begin operation: TC: 3mm Drill)
(Path: TC: 3mm Drill)
(TC: 3mm Drill)
(Begin toolchange)
( M6 T2.0 )
M3 S10000.0
(Begin operation: TC: 3mm Endmill)
(Path: TC: 3mm Endmill)
(TC: 3mm Endmill)
(Begin toolchange)
( M6 T1.0 )
M3 S10000.0
(Finish operation: TC: 3mm Endmill)
(Begin operation: Pocket_Shape)
(Path: Pocket_Shape)
(Pocket_Shape)
G0 Z5.000
G0 X6.656 Y6.654
G0 Z3.000
G1 X6.656 Y6.654 Z-0.500 F180.000
G2 X0.399 Y-9.403 Z-0.500 I-6.656 J-6.654 K0.000 F180.000
G2 X-0.399 Y9.403 Z-0.500 I-0.399 J9.403 K0.000 F180.000
G2 X6.656 Y6.654 Z-0.500 I0.399 J-9.403 K0.000 F180.000
G0 Z5.000
G0 X2.184 Y2.183 Z5.000
G0 X2.184 Y2.183 Z3.000
G1 X2.184 Y2.183 Z-0.500 F180.000
G3 X-0.000 Y3.087 Z-0.500 I-2.184 J-2.183 K0.000 F180.000
G3 X0.000 Y-3.087 Z-0.500 I0.000 J-3.087 K0.000 F180.000
G3 X2.184 Y2.183 Z-0.500 I0.000 J3.087 K0.000 F180.000
G0 Z5.000
G0 X0.947 Y-2.930 Z5.000
G0 X0.947 Y-2.930 Z3.000
G1 X0.947 Y-2.930 Z-0.500 F180.000
G1 X-4.423 Y-8.300 Z-0.500 F180.000
G2 X-5.262 Y-7.792 Z-0.500 I2.561 J5.186 K0.000 F180.000
G1 X-0.510 Y-3.040 Z-0.500 F180.000
G2 X-1.506 Y-2.689 Z-0.500 I0.501 J3.008 K0.000 F180.000
G1 X-6.032 Y-7.215 Z-0.500 F180.000
G2 X-6.734 Y-6.570 Z-0.500 I3.437 J4.447 K0.000 F180.000
G1 X-2.259 Y-2.094 Z-0.500 F180.000
G2 X-2.803 Y-1.292 Z-0.500 I2.262 J2.121 K0.000 F180.000
G1 X-7.365 Y-5.854 Z-0.500 F180.000
G2 X-7.923 Y-5.065 Z-0.500 I4.356 J3.673 K0.000 F180.000
G1 X-3.073 Y-0.215 Z-0.500 F180.000
G2 X-2.672 Y1.534 Z-0.500 I2.927 J0.248 K0.000 F180.000
G1 X-8.410 Y-4.205 Z-0.500 F180.000
G0 Z5.000
G0 X-3.593 Y8.694 Z5.000
G0 X-3.593 Y8.694 Z3.000
G1 X-3.593 Y8.694 Z-0.500 F180.000
G1 X-8.686 Y3.601 Z-0.500 F180.000
G2 X-3.593 Y8.694 Z-0.500 I8.637 J-3.543 K0.000 F180.000
G2 X-1.690 Y9.250 Z-0.500 I3.321 J-7.839 K0.000 F180.000
G1 X-9.255 Y1.685 Z-0.500 F180.000
G3 X-9.403 Y0.190 Z-0.500 I6.041 J-1.352 K0.000 F180.000
G1 X-0.191 Y9.403 Z-0.500 F180.000
G2 X1.097 Y9.343 Z-0.500 I0.295 J-7.594 K0.000 F180.000
G1 X-9.339 Y-1.093 Z-0.500 F180.000
G3 X-9.136 Y-2.237 Z-0.500 I6.822 J0.621 K0.000 F180.000
G1 X2.235 Y9.134 Z-0.500 F180.000
G2 X3.266 Y8.818 Z-0.500 I-1.340 J-6.215 K0.000 F180.000
G1 X-8.820 Y-3.268 Z-0.500 F180.000
G3 X-8.410 Y-4.205 Z-0.500 I5.709 J1.941 K0.000 F180.000
G1 X-2.672 Y1.534 Z-0.500 F180.000
G2 X-1.534 Y2.672 Z-0.500 I2.627 J-1.489 K0.000 F180.000
G1 X4.210 Y8.415 Z-0.500 F180.000
G2 X5.066 Y7.925 Z-0.500 I-2.043 J-4.554 K0.000 F180.000
G1 X0.215 Y3.073 Z-0.500 F180.000
G2 X1.292 Y2.803 Z-0.500 I-0.163 J-2.930 K0.000 F180.000
G1 X5.850 Y7.361 Z-0.500 F180.000
G2 X6.566 Y6.730 Z-0.500 I-3.348 J-4.523 K0.000 F180.000
G1 X2.094 Y2.259 Z-0.500 F180.000
G2 X2.689 Y1.506 Z-0.500 I-1.737 J-1.984 K0.000 F180.000
G1 X7.216 Y6.033 Z-0.500 F180.000
G2 X7.798 Y5.268 Z-0.500 I-4.190 J-3.795 K0.000 F180.000
G1 X3.040 Y0.510 Z-0.500 F180.000
G2 X2.930 Y-0.947 Z-0.500 I-2.979 J-0.507 K0.000 F180.000
G1 X8.300 Y4.423 Z-0.500 F180.000
G2 X8.726 Y3.502 Z-0.500 I-5.197 J-2.963 K0.000 F180.000
G1 X-3.509 Y-8.733 Z-0.500 F180.000
G3 X-2.495 Y-9.066 Z-0.500 I2.468 J5.785 K0.000 F180.000
G1 X9.069 Y2.498 Z-0.500 F180.000
G2 X9.302 Y1.384 Z-0.500 I-5.299 J-1.692 K0.000 F180.000
G1 X-1.384 Y-9.302 Z-0.500 F180.000
G3 X-0.137 Y-9.403 Z-0.500 I1.095 J5.817 K0.000 F180.000
G1 X9.405 Y0.140 Z-0.500 F180.000
G2 X9.313 Y-1.299 Z-0.500 I-6.127 J-0.330 K0.000 F180.000
G1 X1.294 Y-9.318 Z-0.500 F180.000
G3 X3.073 Y-8.887 Z-0.500 I-1.063 J8.263 K0.000 F180.000
G1 X8.895 Y-3.064 Z-0.500 F180.000
G2 X6.794 Y-6.512 Z-0.500 I-8.835 J3.019 K0.000 F180.000
G1 X6.794 Y-6.512 Z-1.000 F180.000
G2 X0.399 Y-9.403 Z-1.000 I-6.794 J6.512 K0.000 F180.000
G2 X-0.399 Y9.403 Z-1.000 I-0.399 J9.403 K0.000 F180.000
G2 X6.794 Y-6.512 Z-1.000 I0.399 J-9.403 K0.000 F180.000
G1 X6.794 Y-6.512 Z-1.000 F180.000
G3 X8.895 Y-3.064 Z-1.000 I-6.734 J6.467 K0.000 F180.000
G1 X3.073 Y-8.887 Z-1.000 F180.000
G2 X1.294 Y-9.318 Z-1.000 I-2.841 J7.832 K0.000 F180.000
G1 X9.313 Y-1.299 Z-1.000 F180.000
G3 X9.405 Y0.140 Z-1.000 I-6.034 J1.109 K0.000 F180.000
G1 X-0.137 Y-9.403 Z-1.000 F180.000
G2 X-1.384 Y-9.302 Z-1.000 I-0.152 J5.917 K0.000 F180.000
G1 X9.302 Y1.384 Z-1.000 F180.000
G3 X9.069 Y2.498 Z-1.000 I-5.533 J-0.578 K0.000 F180.000
G1 X-2.495 Y-9.066 Z-1.000 F180.000
G2 X-3.509 Y-8.733 Z-1.000 I1.454 J6.119 K0.000 F180.000
G1 X8.726 Y3.502 Z-1.000 F180.000
G3 X8.300 Y4.423 Z-1.000 I-5.624 J-2.042 K0.000 F180.000
G1 X2.930 Y-0.947 Z-1.000 F180.000
G3 X3.040 Y0.510 Z-1.000 I-2.868 J0.950 K0.000 F180.000
G1 X7.798 Y5.268 Z-1.000 F180.000
G3 X7.216 Y6.033 Z-1.000 I-4.772 J-3.030 K0.000 F180.000
G1 X2.689 Y1.506 Z-1.000 F180.000
G3 X2.094 Y2.259 Z-1.000 I-2.332 J-1.231 K0.000 F180.000
G1 X6.566 Y6.730 Z-1.000 F180.000
G3 X5.850 Y7.361 Z-1.000 I-4.064 J-3.892 K0.000 F180.000
G1 X1.292 Y2.803 Z-1.000 F180.000
G3 X0.215 Y3.073 Z-1.000 I-1.240 J-2.660 K0.000 F180.000
G1 X5.066 Y7.925 Z-1.000 F180.000
G3 X4.210 Y8.415 Z-1.000 I-2.899 J-4.063 K0.000 F180.000
G1 X-1.534 Y2.672 Z-1.000 F180.000
G3 X-2.672 Y1.534 Z-1.000 I1.489 J-2.627 K0.000 F180.000
G1 X-8.410 Y-4.205 Z-1.000 F180.000
G2 X-8.820 Y-3.268 Z-1.000 I5.299 J2.878 K0.000 F180.000
G1 X3.266 Y8.818 Z-1.000 F180.000
G3 X2.235 Y9.134 Z-1.000 I-2.371 J-5.900 K0.000 F180.000
G1 X-9.136 Y-2.237 Z-1.000 F180.000
G2 X-9.339 Y-1.093 Z-1.000 I6.619 J1.765 K0.000 F180.000
G1 X1.097 Y9.343 Z-1.000 F180.000
G3 X-0.191 Y9.403 Z-1.000 I-0.993 J-7.535 K0.000 F180.000
G1 X-9.403 Y0.190 Z-1.000 F180.000
G2 X-9.255 Y1.685 Z-1.000 I6.189 J0.143 K0.000 F180.000
G1 X-1.690 Y9.250 Z-1.000 F180.000
G3 X-3.593 Y8.694 Z-1.000 I1.419 J-8.395 K0.000 F180.000
G3 X-8.686 Y3.601 Z-1.000 I3.543 J-8.637 K0.000 F180.000
G1 X-3.593 Y8.694 Z-1.000 F180.000
G0 Z5.000
G0 X-1.179 Y2.853 Z5.000
G0 X-1.179 Y2.853 Z3.000
G1 X-1.179 Y2.853 Z-1.000 F180.000
G3 X0.000 Y-3.087 Z-1.000 I1.179 J-2.853 K0.000 F180.000
G3 X3.087 Y0.000 Z-1.000 I0.000 J3.087 K0.000 F180.000
G3 X-0.000 Y3.087 Z-1.000 I-3.087 J-0.000 K0.000 F180.000
G3 X-1.179 Y2.853 Z-1.000 I0.000 J-3.087 K0.000 F180.000
G0 Z5.000
G0 X0.947 Y-2.930 Z5.000
G0 X0.947 Y-2.930 Z3.000
G1 X0.947 Y-2.930 Z-1.000 F180.000
G1 X-4.423 Y-8.300 Z-1.000 F180.000
G2 X-5.262 Y-7.792 Z-1.000 I2.561 J5.186 K0.000 F180.000
G1 X-0.510 Y-3.040 Z-1.000 F180.000
G2 X-1.506 Y-2.689 Z-1.000 I0.501 J3.008 K0.000 F180.000
G1 X-6.032 Y-7.215 Z-1.000 F180.000
G2 X-6.734 Y-6.570 Z-1.000 I3.437 J4.447 K0.000 F180.000
G1 X-2.259 Y-2.094 Z-1.000 F180.000
G2 X-2.803 Y-1.292 Z-1.000 I2.262 J2.121 K0.000 F180.000
G1 X-7.365 Y-5.854 Z-1.000 F180.000
G2 X-7.923 Y-5.065 Z-1.000 I4.356 J3.673 K0.000 F180.000
G1 X-3.073 Y-0.215 Z-1.000 F180.000
G2 X-2.672 Y1.534 Z-1.000 I2.927 J0.248 K0.000 F180.000
G1 X-8.410 Y-4.205 Z-1.000 F180.000
G1 X-8.410 Y-4.205 Z-1.500 F180.000
G1 X-2.672 Y1.534 Z-1.500 F180.000
G3 X-3.073 Y-0.215 Z-1.500 I2.525 J-1.501 K0.000 F180.000
G1 X-7.923 Y-5.065 Z-1.500 F180.000
G3 X-7.365 Y-5.854 Z-1.500 I4.914 J2.884 K0.000 F180.000
G1 X-2.803 Y-1.292 Z-1.500 F180.000
G3 X-2.259 Y-2.094 Z-1.500 I2.806 J1.318 K0.000 F180.000
G1 X-6.734 Y-6.570 Z-1.500 F180.000
G3 X-6.032 Y-7.215 Z-1.500 I4.140 J3.802 K0.000 F180.000
G1 X-1.506 Y-2.689 Z-1.500 F180.000
G3 X-0.510 Y-3.040 Z-1.500 I1.496 J2.657 K0.000 F180.000
G1 X-5.262 Y-7.792 Z-1.500 F180.000
G3 X-4.423 Y-8.300 Z-1.500 I3.401 J4.678 K0.000 F180.000
G1 X0.947 Y-2.930 Z-1.500 F180.000
G0 Z5.000
G0 X0.950 Y-2.938 Z5.000
G0 X0.950 Y-2.938 Z3.000
G1 X0.950 Y-2.938 Z-1.500 F180.000
G3 X-0.000 Y3.087 Z-1.500 I-0.950 J2.938 K0.000 F180.000
G3 X0.000 Y-3.087 Z-1.500 I0.000 J-3.087 K0.000 F180.000
G3 X0.950 Y-2.938 Z-1.500 I0.000 J3.087 K0.000 F180.000
G0 Z5.000
G0 X2.896 Y-8.954 Z5.000
G0 X2.896 Y-8.954 Z3.000
G1 X2.896 Y-8.954 Z-1.500 F180.000
G2 X0.399 Y-9.403 Z-1.500 I-2.896 J8.954 K0.000 F180.000
G2 X-0.399 Y9.403 Z-1.500 I-0.399 J9.403 K0.000 F180.000
G2 X2.896 Y-8.954 Z-1.500 I0.399 J-9.403 K0.000 F180.000
G0 Z5.000
G0 X6.794 Y-6.512 Z5.000
G0 X6.794 Y-6.512 Z3.000
G1 X6.794 Y-6.512 Z-1.500 F180.000
G3 X8.895 Y-3.064 Z-1.500 I-6.734 J6.467 K0.000 F180.000
G1 X3.073 Y-8.887 Z-1.500 F180.000
G2 X1.294 Y-9.318 Z-1.500 I-2.841 J7.832 K0.000 F180.000
G1 X9.313 Y-1.299 Z-1.500 F180.000
G3 X9.405 Y0.140 Z-1.500 I-6.034 J1.109 K0.000 F180.000
G1 X-0.137 Y-9.403 Z-1.500 F180.000
G2 X-1.384 Y-9.302 Z-1.500 I-0.152 J5.917 K0.000 F180.000
G1 X9.302 Y1.384 Z-1.500 F180.000
G3 X9.069 Y2.498 Z-1.500 I-5.533 J-0.578 K0.000 F180.000
G1 X-2.495 Y-9.066 Z-1.500 F180.000
G2 X-3.509 Y-8.733 Z-1.500 I1.454 J6.119 K0.000 F180.000
G1 X8.726 Y3.502 Z-1.500 F180.000
G3 X8.300 Y4.423 Z-1.500 I-5.624 J-2.042 K0.000 F180.000
G1 X2.930 Y-0.947 Z-1.500 F180.000
G3 X3.040 Y0.510 Z-1.500 I-2.868 J0.950 K0.000 F180.000
G1 X7.798 Y5.268 Z-1.500 F180.000
G3 X7.216 Y6.033 Z-1.500 I-4.772 J-3.030 K0.000 F180.000
G1 X2.689 Y1.506 Z-1.500 F180.000
G3 X2.094 Y2.259 Z-1.500 I-2.332 J-1.231 K0.000 F180.000
G1 X6.566 Y6.730 Z-1.500 F180.000
G3 X5.850 Y7.361 Z-1.500 I-4.064 J-3.892 K0.000 F180.000
G1 X1.292 Y2.803 Z-1.500 F180.000
G3 X0.215 Y3.073 Z-1.500 I-1.240 J-2.660 K0.000 F180.000
G1 X5.066 Y7.925 Z-1.500 F180.000
G3 X4.210 Y8.415 Z-1.500 I-2.899 J-4.063 K0.000 F180.000
G1 X-1.534 Y2.672 Z-1.500 F180.000
G3 X-2.672 Y1.534 Z-1.500 I1.489 J-2.627 K0.000 F180.000
G1 X-8.410 Y-4.205 Z-1.500 F180.000
G2 X-8.820 Y-3.268 Z-1.500 I5.299 J2.878 K0.000 F180.000
G1 X3.266 Y8.818 Z-1.500 F180.000
G3 X2.235 Y9.134 Z-1.500 I-2.371 J-5.900 K0.000 F180.000
G1 X-9.136 Y-2.237 Z-1.500 F180.000
G2 X-9.339 Y-1.093 Z-1.500 I6.619 J1.765 K0.000 F180.000
G1 X1.097 Y9.343 Z-1.500 F180.000
G3 X-0.191 Y9.403 Z-1.500 I-0.993 J-7.535 K0.000 F180.000
G1 X-9.403 Y0.190 Z-1.500 F180.000
G2 X-9.255 Y1.685 Z-1.500 I6.189 J0.143 K0.000 F180.000
G1 X-1.690 Y9.250 Z-1.500 F180.000
G3 X-3.593 Y8.694 Z-1.500 I1.419 J-8.395 K0.000 F180.000
G3 X-8.686 Y3.601 Z-1.500 I3.543 J-8.637 K0.000 F180.000
G1 X-3.593 Y8.694 Z-1.500 F180.000
G1 X-3.593 Y8.694 Z-2.000 F180.000
G1 X-8.686 Y3.601 Z-2.000 F180.000
G2 X-3.593 Y8.694 Z-2.000 I8.637 J-3.543 K0.000 F180.000
G2 X-1.690 Y9.250 Z-2.000 I3.321 J-7.839 K0.000 F180.000
G1 X-9.255 Y1.685 Z-2.000 F180.000
G3 X-9.403 Y0.190 Z-2.000 I6.041 J-1.352 K0.000 F180.000
G1 X-0.191 Y9.403 Z-2.000 F180.000
G2 X1.097 Y9.343 Z-2.000 I0.295 J-7.594 K0.000 F180.000
G1 X-9.339 Y-1.093 Z-2.000 F180.000
G3 X-9.136 Y-2.237 Z-2.000 I6.822 J0.621 K0.000 F180.000
G1 X2.235 Y9.134 Z-2.000 F180.000
G2 X3.266 Y8.818 Z-2.000 I-1.340 J-6.215 K0.000 F180.000
G1 X-8.820 Y-3.268 Z-2.000 F180.000
G3 X-8.410 Y-4.205 Z-2.000 I5.709 J1.941 K0.000 F180.000
G1 X-2.672 Y1.534 Z-2.000 F180.000
G2 X-1.534 Y2.672 Z-2.000 I2.627 J-1.489 K0.000 F180.000
G1 X4.210 Y8.415 Z-2.000 F180.000
G2 X5.066 Y7.925 Z-2.000 I-2.043 J-4.554 K0.000 F180.000
G1 X0.215 Y3.073 Z-2.000 F180.000
G2 X1.292 Y2.803 Z-2.000 I-0.163 J-2.930 K0.000 F180.000
G1 X5.850 Y7.361 Z-2.000 F180.000
G2 X6.566 Y6.730 Z-2.000 I-3.348 J-4.523 K0.000 F180.000
G1 X2.094 Y2.259 Z-2.000 F180.000
G2 X2.689 Y1.506 Z-2.000 I-1.737 J-1.984 K0.000 F180.000
G1 X7.216 Y6.033 Z-2.000 F180.000
G2 X7.798 Y5.268 Z-2.000 I-4.190 J-3.795 K0.000 F180.000
G1 X3.040 Y0.510 Z-2.000 F180.000
G2 X2.930 Y-0.947 Z-2.000 I-2.979 J-0.507 K0.000 F180.000
G1 X8.300 Y4.423 Z-2.000 F180.000
G2 X8.726 Y3.502 Z-2.000 I-5.197 J-2.963 K0.000 F180.000
G1 X-3.509 Y-8.733 Z-2.000 F180.000
G3 X-2.495 Y-9.066 Z-2.000 I2.468 J5.785 K0.000 F180.000
G1 X9.069 Y2.498 Z-2.000 F180.000
G2 X9.302 Y1.384 Z-2.000 I-5.299 J-1.692 K0.000 F180.000
G1 X-1.384 Y-9.302 Z-2.000 F180.000
G3 X-0.137 Y-9.403 Z-2.000 I1.095 J5.817 K0.000 F180.000
G1 X9.405 Y0.140 Z-2.000 F180.000
G2 X9.313 Y-1.299 Z-2.000 I-6.127 J-0.330 K0.000 F180.000
G1 X1.294 Y-9.318 Z-2.000 F180.000
G3 X3.073 Y-8.887 Z-2.000 I-1.063 J8.263 K0.000 F180.000
G1 X8.895 Y-3.064 Z-2.000 F180.000
G2 X6.794 Y-6.512 Z-2.000 I-8.835 J3.019 K0.000 F180.000
G1 X6.794 Y-6.512 Z-2.000 F180.000
G2 X0.399 Y-9.403 Z-2.000 I-6.794 J6.512 K0.000 F180.000
G2 X-0.399 Y9.403 Z-2.000 I-0.399 J9.403 K0.000 F180.000
G2 X6.794 Y-6.512 Z-2.000 I0.399 J-9.403 K0.000 F180.000
G0 Z5.000
G0 X2.229 Y-2.136 Z5.000
G0 X2.229 Y-2.136 Z3.000
G1 X2.229 Y-2.136 Z-2.000 F180.000
G3 X-0.000 Y3.087 Z-2.000 I-2.229 J2.136 K0.000 F180.000
G3 X0.000 Y-3.087 Z-2.000 I0.000 J-3.087 K0.000 F180.000
G3 X2.229 Y-2.136 Z-2.000 I0.000 J3.087 K0.000 F180.000
G0 Z5.000
G0 X0.947 Y-2.930 Z5.000
G0 X0.947 Y-2.930 Z3.000
G1 X0.947 Y-2.930 Z-2.000 F180.000
G1 X-4.423 Y-8.300 Z-2.000 F180.000
G2 X-5.262 Y-7.792 Z-2.000 I2.561 J5.186 K0.000 F180.000
G1 X-0.510 Y-3.040 Z-2.000 F180.000
G2 X-1.506 Y-2.689 Z-2.000 I0.501 J3.008 K0.000 F180.000
G1 X-6.032 Y-7.215 Z-2.000 F180.000
G2 X-6.734 Y-6.570 Z-2.000 I3.437 J4.447 K0.000 F180.000
G1 X-2.259 Y-2.094 Z-2.000 F180.000
G2 X-2.803 Y-1.292 Z-2.000 I2.262 J2.121 K0.000 F180.000
G1 X-7.365 Y-5.854 Z-2.000 F180.000
G2 X-7.923 Y-5.065 Z-2.000 I4.356 J3.673 K0.000 F180.000
G1 X-3.073 Y-0.215 Z-2.000 F180.000
G2 X-2.672 Y1.534 Z-2.000 I2.927 J0.248 K0.000 F180.000
G1 X-8.410 Y-4.205 Z-2.000 F180.000
G0 Z5.000
G0 Z5.000
(Finish operation: Pocket_Shape)
(Begin postamble)
M5
G17 G90
M2
