(Exported by FreeCAD)
(Post Processor: grbl_post)
(Output Time:2021-11-09 17:26:57.021147)
(Begin preamble)
G17 G90
G21
(Begin operation: Fixture)
(Path: Fixture)
G54
(Finish operation: Fixture)
(Begin operation: TC: 3mm_mill)
(Path: TC: 3mm_mill)
(TC: 3mm_mill)
(Begin toolchange)
( M6 T1.0 )
M3 S0.0
(Finish operation: TC: 3mm_mill)
(Begin operation: Pocket_Shape)
(Path: Pocket_Shape)
(Pocket_Shape)
G0 Z13.000
G0 X-23.991 Y-45.952
G0 Z11.000
G1 X-23.991 Y-45.952 Z6.000 F3000.000
G2 X-21.501 Y-51.962 Z6.000 I-6.009 J-6.010 K0.000 F3000.000
G2 X-30.000 Y-60.460 Z6.000 I-8.499 J0.000 K0.000 F3000.000
G2 X-38.499 Y-51.962 Z6.000 I0.000 J8.499 K0.000 F3000.000
G2 X-23.991 Y-45.952 Z6.000 I8.499 J0.000 K0.000 F3000.000
G0 Z13.000
G0 X-23.991 Y-45.952 Z13.000
G0 X-23.991 Y-45.952 Z11.000
G1 X-23.991 Y-45.952 Z6.000 F3000.000
G3 X-27.308 Y-43.908 Z6.000 I-5.920 J-5.894 K0.000 F3000.000
G1 X-21.946 Y-49.269 Z6.000 F3000.000
G2 X-21.574 Y-50.914 Z6.000 I-6.462 J-2.327 K0.000 F3000.000
G1 X-28.953 Y-43.536 Z6.000 F3000.000
G3 X-30.286 Y-43.475 Z6.000 I-0.932 J-5.846 K0.000 F3000.000
G1 X-21.514 Y-52.247 Z6.000 F3000.000
G2 X-21.627 Y-53.407 Z6.000 I-6.686 J0.064 K0.000 F3000.000
G1 X-31.446 Y-43.588 Z6.000 F3000.000
G3 X-32.469 Y-43.838 Z6.000 I0.860 J-5.752 K0.000 F3000.000
G1 X-21.876 Y-54.431 Z6.000 F3000.000
G2 X-22.218 Y-55.361 Z6.000 I-5.490 J1.490 K0.000 F3000.000
G1 X-33.400 Y-44.180 Z6.000 F3000.000
G3 X-34.250 Y-44.602 Z6.000 I1.553 J-4.195 K0.000 F3000.000
G1 X-22.641 Y-56.212 Z6.000 F3000.000
G2 X-23.147 Y-56.978 Z6.000 I-4.632 J2.512 K0.000 F3000.000
G1 X-35.016 Y-45.109 Z6.000 F3000.000
G3 X-35.715 Y-45.683 Z6.000 I2.930 J-4.281 K0.000 F3000.000
G1 X-23.721 Y-57.677 Z6.000 F3000.000
G2 X-24.361 Y-58.310 Z6.000 I-3.939 J3.339 K0.000 F3000.000
G1 X-36.348 Y-46.322 Z6.000 F3000.000
G3 X-36.916 Y-47.027 Z6.000 I3.747 J-3.596 K0.000 F3000.000
G1 X-25.066 Y-58.878 Z6.000 F3000.000
G2 X-25.845 Y-59.371 Z6.000 I-2.971 J3.832 K0.000 F3000.000
G1 X-37.409 Y-47.807 Z6.000 F3000.000
G3 X-37.824 Y-48.665 Z6.000 I4.694 J-2.801 K0.000 F3000.000
G1 X-26.703 Y-59.786 Z6.000 F3000.000
G2 X-27.641 Y-60.120 Z6.000 I-2.381 J5.195 K0.000 F3000.000
G1 X-38.159 Y-49.603 Z6.000 F3000.000
G3 X-38.390 Y-50.644 Z6.000 I4.908 J-1.637 K0.000 F3000.000
G1 X-28.683 Y-60.352 Z6.000 F3000.000
G2 X-29.854 Y-60.454 Z6.000 I-1.168 J6.641 K0.000 F3000.000
G1 X-38.492 Y-51.815 Z6.000 F3000.000
G3 X-38.404 Y-53.176 Z6.000 I6.717 J-0.247 K0.000 F3000.000
G1 X-31.215 Y-60.365 Z6.000 F3000.000
G2 X-32.905 Y-59.948 Z6.000 I1.042 J7.851 K0.000 F3000.000
G2 X-37.987 Y-54.866 Z6.000 I2.904 J7.986 K0.000 F3000.000
G1 X-32.905 Y-59.948 Z6.000 F3000.000
G0 Z13.000
G0 Z13.000
G0 X-32.905 Y-59.948
G0 X21.569 Y-53.032
G0 X21.569 Y-53.032 Z11.000
G1 X21.569 Y-53.032 Z6.000 F3000.000
G2 X30.000 Y-43.463 Z6.000 I8.431 J1.070 K0.000 F3000.000
G2 X38.499 Y-51.962 Z6.000 I0.000 J-8.499 K0.000 F3000.000
G2 X30.000 Y-60.460 Z6.000 I-8.499 J0.000 K0.000 F3000.000
G2 X21.569 Y-53.032 Z6.000 I0.000 J8.499 K0.000 F3000.000
G0 Z13.000
G0 X22.013 Y-49.057 Z13.000
G0 X22.013 Y-49.057 Z11.000
G1 X22.013 Y-49.057 Z6.000 F3000.000
G1 X27.095 Y-43.975 Z6.000 F3000.000
G3 X22.013 Y-49.057 Z6.000 I2.904 J-7.986 K0.000 F3000.000
G3 X21.596 Y-50.747 Z6.000 I7.434 J-2.732 K0.000 F3000.000
G1 X28.785 Y-43.558 Z6.000 F3000.000
G2 X30.146 Y-43.469 Z6.000 I1.114 J-6.628 K0.000 F3000.000
G1 X21.508 Y-52.108 Z6.000 F3000.000
G3 X21.610 Y-53.279 Z6.000 I6.743 J-0.003 K0.000 F3000.000
G1 X31.317 Y-43.571 Z6.000 F3000.000
G2 X32.359 Y-43.803 Z6.000 I-0.596 J-5.139 K0.000 F3000.000
G1 X21.841 Y-54.320 Z6.000 F3000.000
G3 X22.176 Y-55.258 Z6.000 I5.530 J1.442 K0.000 F3000.000
G1 X33.297 Y-44.137 Z6.000 F3000.000
G2 X34.155 Y-44.552 Z6.000 I-1.944 J-5.109 K0.000 F3000.000
G1 X22.591 Y-56.116 Z6.000 F3000.000
G3 X23.084 Y-56.896 Z6.000 I4.325 J2.191 K0.000 F3000.000
G1 X34.934 Y-45.046 Z6.000 F3000.000
G2 X35.639 Y-45.613 Z6.000 I-2.891 J-4.315 K0.000 F3000.000
G1 X23.652 Y-57.601 Z6.000 F3000.000
G3 X24.285 Y-58.240 Z6.000 I3.972 J3.299 K0.000 F3000.000
G1 X36.279 Y-46.246 Z6.000 F3000.000
G2 X36.853 Y-46.945 Z6.000 I-3.707 J-3.629 K0.000 F3000.000
G1 X24.984 Y-58.814 Z6.000 F3000.000
G3 X25.750 Y-59.321 Z6.000 I3.278 J4.126 K0.000 F3000.000
G1 X37.359 Y-47.711 Z6.000 F3000.000
G2 X37.782 Y-48.562 Z6.000 I-3.772 J-2.404 K0.000 F3000.000
G1 X26.600 Y-59.743 Z6.000 F3000.000
G3 X27.531 Y-60.086 Z6.000 I2.421 J5.147 K0.000 F3000.000
G1 X38.124 Y-49.492 Z6.000 F3000.000
G2 X38.373 Y-50.516 Z6.000 I-5.502 J-1.883 K0.000 F3000.000
G1 X28.554 Y-60.335 Z6.000 F3000.000
G3 X29.714 Y-60.448 Z6.000 I1.224 J6.574 K0.000 F3000.000
G1 X38.486 Y-51.676 Z6.000 F3000.000
G2 X38.426 Y-53.009 Z6.000 I-5.906 J-0.401 K0.000 F3000.000
G1 X31.047 Y-60.387 Z6.000 F3000.000
G3 X32.692 Y-60.015 Z6.000 I-0.682 J6.834 K0.000 F3000.000
G1 X38.054 Y-54.654 Z6.000 F3000.000
G2 X36.009 Y-57.971 Z6.000 I-7.938 J2.603 K0.000 F3000.000
G0 Z13.000
G0 Z13.000
G0 X36.009 Y-57.971
G0 X56.750 Y-7.853
G0 X56.750 Y-7.853 Z11.000
G1 X56.750 Y-7.853 Z6.000 F3000.000
G2 X60.000 Y8.499 Z6.000 I3.250 J7.853 K0.000 F3000.000
G2 X68.499 Y0.000 Z6.000 I0.000 J-8.499 K0.000 F3000.000
G2 X60.000 Y-8.499 Z6.000 I-8.499 J0.000 K0.000 F3000.000
G2 X56.750 Y-7.853 Z6.000 I0.000 J8.499 K0.000 F3000.000
G0 Z13.000
G0 X66.009 Y-6.009 Z13.000
G0 X66.009 Y-6.009 Z11.000
G1 X66.009 Y-6.009 Z6.000 F3000.000
G3 X68.054 Y-2.692 Z6.000 I-5.894 J5.920 K0.000 F3000.000
G1 X62.692 Y-8.054 Z6.000 F3000.000
G2 X61.047 Y-8.426 Z6.000 I-2.327 J6.462 K0.000 F3000.000
G1 X68.426 Y-1.047 Z6.000 F3000.000
G3 X68.486 Y0.286 Z6.000 I-5.846 J0.932 K0.000 F3000.000
G1 X59.714 Y-8.486 Z6.000 F3000.000
G2 X58.554 Y-8.373 Z6.000 I0.064 J6.686 K0.000 F3000.000
G1 X68.373 Y1.446 Z6.000 F3000.000
G3 X68.124 Y2.469 Z6.000 I-5.752 J-0.860 K0.000 F3000.000
G1 X57.531 Y-8.124 Z6.000 F3000.000
G2 X56.600 Y-7.782 Z6.000 I1.490 J5.490 K0.000 F3000.000
G1 X67.782 Y3.400 Z6.000 F3000.000
G3 X67.359 Y4.250 Z6.000 I-4.194 J-1.553 K0.000 F3000.000
G1 X55.750 Y-7.359 Z6.000 F3000.000
G2 X54.984 Y-6.853 Z6.000 I2.512 J4.632 K0.000 F3000.000
G1 X66.853 Y5.016 Z6.000 F3000.000
G3 X66.279 Y5.715 Z6.000 I-4.281 J-2.930 K0.000 F3000.000
G1 X54.285 Y-6.279 Z6.000 F3000.000
G2 X53.652 Y-5.639 Z6.000 I3.339 J3.939 K0.000 F3000.000
G1 X65.639 Y6.348 Z6.000 F3000.000
G3 X64.934 Y6.916 Z6.000 I-3.596 J-3.747 K0.000 F3000.000
G1 X53.084 Y-4.934 Z6.000 F3000.000
G2 X52.591 Y-4.155 Z6.000 I3.832 J2.971 K0.000 F3000.000
G1 X64.155 Y7.409 Z6.000 F3000.000
G3 X63.297 Y7.824 Z6.000 I-2.801 J-4.694 K0.000 F3000.000
G1 X52.176 Y-3.297 Z6.000 F3000.000
G2 X51.841 Y-2.359 Z6.000 I5.195 J2.381 K0.000 F3000.000
G1 X62.359 Y8.159 Z6.000 F3000.000
G3 X61.317 Y8.390 Z6.000 I-1.637 J-4.908 K0.000 F3000.000
G1 X51.610 Y-1.317 Z6.000 F3000.000
G2 X51.508 Y-0.146 Z6.000 I6.641 J1.168 K0.000 F3000.000
G1 X60.146 Y8.492 Z6.000 F3000.000
G3 X58.785 Y8.404 Z6.000 I-0.247 J-6.717 K0.000 F3000.000
G1 X51.596 Y1.215 Z6.000 F3000.000
G2 X52.013 Y2.905 Z6.000 I7.851 J-1.042 K0.000 F3000.000
G2 X57.095 Y7.987 Z6.000 I7.986 J-2.904 K0.000 F3000.000
G1 X52.013 Y2.905 Z6.000 F3000.000
G0 Z13.000
G0 Z13.000
G0 X52.013 Y2.905
G0 X33.479 Y44.208
G0 X33.479 Y44.208 Z11.000
G1 X33.479 Y44.208 Z6.000 F3000.000
G2 X30.000 Y43.463 Z6.000 I-3.479 J7.754 K0.000 F3000.000
G2 X30.000 Y60.460 Z6.000 I0.000 J8.499 K0.000 F3000.000
G2 X33.479 Y44.208 Z6.000 I0.000 J-8.499 K0.000 F3000.000
G0 Z13.000
G0 X36.009 Y45.952 Z13.000
G0 X36.009 Y45.952 Z11.000
G1 X36.009 Y45.952 Z6.000 F3000.000
G3 X38.054 Y49.269 Z6.000 I-5.894 J5.920 K0.000 F3000.000
G1 X32.692 Y43.908 Z6.000 F3000.000
G2 X31.047 Y43.536 Z6.000 I-2.327 J6.462 K0.000 F3000.000
G1 X38.426 Y50.914 Z6.000 F3000.000
G3 X38.486 Y52.247 Z6.000 I-5.846 J0.932 K0.000 F3000.000
G1 X29.714 Y43.475 Z6.000 F3000.000
G2 X28.554 Y43.588 Z6.000 I0.064 J6.686 K0.000 F3000.000
G1 X38.373 Y53.407 Z6.000 F3000.000
G3 X38.124 Y54.431 Z6.000 I-5.752 J-0.860 K0.000 F3000.000
G1 X27.531 Y43.838 Z6.000 F3000.000
G2 X26.600 Y44.180 Z6.000 I1.490 J5.490 K0.000 F3000.000
G1 X37.782 Y55.361 Z6.000 F3000.000
G3 X37.359 Y56.212 Z6.000 I-4.194 J-1.553 K0.000 F3000.000
G1 X25.750 Y44.602 Z6.000 F3000.000
G2 X24.984 Y45.109 Z6.000 I2.512 J4.632 K0.000 F3000.000
G1 X36.853 Y56.978 Z6.000 F3000.000
G3 X36.279 Y57.677 Z6.000 I-4.281 J-2.930 K0.000 F3000.000
G1 X24.285 Y45.683 Z6.000 F3000.000
G2 X23.652 Y46.322 Z6.000 I3.339 J3.939 K0.000 F3000.000
G1 X35.639 Y58.310 Z6.000 F3000.000
G3 X34.934 Y58.878 Z6.000 I-3.596 J-3.747 K0.000 F3000.000
G1 X23.084 Y47.027 Z6.000 F3000.000
G2 X22.591 Y47.807 Z6.000 I3.832 J2.971 K0.000 F3000.000
G1 X34.155 Y59.371 Z6.000 F3000.000
G3 X33.297 Y59.786 Z6.000 I-2.801 J-4.694 K0.000 F3000.000
G1 X22.176 Y48.665 Z6.000 F3000.000
G2 X21.841 Y49.603 Z6.000 I5.195 J2.381 K0.000 F3000.000
G1 X32.359 Y60.120 Z6.000 F3000.000
G3 X31.317 Y60.352 Z6.000 I-1.637 J-4.908 K0.000 F3000.000
G1 X21.610 Y50.644 Z6.000 F3000.000
G2 X21.508 Y51.815 Z6.000 I6.641 J1.168 K0.000 F3000.000
G1 X30.146 Y60.454 Z6.000 F3000.000
G3 X28.785 Y60.365 Z6.000 I-0.247 J-6.717 K0.000 F3000.000
G1 X21.596 Y53.176 Z6.000 F3000.000
G2 X22.013 Y54.866 Z6.000 I7.851 J-1.042 K0.000 F3000.000
G2 X27.095 Y59.948 Z6.000 I7.986 J-2.904 K0.000 F3000.000
G1 X22.013 Y54.866 Z6.000 F3000.000
G0 Z13.000
G0 Z13.000
G0 X22.013 Y54.866
G0 X-21.515 Y52.435
G0 X-21.515 Y52.435 Z11.000
G1 X-21.515 Y52.435 Z6.000 F3000.000
G2 X-21.501 Y51.962 Z6.000 I-8.485 J-0.474 K0.000 F3000.000
G2 X-38.499 Y51.962 Z6.000 I-8.499 J0.000 K0.000 F3000.000
G2 X-21.515 Y52.435 Z6.000 I8.499 J0.000 K0.000 F3000.000
G0 Z13.000
G0 X-23.991 Y57.971 Z13.000
G0 X-23.991 Y57.971 Z11.000
G1 X-23.991 Y57.971 Z6.000 F3000.000
G3 X-27.308 Y60.015 Z6.000 I-5.920 J-5.894 K0.000 F3000.000
G1 X-21.946 Y54.654 Z6.000 F3000.000
G2 X-21.574 Y53.009 Z6.000 I-6.462 J-2.327 K0.000 F3000.000
G1 X-28.953 Y60.387 Z6.000 F3000.000
G3 X-30.286 Y60.448 Z6.000 I-0.932 J-5.846 K0.000 F3000.000
G1 X-21.514 Y51.676 Z6.000 F3000.000
G2 X-21.627 Y50.516 Z6.000 I-6.686 J0.064 K0.000 F3000.000
G1 X-31.446 Y60.335 Z6.000 F3000.000
G3 X-32.469 Y60.086 Z6.000 I0.860 J-5.752 K0.000 F3000.000
G1 X-21.876 Y49.492 Z6.000 F3000.000
G2 X-22.218 Y48.562 Z6.000 I-5.490 J1.490 K0.000 F3000.000
G1 X-33.400 Y59.743 Z6.000 F3000.000
G3 X-34.250 Y59.321 Z6.000 I1.553 J-4.195 K0.000 F3000.000
G1 X-22.641 Y47.711 Z6.000 F3000.000
G2 X-23.147 Y46.945 Z6.000 I-4.632 J2.512 K0.000 F3000.000
G1 X-35.016 Y58.814 Z6.000 F3000.000
G3 X-35.715 Y58.240 Z6.000 I2.930 J-4.281 K0.000 F3000.000
G1 X-23.721 Y46.246 Z6.000 F3000.000
G2 X-24.361 Y45.613 Z6.000 I-3.939 J3.339 K0.000 F3000.000
G1 X-36.348 Y57.601 Z6.000 F3000.000
G3 X-36.916 Y56.896 Z6.000 I3.747 J-3.596 K0.000 F3000.000
G1 X-25.066 Y45.046 Z6.000 F3000.000
G2 X-25.845 Y44.552 Z6.000 I-2.971 J3.832 K0.000 F3000.000
G1 X-37.409 Y56.116 Z6.000 F3000.000
G3 X-37.824 Y55.258 Z6.000 I4.694 J-2.801 K0.000 F3000.000
G1 X-26.703 Y44.137 Z6.000 F3000.000
G2 X-27.641 Y43.803 Z6.000 I-2.381 J5.195 K0.000 F3000.000
G1 X-38.159 Y54.320 Z6.000 F3000.000
G3 X-38.390 Y53.279 Z6.000 I4.908 J-1.637 K0.000 F3000.000
G1 X-28.683 Y43.571 Z6.000 F3000.000
G2 X-29.854 Y43.469 Z6.000 I-1.168 J6.641 K0.000 F3000.000
G1 X-38.492 Y52.108 Z6.000 F3000.000
G3 X-38.404 Y50.747 Z6.000 I6.717 J-0.247 K0.000 F3000.000
G1 X-31.215 Y43.558 Z6.000 F3000.000
G2 X-32.905 Y43.975 Z6.000 I1.042 J7.851 K0.000 F3000.000
G2 X-37.987 Y49.057 Z6.000 I2.904 J7.986 K0.000 F3000.000
G1 X-32.905 Y43.975 Z6.000 F3000.000
G0 Z13.000
G0 Z13.000
G0 X-32.905 Y43.975
G0 X-55.542 Y7.235
G0 X-55.542 Y7.235 Z11.000
G1 X-55.542 Y7.235 Z6.000 F3000.000
G2 X-60.000 Y-8.499 Z6.000 I-4.458 J-7.235 K0.000 F3000.000
G2 X-60.000 Y8.499 Z6.000 I0.000 J8.499 K0.000 F3000.000
G2 X-55.542 Y7.235 Z6.000 I0.000 J-8.499 K0.000 F3000.000
G0 Z13.000
G0 X-67.987 Y2.905 Z13.000
G0 X-67.987 Y2.905 Z11.000
G1 X-67.987 Y2.905 Z6.000 F3000.000
G1 X-62.905 Y7.987 Z6.000 F3000.000
G3 X-67.987 Y2.905 Z6.000 I2.904 J-7.986 K0.000 F3000.000
G3 X-68.404 Y1.215 Z6.000 I7.434 J-2.732 K0.000 F3000.000
G1 X-61.215 Y8.404 Z6.000 F3000.000
G2 X-59.854 Y8.492 Z6.000 I1.114 J-6.628 K0.000 F3000.000
G1 X-68.492 Y-0.146 Z6.000 F3000.000
G3 X-68.390 Y-1.317 Z6.000 I6.743 J-0.003 K0.000 F3000.000
G1 X-58.683 Y8.390 Z6.000 F3000.000
G2 X-57.641 Y8.159 Z6.000 I-0.596 J-5.139 K0.000 F3000.000
G1 X-68.159 Y-2.359 Z6.000 F3000.000
G3 X-67.824 Y-3.297 Z6.000 I5.530 J1.442 K0.000 F3000.000
G1 X-56.703 Y7.824 Z6.000 F3000.000
G2 X-55.845 Y7.409 Z6.000 I-1.944 J-5.109 K0.000 F3000.000
G1 X-67.409 Y-4.155 Z6.000 F3000.000
G3 X-66.916 Y-4.934 Z6.000 I4.325 J2.191 K0.000 F3000.000
G1 X-55.066 Y6.916 Z6.000 F3000.000
G2 X-54.361 Y6.348 Z6.000 I-2.891 J-4.315 K0.000 F3000.000
G1 X-66.348 Y-5.639 Z6.000 F3000.000
G3 X-65.715 Y-6.279 Z6.000 I3.972 J3.299 K0.000 F3000.000
G1 X-53.721 Y5.715 Z6.000 F3000.000
G2 X-53.147 Y5.016 Z6.000 I-3.707 J-3.629 K0.000 F3000.000
G1 X-65.016 Y-6.853 Z6.000 F3000.000
G3 X-64.250 Y-7.359 Z6.000 I3.278 J4.126 K0.000 F3000.000
G1 X-52.641 Y4.250 Z6.000 F3000.000
G2 X-52.218 Y3.400 Z6.000 I-3.772 J-2.403 K0.000 F3000.000
G1 X-63.400 Y-7.782 Z6.000 F3000.000
G3 X-62.469 Y-8.124 Z6.000 I2.421 J5.147 K0.000 F3000.000
G1 X-51.876 Y2.469 Z6.000 F3000.000
G2 X-51.627 Y1.446 Z6.000 I-5.502 J-1.883 K0.000 F3000.000
G1 X-61.446 Y-8.373 Z6.000 F3000.000
G3 X-60.286 Y-8.486 Z6.000 I1.224 J6.574 K0.000 F3000.000
G1 X-51.514 Y0.286 Z6.000 F3000.000
G2 X-51.574 Y-1.047 Z6.000 I-5.906 J-0.401 K0.000 F3000.000
G1 X-58.953 Y-8.426 Z6.000 F3000.000
G3 X-57.308 Y-8.054 Z6.000 I-0.682 J6.834 K0.000 F3000.000
G1 X-51.946 Y-2.692 Z6.000 F3000.000
G2 X-53.991 Y-6.009 Z6.000 I-7.938 J2.603 K0.000 F3000.000
G0 Z13.000
G0 Z13.000
(Finish operation: Pocket_Shape)
(Begin operation: Profile)
(Path: Profile)
(Profile)
(Compensated Tool Path. Diameter: 3.0)
G0 Z13.000
G0 X64.700 Y64.700
G0 Z11.000
G1 X64.700 Y64.700 Z8.000 F3000.000
G2 X5.443 Y-91.338 Z8.000 I-64.700 J-64.700 K0.000 F3000.000
G2 X-5.443 Y91.338 Z8.000 I-5.443 J91.338 K0.000 F3000.000
G2 X64.700 Y64.700 Z8.000 I5.443 J-91.338 K0.000 F3000.000
G1 X64.700 Y64.700 Z7.000 F3000.000
G2 X5.443 Y-91.338 Z7.000 I-64.700 J-64.700 K0.000 F3000.000
G2 X-5.443 Y91.338 Z7.000 I-5.443 J91.338 K0.000 F3000.000
G2 X64.700 Y64.700 Z7.000 I5.443 J-91.338 K0.000 F3000.000
G1 X64.700 Y64.700 Z6.000 F3000.000
G2 X5.443 Y-91.338 Z6.000 I-64.700 J-64.700 K0.000 F3000.000
G2 X-5.443 Y91.338 Z6.000 I-5.443 J91.338 K0.000 F3000.000
G2 X64.700 Y64.700 Z6.000 I5.443 J-91.338 K0.000 F3000.000
G1 X64.700 Y64.700 Z5.000 F3000.000
G2 X5.443 Y-91.338 Z5.000 I-64.700 J-64.700 K0.000 F3000.000
G2 X-5.443 Y91.338 Z5.000 I-5.443 J91.338 K0.000 F3000.000
G2 X64.700 Y64.700 Z5.000 I5.443 J-91.338 K0.000 F3000.000
G1 X64.700 Y64.700 Z4.000 F3000.000
G2 X5.443 Y-91.338 Z4.000 I-64.700 J-64.700 K0.000 F3000.000
G2 X-5.443 Y91.338 Z4.000 I-5.443 J91.338 K0.000 F3000.000
G2 X64.700 Y64.700 Z4.000 I5.443 J-91.338 K0.000 F3000.000
G1 X64.700 Y64.700 Z3.000 F3000.000
G2 X5.443 Y-91.338 Z3.000 I-64.700 J-64.700 K0.000 F3000.000
G2 X-5.443 Y91.338 Z3.000 I-5.443 J91.338 K0.000 F3000.000
G2 X64.700 Y64.700 Z3.000 I5.443 J-91.338 K0.000 F3000.000
G1 X64.700 Y64.700 Z2.000 F3000.000
G2 X5.443 Y-91.338 Z2.000 I-64.700 J-64.700 K0.000 F3000.000
G2 X-5.443 Y91.338 Z2.000 I-5.443 J91.338 K0.000 F3000.000
G2 X64.700 Y64.700 Z2.000 I5.443 J-91.338 K0.000 F3000.000
G1 X64.700 Y64.700 Z1.000 F3000.000
G2 X5.443 Y-91.338 Z1.000 I-64.700 J-64.700 K0.000 F3000.000
G2 X-5.443 Y91.338 Z1.000 I-5.443 J91.338 K0.000 F3000.000
G2 X64.700 Y64.700 Z1.000 I5.443 J-91.338 K0.000 F3000.000
G1 X64.700 Y64.700 Z0.000 F3000.000
G2 X5.443 Y-91.338 Z0.000 I-64.700 J-64.700 K0.000 F3000.000
G2 X-5.443 Y91.338 Z0.000 I-5.443 J91.338 K0.000 F3000.000
G2 X64.700 Y64.700 Z0.000 I5.443 J-91.338 K0.000 F3000.000
G0 Z13.000
G0 Z13.000
(Finish operation: Profile)
(Begin postamble)
M5
G17 G90
M2
