(Exported by FreeCAD)
(Post Processor: grbl_post)
(Output Time:2021-11-09 17:26:43.369650)
(Begin preamble)
G17 G90
G21
(Begin operation: Fixture)
(Path: Fixture)
G54
(Finish operation: Fixture)
(Begin operation: TC: 3mm_drill001)
(Path: TC: 3mm_drill001)
(TC: 3mm_drill001)
(Begin toolchange)
( M6 T2.0 )
M3 S0.0
(Finish operation: TC: 3mm_drill001)
(Begin operation: Drilling)
(Path: Drilling)
(Drilling)
(Begin Drilling)
G0 Z13.000
G90
G99
G81 X-30.000 Y51.962 Z0.000 F3000.000 R10.000
G80
G0 Z11.000
G81 X30.000 Y51.962 Z0.000 F3000.000 R10.000
G80
G0 Z11.000
G81 X60.000 Y0.000 Z0.000 F3000.000 R10.000
G80
G0 Z11.000
G81 X30.000 Y-51.962 Z0.000 F3000.000 R10.000
G80
G0 Z11.000
G81 X-30.000 Y-51.962 Z0.000 F3000.000 R10.000
G80
G0 Z11.000
G81 X-60.000 Y0.000 Z0.000 F3000.000 R10.000
G80
G0 Z11.000
G81 X-85.000 Y-85.000 Z0.000 F3000.000 R10.000
G80
G0 Z11.000
G81 X-85.000 Y85.000 Z0.000 F3000.000 R10.000
G80
G0 Z11.000
G81 X85.000 Y85.000 Z0.000 F3000.000 R10.000
G80
G0 Z11.000
G81 X85.000 Y-85.000 Z0.000 F3000.000 R10.000
G80
G0 Z11.000
G0 Z13.000
(Finish operation: Drilling)
(Begin operation: Pocket_Shape001)
(Path: Pocket_Shape001)
(Pocket_Shape001)
G0 Z13.000
G0 X26.551 Y26.552
G0 Z11.000
G1 X26.551 Y26.552 Z7.000 F3000.000
G2 X37.550 Y0.000 Z7.000 I-26.551 J-26.552 K0.000 F3000.000
G2 X-37.550 Y0.000 Z7.000 I-37.550 J0.000 K0.000 F3000.000
G2 X26.551 Y26.552 Z7.000 I37.550 J0.000 K0.000 F3000.000
G0 Z13.000
G0 X27.141 Y25.949 Z13.000
G0 X27.141 Y25.949 Z11.000
G1 X27.141 Y25.949 Z7.000 F3000.000
G3 X20.129 Y31.688 Z7.000 I-26.680 J-25.445 K0.000 F3000.000
G1 X31.688 Y20.129 Z7.000 F3000.000
G2 X33.394 Y17.151 Z7.000 I-23.185 J-15.256 K0.000 F3000.000
G1 X17.151 Y33.394 Z7.000 F3000.000
G3 X14.734 Y34.538 Z7.000 I-10.542 J-19.146 K0.000 F3000.000
G1 X34.538 Y14.734 Z7.000 F3000.000
G2 X35.344 Y12.655 Z7.000 I-22.745 J-10.018 K0.000 F3000.000
G1 X12.655 Y35.344 Z7.000 F3000.000
G3 X10.761 Y35.965 Z7.000 I-7.858 J-20.771 K0.000 F3000.000
G1 X35.965 Y10.761 Z7.000 F3000.000
G2 X36.443 Y9.010 Z7.000 I-19.259 J-6.204 K0.000 F3000.000
G1 X9.010 Y36.443 Z7.000 F3000.000
G3 X7.370 Y36.810 Z7.000 I-4.901 J-18.068 K0.000 F3000.000
G1 X36.810 Y7.370 Z7.000 F3000.000
G2 X37.086 Y5.821 Z7.000 I-17.107 J-3.850 K0.000 F3000.000
G1 X5.821 Y37.086 Z7.000 F3000.000
G3 X4.347 Y37.288 Z7.000 I-2.985 J-16.317 K0.000 F3000.000
G1 X37.288 Y4.347 Z7.000 F3000.000
G2 X37.428 Y2.934 Z7.000 I-15.655 J-2.261 K0.000 F3000.000
G1 X23.575 Y16.787 Z7.000 F3000.000
G2 X25.626 Y13.463 Z7.000 I-21.856 J-15.783 K0.000 F3000.000
G1 X37.514 Y1.575 Z7.000 F3000.000
G1 X37.543 Y0.273 Z7.000 F3000.000
G1 X26.736 Y11.081 Z7.000 F3000.000
G2 X27.501 Y9.043 Z7.000 I-22.238 J-9.511 K0.000 F3000.000
G1 X37.528 Y-0.984 Z7.000 F3000.000
G2 X37.477 Y-2.206 Z7.000 I-13.630 J-0.045 K0.000 F3000.000
G1 X28.020 Y7.251 Z7.000 F3000.000
G2 X28.393 Y5.604 Z7.000 I-15.697 J-4.426 K0.000 F3000.000
G1 X37.395 Y-3.397 Z7.000 F3000.000
G1 X37.266 Y-4.541 Z7.000 F3000.000
G1 X28.653 Y4.072 Z7.000 F3000.000
G2 X28.822 Y2.630 Z7.000 I-13.892 J-2.359 K0.000 F3000.000
G1 X37.112 Y-5.659 Z7.000 F3000.000
G2 X36.936 Y-6.756 Z7.000 I-12.298 J1.412 K0.000 F3000.000
G1 X28.917 Y1.263 Z7.000 F3000.000
G2 X28.949 Y-0.043 Z7.000 I-16.145 J-1.055 K0.000 F3000.000
G1 X36.719 Y-7.813 Z7.000 F3000.000
G0 Z13.000
G0 X28.316 Y-6.025 Z13.000
G0 X28.316 Y-6.025 Z11.000
G1 X28.316 Y-6.025 Z7.000 F3000.000
G3 X28.950 Y0.000 Z7.000 I-28.316 J6.025 K0.000 F3000.000
G3 X-28.949 Y0.040 Z7.000 I-28.950 J0.000 K0.000 F3000.000
G3 X28.316 Y-6.025 Z7.000 I28.950 J-0.040 K0.000 F3000.000
G0 Z13.000
G0 X28.949 Y-0.043 Z13.000
G0 X28.949 Y-0.043 Z11.000
G1 X28.949 Y-0.043 Z7.000 F3000.000
G1 X36.719 Y-7.813 Z7.000 F3000.000
G2 X36.484 Y-8.850 Z7.000 I-11.664 J2.105 K0.000 F3000.000
G1 X28.916 Y-1.282 Z7.000 F3000.000
G2 X28.835 Y-2.474 Z7.000 I-11.797 J0.209 K0.000 F3000.000
G1 X36.227 Y-9.866 Z7.000 F3000.000
G2 X35.938 Y-10.850 Z7.000 I-11.094 J2.730 K0.000 F3000.000
G1 X28.713 Y-3.625 Z7.000 F3000.000
G2 X28.556 Y-4.741 Z7.000 I-11.488 J1.046 K0.000 F3000.000
G1 X35.636 Y-11.820 Z7.000 F3000.000
G1 X35.306 Y-12.763 Z7.000 F3000.000
G1 X28.354 Y-5.812 Z7.000 F3000.000
G2 X28.118 Y-6.848 Z7.000 I-10.304 J1.802 K0.000 F3000.000
G1 X34.957 Y-13.687 Z7.000 F3000.000
G1 X34.593 Y-14.596 Z7.000 F3000.000
G1 X27.857 Y-7.860 Z7.000 F3000.000
G1 X27.562 Y-8.838 Z7.000 F3000.000
G1 X34.201 Y-15.477 Z7.000 F3000.000
G2 X33.802 Y-16.350 Z7.000 I-9.920 J4.014 K0.000 F3000.000
G1 X27.236 Y-9.784 Z7.000 F3000.000
G2 X26.891 Y-10.712 Z7.000 I-9.499 J3.004 K0.000 F3000.000
G1 X33.372 Y-17.193 Z7.000 F3000.000
G2 X32.933 Y-18.027 Z7.000 I-9.507 J4.466 K0.000 F3000.000
G1 X26.513 Y-11.607 Z7.000 F3000.000
G2 X26.112 Y-12.479 Z7.000 I-8.749 J3.497 K0.000 F3000.000
G1 X32.473 Y-18.839 Z7.000 F3000.000
G2 X31.997 Y-19.637 Z7.000 I-9.115 J4.895 K0.000 F3000.000
G1 X25.696 Y-13.335 Z7.000 F3000.000
G2 X25.243 Y-14.155 Z7.000 I-16.272 J8.455 K0.000 F3000.000
G1 X31.506 Y-20.418 Z7.000 F3000.000
G2 X30.995 Y-21.180 Z7.000 I-8.740 J5.305 K0.000 F3000.000
G1 X24.777 Y-14.962 Z7.000 F3000.000
G1 X24.287 Y-15.745 Z7.000 F3000.000
G1 X30.474 Y-21.932 Z7.000 F3000.000
G2 X29.930 Y-22.660 Z7.000 I-8.378 J5.701 K0.000 F3000.000
G1 X23.773 Y-16.504 Z7.000 F3000.000
G2 X23.248 Y-17.252 Z7.000 I-19.113 J12.873 K0.000 F3000.000
G1 X29.379 Y-23.383 Z7.000 F3000.000
G2 X28.801 Y-24.078 Z7.000 I-8.025 J6.087 K0.000 F3000.000
G1 X22.689 Y-17.965 Z7.000 F3000.000
G2 X22.120 Y-18.669 Z7.000 I-7.265 J5.299 K0.000 F3000.000
G1 X28.220 Y-24.769 Z7.000 F3000.000
G1 X27.612 Y-25.434 Z7.000 F3000.000
G1 X21.526 Y-19.348 Z7.000 F3000.000
G2 X20.912 Y-20.007 Z7.000 I-6.786 J5.698 K0.000 F3000.000
G1 X26.998 Y-26.092 Z7.000 F3000.000
G1 X26.361 Y-26.729 Z7.000 F3000.000
G1 X20.284 Y-20.652 Z7.000 F3000.000
G2 X19.627 Y-21.268 Z7.000 I-6.694 J6.485 K0.000 F3000.000
G1 X25.715 Y-27.355 Z7.000 F3000.000
G1 X25.050 Y-27.963 Z7.000 F3000.000
G1 X18.960 Y-21.873 Z7.000 F3000.000
G1 X18.265 Y-22.450 Z7.000 F3000.000
G1 X24.371 Y-28.557 Z7.000 F3000.000
G1 X23.677 Y-29.136 Z7.000 F3000.000
G1 X17.553 Y-23.012 Z7.000 F3000.000
G1 X16.823 Y-23.555 Z7.000 F3000.000
G1 X22.966 Y-29.697 Z7.000 F3000.000
G1 X22.243 Y-30.247 Z7.000 F3000.000
G1 X16.067 Y-24.071 Z7.000 F3000.000
G2 X15.299 Y-24.576 Z7.000 I-6.044 J8.351 K0.000 F3000.000
G1 X21.498 Y-30.775 Z7.000 F3000.000
G1 X20.746 Y-31.296 Z7.000 F3000.000
G1 X14.498 Y-25.048 Z7.000 F3000.000
G2 X13.682 Y-25.505 Z7.000 I-4.890 J7.779 K0.000 F3000.000
G1 X19.967 Y-31.790 Z7.000 F3000.000
G2 X19.183 Y-32.278 Z7.000 I-5.828 J8.490 K0.000 F3000.000
G1 X12.844 Y-25.940 Z7.000 F3000.000
G2 X11.977 Y-26.345 Z7.000 I-4.488 J8.466 K0.000 F3000.000
G1 X18.371 Y-32.739 Z7.000 F3000.000
G2 X17.549 Y-33.190 Z7.000 I-5.440 J8.915 K0.000 F3000.000
G1 X11.095 Y-26.736 Z7.000 F3000.000
G1 X10.180 Y-27.094 Z7.000 F3000.000
G1 X16.706 Y-33.620 Z7.000 F3000.000
G2 X15.847 Y-34.033 Z7.000 I-5.031 J9.362 K0.000 F3000.000
G1 X9.240 Y-27.426 Z7.000 F3000.000
G2 X8.280 Y-27.739 Z7.000 I-3.872 J10.247 K0.000 F3000.000
G1 X14.972 Y-34.431 Z7.000 F3000.000
G2 X14.071 Y-34.803 Z7.000 I-4.597 J9.837 K0.000 F3000.000
G1 X7.280 Y-28.012 Z7.000 F3000.000
G2 X6.252 Y-28.257 Z7.000 I-2.909 J9.912 K0.000 F3000.000
G1 X13.162 Y-35.167 Z7.000 F3000.000
G1 X12.219 Y-35.497 Z7.000 F3000.000
G1 X5.198 Y-28.476 Z7.000 F3000.000
G1 X4.102 Y-28.653 Z7.000 F3000.000
G1 X11.263 Y-35.814 Z7.000 F3000.000
G1 X10.285 Y-36.108 Z7.000 F3000.000
G1 X2.965 Y-28.788 Z7.000 F3000.000
G2 X1.790 Y-28.886 Z7.000 I-1.537 J11.367 K0.000 F3000.000
G1 X9.279 Y-36.375 Z7.000 F3000.000
G2 X8.259 Y-36.628 Z7.000 I-3.322 J11.233 K0.000 F3000.000
G1 X0.571 Y-28.940 Z7.000 F3000.000
G1 X-0.701 Y-28.940 Z7.000 F3000.000
G1 X7.203 Y-36.844 Z7.000 F3000.000
G2 X6.124 Y-37.038 Z7.000 I-2.699 J11.914 K0.000 F3000.000
G1 X-2.042 Y-28.873 Z7.000 F3000.000
G2 X-3.451 Y-28.736 Z7.000 I0.635 J13.924 K0.000 F3000.000
G1 X5.024 Y-37.212 Z7.000 F3000.000
G1 X3.880 Y-37.340 Z7.000 F3000.000
G1 X-4.943 Y-28.517 Z7.000 F3000.000
G2 X-6.537 Y-28.196 Z7.000 I2.319 J15.609 K0.000 F3000.000
G1 X2.710 Y-37.443 Z7.000 F3000.000
G2 X1.510 Y-37.516 Z7.000 I-1.413 J13.321 K0.000 F3000.000
G1 X-8.262 Y-27.744 Z7.000 F3000.000
G2 X-10.188 Y-27.090 Z7.000 I5.359 J18.956 K0.000 F3000.000
G1 X0.265 Y-37.544 Z7.000 F3000.000
G2 X-1.025 Y-37.527 Z7.000 I-0.455 J14.369 K0.000 F3000.000
G1 X-12.396 Y-26.156 Z7.000 F3000.000
G2 X-15.175 Y-24.649 Z7.000 I11.082 J23.760 K0.000 F3000.000
G1 X-2.358 Y-37.466 Z7.000 F3000.000
G0 Z13.000
G0 X-9.992 Y-36.196 Z13.000
G0 X-9.992 Y-36.196 Z11.000
G1 X-9.992 Y-36.196 Z7.000 F3000.000
G1 X-36.196 Y-9.992 Z7.000 F3000.000
G3 X-35.634 Y-11.827 Z7.000 I20.710 J5.341 K0.000 F3000.000
G1 X-11.827 Y-35.634 Z7.000 F3000.000
G2 X-13.836 Y-34.898 Z7.000 I7.186 J22.729 K0.000 F3000.000
G1 X-34.898 Y-13.836 Z7.000 F3000.000
G3 X-33.928 Y-16.078 Z7.000 I25.450 J9.673 K0.000 F3000.000
G1 X-16.078 Y-33.928 Z7.000 F3000.000
G2 X-18.763 Y-32.516 Z7.000 I12.666 J27.337 K0.000 F3000.000
G1 X-32.516 Y-18.763 Z7.000 F3000.000
G3 X-30.051 Y-22.501 Z7.000 I29.034 J16.465 K0.000 F3000.000
G1 X-22.501 Y-30.051 Z7.000 F3000.000
G2 X-30.051 Y-22.501 Z7.000 I21.926 J29.476 K0.000 F3000.000
G0 Z13.000
G0 X-36.196 Y-9.990 Z13.000
G0 X-36.196 Y-9.990 Z11.000
G1 X-36.196 Y-9.990 Z7.000 F3000.000
G1 X-36.196 Y-9.992 Z7.000 F3000.000
G1 X-9.992 Y-36.196 Z7.000 F3000.000
G3 X-8.295 Y-36.621 Z7.000 I5.419 J18.041 K0.000 F3000.000
G1 X-36.621 Y-8.295 Z7.000 F3000.000
G2 X-36.948 Y-6.695 Z7.000 I17.649 J4.442 K0.000 F3000.000
G1 X-6.695 Y-36.948 Z7.000 F3000.000
G1 X-5.182 Y-37.187 Z7.000 F3000.000
G1 X-37.187 Y-5.182 Z7.000 F3000.000
G2 X-37.356 Y-3.741 Z7.000 I15.967 J2.602 K0.000 F3000.000
G1 X-3.741 Y-37.356 Z7.000 F3000.000
G3 X-2.358 Y-37.466 Z7.000 I1.918 J15.342 K0.000 F3000.000
G1 X-15.175 Y-24.649 Z7.000 F3000.000
G2 X-24.634 Y-15.190 Z7.000 I15.012 J24.471 K0.000 F3000.000
G1 X-37.466 Y-2.358 Z7.000 F3000.000
G2 X-37.527 Y-1.025 Z7.000 I14.810 J1.337 K0.000 F3000.000
G1 X-26.150 Y-12.401 Z7.000 F3000.000
G2 X-27.091 Y-10.188 Z7.000 I17.980 J8.946 K0.000 F3000.000
G1 X-37.544 Y0.265 Z7.000 F3000.000
G1 X-37.516 Y1.510 Z7.000 F3000.000
G1 X-27.733 Y-8.273 Z7.000 F3000.000
G2 X-28.194 Y-6.539 Z7.000 I16.429 J5.298 K0.000 F3000.000
G1 X-37.443 Y2.710 Z7.000 F3000.000
G2 X-37.340 Y3.880 Z7.000 I13.084 J-0.553 K0.000 F3000.000
G1 X-28.518 Y-4.942 Z7.000 F3000.000
G2 X-28.737 Y-3.451 Z7.000 I14.426 J2.871 K0.000 F3000.000
G1 X-37.212 Y5.024 Z7.000 F3000.000
G2 X-37.038 Y6.124 Z7.000 I12.326 J-1.381 K0.000 F3000.000
G1 X-28.869 Y-2.045 Z7.000 F3000.000
G2 X-28.932 Y-0.710 Z7.000 I12.907 J1.273 K0.000 F3000.000
G1 X-36.844 Y7.203 Z7.000 F3000.000
G1 X-36.628 Y8.259 Z7.000 F3000.000
G1 X-28.935 Y0.567 Z7.000 F3000.000
G2 X-28.889 Y1.793 Z7.000 I12.133 J0.158 K0.000 F3000.000
G1 X-36.375 Y9.279 Z7.000 F3000.000
G2 X-36.108 Y10.285 Z7.000 I11.326 J-2.476 K0.000 F3000.000
G1 X-28.795 Y2.972 Z7.000 F3000.000
G2 X-28.650 Y4.099 Z7.000 I11.879 J-0.958 K0.000 F3000.000
G1 X-35.814 Y11.263 Z7.000 F3000.000
G2 X-35.497 Y12.219 Z7.000 I10.795 J-3.056 K0.000 F3000.000
G1 X-28.471 Y5.193 Z7.000 F3000.000
G2 X-28.263 Y6.258 Z7.000 I10.969 J-1.595 K0.000 F3000.000
G1 X-35.167 Y13.162 Z7.000 F3000.000
G2 X-34.803 Y14.071 Z7.000 I10.308 J-3.589 K0.000 F3000.000
G1 X-28.013 Y7.281 Z7.000 F3000.000
G2 X-27.733 Y8.273 Z7.000 I9.876 J-2.251 K0.000 F3000.000
G1 X-34.431 Y14.972 Z7.000 F3000.000
G1 X-34.033 Y15.847 Z7.000 F3000.000
G1 X-27.431 Y9.244 Z7.000 F3000.000
G1 X-27.094 Y10.180 Z7.000 F3000.000
G1 X-33.620 Y16.706 Z7.000 F3000.000
G1 X-33.190 Y17.549 Z7.000 F3000.000
G1 X-26.731 Y11.091 Z7.000 F3000.000
G2 X-26.353 Y11.984 Z7.000 I15.916 J-6.217 K0.000 F3000.000
G1 X-32.739 Y18.371 Z7.000 F3000.000
G1 X-32.278 Y19.183 Z7.000 F3000.000
G1 X-25.936 Y12.841 Z7.000 F3000.000
G2 X-25.505 Y13.682 Z7.000 I8.470 J-3.815 K0.000 F3000.000
G1 X-31.790 Y19.967 Z7.000 F3000.000
G2 X-31.296 Y20.746 Z7.000 I8.923 J-5.105 K0.000 F3000.000
G1 X-25.051 Y14.501 Z7.000 F3000.000
G2 X-24.570 Y15.293 Z7.000 I8.131 J-4.401 K0.000 F3000.000
G1 X-30.775 Y21.498 Z7.000 F3000.000
G2 X-30.247 Y22.243 Z7.000 I8.557 J-5.505 K0.000 F3000.000
G1 X-24.077 Y16.072 Z7.000 F3000.000
G1 X-23.552 Y16.820 Z7.000 F3000.000
G1 X-29.697 Y22.966 Z7.000 F3000.000
G2 X-29.136 Y23.677 Z7.000 I8.202 J-5.893 K0.000 F3000.000
G1 X-23.012 Y17.554 Z7.000 F3000.000
G1 X-22.453 Y18.267 Z7.000 F3000.000
G1 X-28.557 Y24.371 Z7.000 F3000.000
G2 X-27.963 Y25.050 Z7.000 I7.854 J-6.274 K0.000 F3000.000
G1 X-21.869 Y18.956 Z7.000 F3000.000
G2 X-21.274 Y19.634 Z7.000 I27.286 J-23.301 K0.000 F3000.000
G1 X-27.355 Y25.715 Z7.000 F3000.000
G2 X-26.729 Y26.361 Z7.000 I7.511 J-6.650 K0.000 F3000.000
G1 X-20.647 Y20.280 Z7.000 F3000.000
G2 X-20.009 Y20.915 Z7.000 I6.623 J-6.009 K0.000 F3000.000
G1 X-26.092 Y26.998 Z7.000 F3000.000
G2 X-25.434 Y27.612 Z7.000 I7.168 J-7.025 K0.000 F3000.000
G1 X-19.348 Y21.526 Z7.000 F3000.000
G2 X-18.666 Y22.117 Z7.000 I6.153 J-6.399 K0.000 F3000.000
G1 X-24.769 Y28.220 Z7.000 F3000.000
G2 X-24.078 Y28.801 Z7.000 I6.823 J-7.401 K0.000 F3000.000
G1 X-17.970 Y22.694 Z7.000 F3000.000
G2 X-17.245 Y23.241 Z7.000 I6.038 J-7.254 K0.000 F3000.000
G1 X-23.383 Y29.379 Z7.000 F3000.000
G1 X-22.660 Y29.930 Z7.000 F3000.000
G1 X-16.509 Y23.778 Z7.000 F3000.000
G1 X-15.743 Y24.285 Z7.000 F3000.000
G1 X-21.932 Y30.474 Z7.000 F3000.000
G1 X-21.180 Y30.995 Z7.000 F3000.000
G1 X-14.961 Y24.775 Z7.000 F3000.000
G1 X-14.160 Y25.247 Z7.000 F3000.000
G1 X-20.418 Y31.506 Z7.000 F3000.000
G1 X-19.637 Y31.997 Z7.000 F3000.000
G1 X-13.328 Y25.689 Z7.000 F3000.000
G2 X-12.483 Y26.116 Z7.000 I4.710 J-8.264 K0.000 F3000.000
G1 X-18.839 Y32.473 Z7.000 F3000.000
G1 X-18.027 Y32.933 Z7.000 F3000.000
G1 X-11.607 Y26.513 Z7.000 F3000.000
G2 X-10.708 Y26.887 Z7.000 I4.112 J-8.627 K0.000 F3000.000
G1 X-17.193 Y33.372 Z7.000 F3000.000
G1 X-16.350 Y33.802 Z7.000 F3000.000
G1 X-9.792 Y27.243 Z7.000 F3000.000
G2 X-8.835 Y27.560 Z7.000 I24.241 J-71.658 K0.000 F3000.000
G1 X-15.477 Y34.201 Z7.000 F3000.000
G2 X-14.596 Y34.593 Z7.000 I4.801 J-9.614 K0.000 F3000.000
G1 X-7.857 Y27.854 Z7.000 F3000.000
G2 X-6.856 Y28.126 Z7.000 I5.834 J-19.498 K0.000 F3000.000
G1 X-13.687 Y34.957 Z7.000 F3000.000
G2 X-12.763 Y35.306 Z7.000 I4.344 J-10.115 K0.000 F3000.000
G1 X-5.810 Y28.353 Z7.000 F3000.000
G2 X-4.735 Y28.551 Z7.000 I2.466 J-10.380 K0.000 F3000.000
G1 X-11.820 Y35.636 Z7.000 F3000.000
G2 X-10.850 Y35.938 Z7.000 I3.850 J-10.655 K0.000 F3000.000
G1 X-3.629 Y28.717 Z7.000 F3000.000
G1 X-2.479 Y28.840 Z7.000 F3000.000
G1 X-9.866 Y36.227 Z7.000 F3000.000
G1 X-8.850 Y36.484 Z7.000 F3000.000
G1 X-1.279 Y28.913 Z7.000 F3000.000
G2 X-0.034 Y28.940 Z7.000 I0.886 J-12.074 K0.000 F3000.000
G1 X-7.813 Y36.719 Z7.000 F3000.000
G1 X-6.756 Y36.936 Z7.000 F3000.000
G1 X1.266 Y28.914 Z7.000 F3000.000
G2 X2.628 Y28.824 Z7.000 I-0.196 J-13.370 K0.000 F3000.000
G1 X-5.659 Y37.112 Z7.000 F3000.000
G2 X-4.541 Y37.266 Z7.000 I2.277 J-12.375 K0.000 F3000.000
G1 X4.067 Y28.658 Z7.000 F3000.000
G2 X5.600 Y28.398 Z7.000 I-1.798 J-15.252 K0.000 F3000.000
G1 X-3.397 Y37.395 Z7.000 F3000.000
G2 X-2.206 Y37.477 Z7.000 I1.505 J-13.220 K0.000 F3000.000
G1 X7.251 Y28.020 Z7.000 F3000.000
G2 X9.057 Y27.487 Z7.000 I-4.212 J-17.595 K0.000 F3000.000
G1 X-0.984 Y37.528 Z7.000 F3000.000
G2 X0.273 Y37.543 Z7.000 I0.806 J-13.985 K0.000 F3000.000
G1 X11.071 Y26.745 Z7.000 F3000.000
G2 X13.479 Y25.610 Z7.000 I-7.565 J-19.173 K0.000 F3000.000
G1 X1.575 Y37.514 Z7.000 F3000.000
G2 X2.934 Y37.428 Z7.000 I-0.286 J-15.179 K0.000 F3000.000
G1 X16.762 Y23.600 Z7.000 F3000.000
G0 Z13.000
G0 Z13.000
(Finish operation: Pocket_Shape001)
(Begin operation: TC: 3mm_mill002)
(Path: TC: 3mm_mill002)
(TC: 3mm_mill002)
(Begin toolchange)
( M6 T1.0 )
M3 S0.0
(Finish operation: TC: 3mm_mill002)
(Begin operation: Pocket_Shape002)
(Path: Pocket_Shape002)
(Pocket_Shape002)
G0 Z13.000
G0 X3.500 Y6.000
G0 Z11.000
G1 X3.500 Y6.000 Z5.000 F3000.000
G1 X3.500 Y-6.000 Z5.000 F3000.000
G1 X-3.500 Y-6.000 Z5.000 F3000.000
G1 X-3.500 Y6.000 Z5.000 F3000.000
G1 X3.500 Y6.000 Z5.000 F3000.000
G0 Z13.000
G0 X-3.500 Y4.819 Z13.000
G0 X-3.500 Y4.819 Z11.000
G1 X-3.500 Y4.819 Z5.000 F3000.000
G1 X-2.319 Y6.000 Z5.000 F3000.000
G1 X-3.500 Y6.000 Z5.000 F3000.000
G1 X-3.500 Y4.819 Z5.000 F3000.000
G1 X-3.500 Y3.546 Z5.000 F3000.000
G1 X-1.046 Y6.000 Z5.000 F3000.000
G1 X0.226 Y6.000 Z5.000 F3000.000
G1 X-3.500 Y2.274 Z5.000 F3000.000
G1 X-3.500 Y1.001 Z5.000 F3000.000
G1 X1.499 Y6.000 Z5.000 F3000.000
G1 X2.772 Y6.000 Z5.000 F3000.000
G1 X-3.500 Y-0.272 Z5.000 F3000.000
G1 X-3.500 Y-1.545 Z5.000 F3000.000
G1 X3.500 Y5.455 Z5.000 F3000.000
G1 X3.500 Y4.182 Z5.000 F3000.000
G1 X-3.500 Y-2.818 Z5.000 F3000.000
G1 X-3.500 Y-4.090 Z5.000 F3000.000
G1 X3.500 Y2.910 Z5.000 F3000.000
G1 X3.500 Y1.637 Z5.000 F3000.000
G1 X-3.500 Y-5.363 Z5.000 F3000.000
G1 X-3.500 Y-6.000 Z5.000 F3000.000
G1 X-2.864 Y-6.000 Z5.000 F3000.000
G1 X3.500 Y0.364 Z5.000 F3000.000
G1 X3.500 Y-0.909 Z5.000 F3000.000
G1 X-1.591 Y-6.000 Z5.000 F3000.000
G1 X-0.318 Y-6.000 Z5.000 F3000.000
G1 X3.500 Y-2.182 Z5.000 F3000.000
G1 X3.500 Y-3.454 Z5.000 F3000.000
G1 X0.954 Y-6.000 Z5.000 F3000.000
G1 X2.227 Y-6.000 Z5.000 F3000.000
G1 X3.500 Y-4.727 Z5.000 F3000.000
G1 X3.500 Y-6.000 Z5.000 F3000.000
G1 X3.500 Y-6.000 Z2.000 F3000.000
G1 X-3.500 Y-6.000 Z2.000 F3000.000
G1 X-3.500 Y6.000 Z2.000 F3000.000
G1 X3.500 Y6.000 Z2.000 F3000.000
G1 X3.500 Y-6.000 Z2.000 F3000.000
G1 X3.500 Y-6.000 Z2.000 F3000.000
G1 X3.500 Y-4.727 Z2.000 F3000.000
G1 X2.227 Y-6.000 Z2.000 F3000.000
G1 X0.954 Y-6.000 Z2.000 F3000.000
G1 X3.500 Y-3.454 Z2.000 F3000.000
G1 X3.500 Y-2.182 Z2.000 F3000.000
G1 X-0.318 Y-6.000 Z2.000 F3000.000
G1 X-1.591 Y-6.000 Z2.000 F3000.000
G1 X3.500 Y-0.909 Z2.000 F3000.000
G1 X3.500 Y0.364 Z2.000 F3000.000
G1 X-2.864 Y-6.000 Z2.000 F3000.000
G1 X-3.500 Y-6.000 Z2.000 F3000.000
G1 X-3.500 Y-5.363 Z2.000 F3000.000
G1 X3.500 Y1.637 Z2.000 F3000.000
G1 X3.500 Y2.910 Z2.000 F3000.000
G1 X-3.500 Y-4.090 Z2.000 F3000.000
G1 X-3.500 Y-2.818 Z2.000 F3000.000
G1 X3.500 Y4.182 Z2.000 F3000.000
G1 X3.500 Y5.455 Z2.000 F3000.000
G1 X-3.500 Y-1.545 Z2.000 F3000.000
G1 X-3.500 Y-0.272 Z2.000 F3000.000
G1 X2.772 Y6.000 Z2.000 F3000.000
G1 X1.499 Y6.000 Z2.000 F3000.000
G1 X-3.500 Y1.001 Z2.000 F3000.000
G1 X-3.500 Y2.274 Z2.000 F3000.000
G1 X0.226 Y6.000 Z2.000 F3000.000
G1 X-1.046 Y6.000 Z2.000 F3000.000
G1 X-3.500 Y3.546 Z2.000 F3000.000
G1 X-3.500 Y4.819 Z2.000 F3000.000
G1 X-3.500 Y6.000 Z2.000 F3000.000
G1 X-2.319 Y6.000 Z2.000 F3000.000
G1 X-3.500 Y4.819 Z2.000 F3000.000
G1 X-3.500 Y4.819 Z1.000 F3000.000
G1 X-2.319 Y6.000 Z1.000 F3000.000
G1 X-3.500 Y6.000 Z1.000 F3000.000
G1 X-3.500 Y4.819 Z1.000 F3000.000
G1 X-3.500 Y3.546 Z1.000 F3000.000
G1 X-1.046 Y6.000 Z1.000 F3000.000
G1 X0.226 Y6.000 Z1.000 F3000.000
G1 X-3.500 Y2.274 Z1.000 F3000.000
G1 X-3.500 Y1.001 Z1.000 F3000.000
G1 X1.499 Y6.000 Z1.000 F3000.000
G1 X2.772 Y6.000 Z1.000 F3000.000
G1 X-3.500 Y-0.272 Z1.000 F3000.000
G1 X-3.500 Y-1.545 Z1.000 F3000.000
G1 X3.500 Y5.455 Z1.000 F3000.000
G1 X3.500 Y4.182 Z1.000 F3000.000
G1 X-3.500 Y-2.818 Z1.000 F3000.000
G1 X-3.500 Y-4.090 Z1.000 F3000.000
G1 X3.500 Y2.910 Z1.000 F3000.000
G1 X3.500 Y1.637 Z1.000 F3000.000
G1 X-3.500 Y-5.363 Z1.000 F3000.000
G1 X-3.500 Y-6.000 Z1.000 F3000.000
G1 X-2.864 Y-6.000 Z1.000 F3000.000
G1 X3.500 Y0.364 Z1.000 F3000.000
G1 X3.500 Y-0.909 Z1.000 F3000.000
G1 X-1.591 Y-6.000 Z1.000 F3000.000
G1 X-0.318 Y-6.000 Z1.000 F3000.000
G1 X3.500 Y-2.182 Z1.000 F3000.000
G1 X3.500 Y-3.454 Z1.000 F3000.000
G1 X0.954 Y-6.000 Z1.000 F3000.000
G1 X2.227 Y-6.000 Z1.000 F3000.000
G1 X3.500 Y-4.727 Z1.000 F3000.000
G1 X3.500 Y-6.000 Z1.000 F3000.000
G1 X3.500 Y-6.000 Z1.000 F3000.000
G1 X-3.500 Y-6.000 Z1.000 F3000.000
G1 X-3.500 Y6.000 Z1.000 F3000.000
G1 X3.500 Y6.000 Z1.000 F3000.000
G1 X3.500 Y-6.000 Z1.000 F3000.000
G0 Z13.000
G0 Z13.000
(Finish operation: Pocket_Shape002)
(Begin operation: Profile001)
(Path: Profile001)
(Profile001)
(Compensated Tool Path. Diameter: 3.0)
G0 Z13.000
G0 X101.061 Y101.061
G0 Z11.000
G1 X101.061 Y101.061 Z8.000 F3000.000
G2 X101.500 Y100.000 Z8.000 I-1.061 J-1.061 K0.000 F3000.000
G1 X101.500 Y-100.000 Z8.000 F3000.000
G2 X100.000 Y-101.500 Z8.000 I-1.500 J0.000 K0.000 F3000.000
G1 X-100.000 Y-101.500 Z8.000 F3000.000
G2 X-101.500 Y-100.000 Z8.000 I0.000 J1.500 K0.000 F3000.000
G1 X-101.500 Y100.000 Z8.000 F3000.000
G2 X-100.000 Y101.500 Z8.000 I1.500 J0.000 K0.000 F3000.000
G1 X100.000 Y101.500 Z8.000 F3000.000
G2 X101.061 Y101.061 Z8.000 I0.000 J-1.500 K0.000 F3000.000
G0 Z13.000
G0 Z13.000
(Finish operation: Profile001)
(Begin postamble)
M5
G17 G90
M2
